P2
# This is a comment
306 165
255
186 177 197 188 176 103 88 150 197 185 190 209 169 126 173 107 79 80 202 198 192 192 112 201 191 193 183 139 188 176 79 149 220 156 77 74 74 71 103 181 211 210 220 211 205 206 211 213 217 203 218 172 160 161 188 141 124 80 88 82 84 62 54 48 64 61 58 61 67 69 67 64 59 65 70 70 64 58 57 57 56 53 52 55 60 61 57 53 57 45 61 79 126 84 124 206 192 196 183 197 204 211 190 191 211 213 209 201 203 210 211 204 202 203 203 204 205 206 206 206 211 211 212 212 213 213 213 213 215 215 215 215 215 215 215 215 204 215 216 204 199 204 205 199 209 208 205 199 189 178 168 161 152 150 146 143 143 146 150 152 184 195 167 148 152 108 105 114 114 117 112 151 147 104 104 92 131 210 204 199 196 206 205 215 211 211 211 210 210 209 209 209 203 203 203 202 202 202 201 201 210 208 207 206 206 209 212 214 212 212 211 210 210 209 208 208 209 209 209 209 209 209 209 209 214 214 214 214 214 214 214 214 212 218 213 205 204 211 207 181 190 116 134 155 112 98 105 92 77 91 91 77 76 88 86 71 98 85 71 68 71 73 67 60 63 60 59 64 71 76 75 72 68 70 73 75 74 71 68 65 70 83 103 112 127 138 183 157 122 102 121 149 187 211 209 234 215 210 198 184 173 172 180 188 186 186 
187 189 194 196 195 183 200 208 180 170 166 83 62 61 156 129 85 86 143 117 170 201 169 175 206 176 195 180 187 201 65 138 202 211 57 73 99 72 143 218 208 204 209 210 213 214 211 207 207 212 196 188 143 191 179 136 96 78 92 70 62 56 58 49 64 61 58 61 67 69 67 64 60 66 70 69 64 58 57 58 56 55 54 54 55 54 53 51 52 57 38 62 63 56 59 126 184 179 207 207 184 203 215 167 200 205 204 198 200 208 209 203 203 203 203 204 205 206 206 207 211 211 212 212 213 213 213 213 215 215 215 215 215 215 215 215 215 213 215 216 211 204 205 212 198 199 201 203 204 204 203 202 208 209 210 210 210 210 209 208 207 218 205 200 203 142 123 130 120 120 119 157 154 125 134 122 106 191 202 204 201 208 209 221 211 211 211 210 210 210 209 209 206 206 205 205 204 204 204 204 210 209 207 206 207 209 212 214 212 212 211 211 210 209 208 208 209 209 209 209 209 209 209 209 214 214 214 214 214 214 214 214 210 212 213 215 208 199 195 190 194 208 174 94 68 86 78 73 85 94 92 80 76 81 78 67 77 87 93 85 69 60 65 73 63 67 71 71 68 65 64 65 61 67 76 84 87 85 80 77 86 77 84 80 76 76 128 196 198 191 204 206 203 213 213 208 218 214 203 190 179 177 184 191 187 187 
191 205 198 202 189 208 206 136 73 77 87 86 91 138 166 157 74 97 97 56 163 217 214 107 84 102 87 192 198 208 138 99 217 188 92 161 217 141 82 198 218 213 204 209 216 218 212 208 208 205 204 201 173 182 162 118 74 58 74 61 58 65 73 69 64 61 58 61 67 69 67 64 62 66 70 69 63 58 58 60 59 60 59 55 50 48 48 49 62 80 51 66 58 76 65 105 144 177 199 183 198 187 194 201 190 198 200 197 198 205 206 201 203 203 204 205 205 206 207 207 211 211 212 212 213 213 213 213 215 215 215 215 215 215 215 215 206 177 171 199 219 212 206 212 207 207 207 207 209 211 214 216 205 208 212 216 216 212 208 205 206 207 200 204 205 131 103 120 112 115 123 153 139 119 139 131 97 179 205 210 207 208 207 217 212 211 211 211 210 210 210 210 209 209 209 208 208 208 207 207 210 209 207 206 207 209 212 214 213 212 212 211 210 209 209 208 209 209 209 209 209 209 209 209 214 214 214 214 214 214 214 214 213 212 213 214 213 206 202 209 185 207 166 83 69 82 73 89 86 87 85 80 78 79 78 75 80 85 90 89 81 74 70 69 69 66 65 68 72 71 64 56 59 66 75 82 83 78 70 64 75 77 98 107 94 77 91 191 213 213 217 220 206 209 224 209 221 217 209 197 186 183 188 193 189 188 
185 194 188 193 180 208 168 87 67 75 60 86 86 178 191 165 109 111 88 81 181 197 191 72 99 99 90 172 177 208 168 62 187 211 209 207 219 199 67 114 218 227 208 212 212 214 212 217 215 192 206 203 184 146 143 131 106 65 65 70 67 62 56 58 64 61 58 61 67 69 67 64 64 68 70 67 62 58 59 62 78 79 78 73 65 60 60 62 71 75 61 43 55 51 50 58 102 130 186 190 180 198 208 158 186 197 204 201 200 204 203 198 203 204 204 205 206 207 207 207 211 211 212 212 213 213 213 213 215 215 215 215 215 215 215 215 196 162 155 188 215 212 204 208 219 215 210 205 203 203 205 207 209 210 213 215 215 213 210 209 214 206 204 212 211 131 96 119 119 113 122 147 134 115 124 107 123 184 211 211 210 208 201 204 212 212 212 211 211 210 210 210 212 212 212 212 211 211 210 210 211 209 207 207 207 210 213 215 213 213 212 211 211 210 209 209 209 209 209 209 209 209 209 209 214 214 214 214 214 214 214 214 214 214 214 207 211 207 189 192 206 121 79 67 59 66 67 67 78 76 75 78 80 81 85 88 92 83 77 81 90 90 79 66 67 64 62 64 68 71 72 70 64 67 71 74 74 72 68 65 82 85 88 101 85 82 76 129 212 224 211 218 216 207 222 219 219 217 212 201 190 185 187 192 189 189 
188 179 195 205 198 198 109 63 159 117 86 86 78 110 189 194 123 82 75 138 207 194 200 178 182 197 180 218 197 169 208 87 109 219 216 203 186 216 172 77 168 216 211 220 210 210 210 218 212 199 186 181 135 120 124 146 103 64 63 72 65 63 52 55 64 61 58 61 67 69 67 64 66 69 70 66 60 58 60 64 68 68 68 65 59 52 47 44 55 52 58 43 75 67 80 80 88 73 118 193 194 179 159 143 184 200 211 208 203 203 201 196 204 204 205 205 206 207 208 208 211 211 212 212 213 213 213 213 215 215 215 215 215 215 215 215 206 197 197 209 212 205 205 214 213 210 207 204 204 207 210 213 211 209 206 204 204 206 209 211 209 204 208 210 209 132 90 110 135 120 125 155 154 132 119 98 158 188 209 205 213 214 206 201 213 212 212 212 211 211 211 210 214 214 213 213 213 212 212 212 211 210 208 207 208 210 213 215 214 213 213 212 211 210 210 209 209 209 209 209 209 209 209 209 214 214 214 214 214 214 214 214 214 210 215 209 205 179 151 176 177 84 78 96 70 68 80 76 79 75 74 75 77 80 84 89 87 86 83 81 80 81 83 85 64 74 79 70 55 55 72 91 69 68 68 69 74 81 89 93 99 89 73 95 73 72 78 76 156 218 218 215 224 213 216 221 214 215 212 204 193 186 185 187 188 188 
137 95 125 148 161 158 86 88 192 139 70 77 81 128 197 206 202 169 170 210 215 208 205 214 206 246 202 217 164 68 185 112 90 197 207 207 172 182 205 116 97 192 210 227 212 213 208 211 210 211 198 144 115 101 107 96 58 51 63 67 54 72 68 67 64 61 58 61 67 69 67 64 68 70 70 65 59 58 61 66 85 84 84 87 87 80 66 54 68 66 61 58 60 57 54 53 71 60 53 121 150 121 116 207 175 196 212 211 206 204 203 198 204 205 205 206 207 207 208 208 211 211 212 212 213 213 213 213 215 215 215 215 215 215 215 215 214 214 215 216 216 215 216 218 214 213 212 212 212 214 216 217 220 217 213 209 209 213 217 220 219 213 206 182 181 131 100 122 118 117 132 162 160 124 109 122 172 181 203 197 214 221 216 210 213 213 213 212 212 211 211 211 213 213 213 213 212 212 211 211 212 210 208 207 208 211 214 216 214 214 213 212 212 211 210 210 209 209 209 209 209 209 209 209 214 214 214 214 214 214 214 214 224 207 211 211 203 165 147 212 148 85 73 86 78 63 62 84 88 87 81 73 70 74 77 77 81 84 85 80 74 76 85 95 82 86 85 74 61 58 69 82 74 70 64 61 65 75 86 94 88 77 76 116 96 78 98 89 62 169 213 207 216 221 218 215 212 215 215 208 197 189 185 185 185 184 
175 81 74 74 74 75 65 78 194 196 100 56 80 183 172 141 144 147 153 157 138 156 151 136 131 126 131 104 73 72 121 155 58 179 223 115 60 81 94 81 74 195 214 225 207 216 211 208 214 213 201 134 141 124 107 50 59 56 68 76 58 74 62 59 64 61 58 61 67 69 67 64 70 71 69 64 58 57 62 67 87 83 84 94 102 95 71 50 51 60 58 64 55 68 64 63 54 57 62 56 46 82 139 176 157 182 204 208 205 206 206 203 205 205 205 206 207 208 208 209 211 211 212 212 213 213 213 213 215 215 215 215 215 215 215 215 215 208 205 211 220 223 220 216 219 219 220 219 218 215 213 211 212 211 210 210 210 210 211 212 207 200 177 122 122 105 92 115 106 110 123 151 154 108 93 138 171 172 203 196 213 218 217 213 213 213 213 212 212 212 211 211 212 212 211 211 211 210 210 210 212 211 209 208 209 211 214 216 214 214 213 213 212 211 211 210 209 209 209 209 209 209 209 209 214 214 214 214 214 214 214 214 223 209 210 201 207 182 148 197 192 124 76 67 80 81 71 90 89 93 85 68 65 74 77 70 78 77 76 78 81 84 85 85 93 85 78 78 82 81 73 64 73 69 63 59 61 68 76 81 74 66 76 90 89 73 96 118 62 130 202 214 213 225 219 208 215 219 220 215 205 194 189 188 181 181 
192 89 83 92 83 74 92 71 192 204 200 174 221 172 79 76 83 76 77 86 70 79 84 70 72 92 75 81 73 92 69 67 66 177 201 83 96 111 72 62 93 218 222 219 198 217 217 212 214 210 160 156 152 180 119 68 69 45 54 88 81 88 67 71 64 61 58 61 67 69 67 64 70 71 69 64 58 57 63 68 86 80 82 97 111 103 73 46 46 59 67 56 50 58 61 49 59 63 49 49 89 53 56 118 142 170 196 204 204 206 209 208 205 205 206 206 207 208 209 209 211 211 212 212 213 213 213 213 215 215 215 215 215 215 215 215 223 218 217 220 219 212 212 216 210 212 216 219 219 217 213 211 211 213 217 220 220 217 213 211 211 212 186 118 119 117 106 123 131 111 101 134 164 121 87 130 168 169 208 199 209 209 209 208 214 213 213 213 212 212 212 211 211 210 210 210 209 209 209 208 212 211 209 208 209 211 214 216 215 214 214 213 212 211 211 210 209 209 209 209 209 209 209 209 214 214 214 214 214 214 214 214 205 212 214 192 211 198 119 106 90 110 138 104 59 67 89 102 81 90 83 64 62 79 84 74 69 72 76 82 85 86 82 79 80 78 80 88 95 92 79 66 65 65 66 68 74 82 89 93 68 76 100 77 91 77 70 99 91 86 162 211 211 226 225 216 218 223 225 221 210 199 193 191 179 178 
185 100 76 86 76 54 82 176 209 200 199 197 216 191 107 74 78 78 78 78 78 78 78 78 88 87 100 66 89 211 139 107 85 199 165 89 85 216 191 183 213 215 213 210 213 218 213 204 193 208 215 201 214 96 42 75 52 60 74 81 71 59 65 82 88 82 74 66 60 58 57 56 54 72 82 63 55 57 61 93 84 92 106 107 94 83 83 90 47 80 77 53 65 57 70 68 57 47 63 62 79 111 161 167 164 173 187 200 207 207 204 201 205 205 206 207 208 210 211 211 211 211 211 211 211 211 211 211 211 212 212 213 214 215 215 216 217 217 217 217 217 217 217 217 217 216 216 215 214 213 213 212 212 212 212 211 211 210 210 210 207 212 192 154 180 186 191 185 186 183 182 183 186 184 178 172 150 124 189 207 213 211 209 210 211 211 211 211 211 211 211 211 210 210 210 210 210 210 210 210 210 210 210 209 209 208 208 208 210 210 210 210 210 210 210 210 209 209 209 209 209 209 209 209 210 210 210 210 210 210 210 210 210 211 215 218 214 199 175 157 77 85 73 79 66 76 65 84 67 67 68 68 68 69 69 69 76 71 68 73 81 86 83 78 98 80 73 84 95 91 83 81 69 67 67 69 73 77 79 79 73 89 87 83 88 84 82 98 84 62 153 219 225 220 230 217 215 217 219 219 215 208 200 195 183 183 
195 141 81 73 108 153 189 201 189 206 210 206 210 207 158 84 83 83 83 83 83 83 83 83 79 77 84 75 130 198 133 56 92 73 72 82 82 142 199 195 211 213 215 215 214 212 205 198 222 192 192 211 111 79 63 60 61 71 77 72 63 59 62 66 61 58 57 59 64 65 62 58 64 69 72 58 58 60 63 95 123 140 121 113 123 132 124 93 57 82 70 86 59 67 61 61 55 71 47 68 61 118 99 85 109 138 176 200 205 200 199 200 205 205 206 207 208 210 211 211 211 211 211 211 211 211 211 211 211 212 212 213 214 215 215 216 217 217 217 217 217 217 217 217 217 216 216 215 214 214 213 213 212 212 212 212 211 211 211 210 211 215 201 172 194 193 194 189 205 198 190 187 189 192 192 191 170 119 174 211 216 199 203 229 211 211 211 211 211 211 211 211 210 210 210 210 210 210 210 210 210 210 210 209 209 208 208 208 210 210 210 210 210 210 210 210 209 209 209 209 209 209 209 209 210 210 210 210 210 210 210 210 207 211 217 218 215 208 201 197 145 61 76 85 69 60 61 75 67 68 68 68 69 69 69 70 77 73 71 76 84 89 87 83 86 87 83 78 84 95 90 76 70 72 73 69 65 66 73 80 65 74 76 74 74 72 74 83 72 78 123 213 214 212 216 230 216 218 220 219 215 208 200 195 183 183 
190 204 192 204 204 196 214 206 192 211 208 207 199 211 209 134 107 107 107 107 107 107 107 107 98 101 108 121 196 211 180 90 84 69 90 88 56 101 220 212 210 212 217 221 216 206 200 199 215 218 208 165 85 72 76 68 66 73 71 60 57 64 65 58 59 61 66 74 82 84 80 75 74 65 62 54 60 61 66 103 128 141 138 169 177 125 90 84 66 86 100 124 63 58 65 63 65 95 82 123 70 100 100 158 189 191 194 194 194 197 202 207 205 205 206 207 208 210 211 211 212 212 212 212 212 212 212 212 211 212 212 213 214 215 215 216 217 217 217 217 217 217 217 217 217 217 216 215 215 214 213 213 213 213 213 212 212 212 211 211 213 213 205 189 202 195 191 189 194 190 187 187 190 189 184 179 160 142 192 206 208 217 215 204 212 212 212 212 212 212 212 212 210 210 210 210 210 210 210 210 210 210 210 209 209 208 208 208 210 210 210 210 210 210 210 210 209 209 209 209 209 209 209 209 210 210 210 210 210 210 210 210 207 212 216 213 208 208 215 223 169 118 159 82 57 65 78 72 68 68 68 69 69 69 70 70 75 73 73 78 86 91 91 89 79 86 85 79 81 90 89 80 79 75 74 79 85 82 68 56 70 70 76 77 70 71 78 77 77 86 87 167 221 214 212 227 217 219 221 221 216 209 201 196 183 183 
206 197 184 197 193 176 198 218 205 205 201 208 204 206 216 192 215 215 215 215 215 215 215 215 214 215 213 204 232 206 199 146 70 83 81 84 106 175 229 208 212 213 218 221 216 207 206 209 207 214 176 112 105 78 71 87 67 64 58 53 59 69 69 63 54 59 65 67 66 65 65 67 76 64 59 54 58 58 68 116 141 151 136 123 141 129 94 96 100 92 127 112 70 45 93 70 65 98 111 106 82 138 182 197 211 208 204 202 201 200 198 197 205 205 206 207 208 210 211 211 212 212 212 212 212 212 212 212 211 212 212 213 214 215 215 216 217 217 217 217 217 217 217 217 218 217 217 216 215 214 214 213 214 214 214 213 213 212 212 212 215 209 202 194 195 188 187 189 182 180 179 182 184 182 174 167 148 114 161 209 214 208 208 216 212 212 212 212 212 212 212 212 210 210 210 210 210 210 210 210 210 210 210 209 209 208 208 208 210 210 210 210 210 210 210 210 210 210 210 210 210 210 210 210 210 210 210 210 210 210 210 210 212 212 211 206 201 201 206 211 153 119 132 64 84 72 59 64 68 68 69 69 69 70 70 70 70 71 73 77 82 87 89 89 81 75 78 86 85 78 80 90 115 92 67 61 73 83 79 70 77 69 78 81 71 74 82 74 86 83 87 105 227 215 218 225 218 220 222 222 218 210 203 198 184 184 
196 192 202 198 203 214 203 203 204 200 207 209 218 212 196 216 214 214 214 214 214 214 214 214 199 202 213 207 207 200 207 214 125 93 104 145 204 220 207 216 216 216 216 216 215 215 216 217 205 139 91 97 76 77 76 81 75 61 53 57 65 66 64 65 51 58 63 57 48 46 55 66 69 63 63 56 54 54 72 128 154 136 131 119 155 161 100 106 134 98 110 71 64 56 111 63 80 73 116 121 116 146 203 190 189 200 210 208 197 191 194 200 205 205 206 207 208 210 211 211 213 213 213 213 213 213 213 213 211 212 212 213 214 215 215 216 217 217 217 217 217 217 217 217 218 218 217 216 216 215 214 214 215 215 215 214 214 213 213 213 222 213 203 198 186 186 190 194 196 189 182 179 182 184 184 182 176 137 163 210 209 207 212 221 213 213 213 213 213 213 213 213 210 210 210 210 210 210 210 210 210 210 210 209 209 208 208 208 210 210 210 210 210 210 210 210 210 210 210 210 210 210 210 210 210 210 210 210 210 210 210 210 214 210 206 206 206 205 200 195 186 153 125 73 76 65 71 82 69 69 69 70 70 70 71 71 66 68 71 74 76 79 82 85 77 72 75 84 84 77 80 90 103 91 75 66 67 71 74 75 78 67 73 77 68 72 78 67 83 83 110 74 197 216 219 234 220 222 224 223 219 212 204 199 184 184 
198 201 216 191 184 203 197 206 204 210 215 198 212 218 194 220 211 211 211 211 211 211 211 211 217 212 222 223 207 211 200 224 209 168 213 207 221 205 217 223 216 219 216 210 214 223 218 204 149 99 88 75 63 71 92 63 86 70 61 67 69 61 55 57 61 67 71 66 59 61 74 86 62 64 68 57 53 57 77 130 149 129 150 160 162 127 79 120 113 99 88 71 61 73 93 51 98 60 116 164 144 122 178 213 214 213 207 197 189 190 200 210 205 205 206 207 208 210 211 211 213 213 213 213 213 213 213 213 211 212 212 213 214 215 215 216 217 217 217 217 217 217 217 217 219 218 218 217 216 215 215 214 216 216 215 215 215 214 214 214 226 221 212 205 182 191 197 196 195 190 185 184 187 187 184 180 172 157 175 207 202 220 221 204 213 213 213 213 213 213 213 213 210 210 210 210 210 210 210 210 210 210 210 209 209 208 208 208 210 210 210 210 210 210 210 210 211 211 211 211 211 211 211 211 210 210 210 210 210 210 210 210 213 209 208 212 217 217 208 200 175 156 162 138 84 72 82 57 69 69 70 70 70 71 71 71 66 70 73 74 72 72 76 80 69 76 77 72 76 87 88 80 70 71 76 83 86 79 64 51 85 78 77 79 78 80 79 72 86 83 102 78 147 229 217 227 221 223 225 225 220 213 205 200 185 185 
194 192 196 198 204 211 208 208 211 214 212 202 206 215 213 216 215 215 215 215 215 215 215 215 223 213 214 223 213 212 197 209 228 211 228 200 201 213 236 207 211 221 218 208 215 227 207 171 106 110 104 56 83 76 81 61 81 76 72 72 70 65 58 54 59 59 59 62 66 70 72 72 58 64 67 53 56 68 83 124 144 155 143 118 96 90 110 134 92 103 79 85 70 82 75 63 92 82 109 115 145 153 190 190 198 196 195 197 200 203 203 201 205 205 206 207 208 210 211 211 213 213 213 213 213 213 213 213 211 212 212 213 214 215 215 216 217 217 217 217 217 217 217 217 219 219 218 217 216 216 215 215 217 216 216 216 215 215 215 215 217 221 217 210 178 194 196 185 183 181 181 184 187 184 176 168 150 112 133 211 212 207 209 220 213 213 213 213 213 213 213 213 210 210 210 210 210 210 210 210 210 210 210 209 209 208 208 208 210 210 210 210 210 210 210 210 211 211 211 211 211 211 211 211 210 210 210 210 210 210 210 210 213 213 214 216 217 216 213 211 213 128 107 86 54 59 73 81 69 70 70 70 71 71 71 72 71 76 80 77 72 70 73 78 70 73 70 68 78 91 88 76 77 72 69 75 84 85 77 68 90 88 80 80 87 86 79 77 88 80 80 96 106 223 218 213 222 224 226 226 222 214 206 201 185 185 
182 211 205 199 190 191 216 211 210 205 206 229 220 210 226 204 215 215 215 215 215 215 215 215 219 212 204 216 217 209 208 210 213 218 195 225 215 202 204 213 205 221 220 208 216 227 194 142 132 109 52 71 78 87 51 68 66 75 78 72 71 74 69 59 60 52 48 56 69 72 60 47 57 63 64 50 60 78 87 117 119 108 84 138 154 115 119 100 114 111 65 70 80 90 82 87 98 98 119 98 173 157 190 198 200 207 210 206 197 194 200 207 205 205 206 207 208 210 211 211 214 214 214 214 214 214 214 214 211 212 212 213 214 215 215 216 217 217 217 217 217 217 217 217 219 219 218 217 217 216 215 215 217 217 217 216 216 215 215 215 202 214 216 210 173 192 189 170 192 186 179 178 180 182 180 177 178 155 160 208 202 216 220 210 214 214 214 214 214 214 214 214 210 210 210 210 210 210 210 210 210 210 210 209 209 208 208 208 210 210 210 210 210 210 210 210 211 211 211 211 211 211 211 211 210 210 210 210 210 210 210 210 215 218 220 215 208 205 208 213 216 205 192 88 63 89 63 62 70 70 70 71 71 71 72 72 77 82 85 82 74 70 74 79 79 63 58 73 87 86 81 81 68 78 90 94 91 87 87 89 81 84 71 68 83 79 67 69 78 76 79 113 82 191 221 213 223 225 227 226 222 215 207 202 185 185 
182 199 200 203 189 200 202 209 209 210 211 212 213 214 215 215 211 212 213 214 215 217 218 218 212 212 212 213 213 213 214 214 215 215 215 215 215 215 215 215 211 211 213 211 208 210 182 110 130 60 55 79 89 86 63 58 76 71 69 76 84 80 64 48 62 59 54 75 104 87 54 50 68 46 45 70 83 77 87 110 84 119 134 135 120 108 114 105 106 98 85 101 59 64 88 73 79 103 61 130 190 158 191 200 203 203 203 203 203 203 203 203 207 207 207 208 208 209 209 209 211 212 212 212 213 213 213 214 209 210 211 213 214 216 217 218 216 217 218 219 220 221 222 222 220 220 219 218 217 217 216 216 215 216 218 219 218 216 213 210 211 214 213 203 188 181 185 192 194 194 193 193 192 191 190 190 184 182 183 200 200 226 215 212 216 216 216 216 216 216 216 216 213 213 213 213 213 213 213 213 212 211 210 209 208 207 206 205 210 210 210 210 210 210 210 210 209 209 209 209 209 209 209 209 214 214 214 214 215 215 216 216 215 215 215 215 215 215 215 215 215 212 213 80 67 84 65 69 67 66 64 63 64 66 69 71 79 79 78 77 76 74 74 73 70 66 65 69 77 81 79 75 91 87 91 72 79 112 121 133 99 77 62 68 79 77 69 66 86 77 86 150 126 147 224 224 229 226 224 224 224 219 209 201 186 186 
192 193 192 211 214 222 208 202 209 210 211 212 213 214 215 215 212 212 213 214 215 216 217 217 213 213 214 214 214 215 215 215 215 215 215 215 215 215 215 215 211 212 210 212 211 216 149 113 83 52 69 78 61 53 56 76 67 62 59 63 69 70 63 55 68 64 54 64 83 74 59 66 58 57 67 82 83 79 93 115 90 133 132 112 121 154 160 118 94 74 97 126 82 115 141 93 90 99 95 122 196 179 193 196 203 203 203 203 203 203 203 203 207 207 207 208 208 208 209 209 211 211 212 212 212 213 213 213 214 214 214 214 213 213 213 212 216 216 217 218 220 221 222 222 220 220 219 219 218 217 216 216 217 217 217 217 217 215 214 213 216 220 219 208 194 186 190 197 188 188 187 186 185 185 184 184 149 146 150 194 207 217 212 216 216 216 216 216 216 216 216 216 214 214 214 214 214 214 214 214 215 215 214 213 211 210 209 209 210 210 210 210 210 210 210 210 209 209 209 209 209 209 209 209 214 214 214 214 215 215 216 216 215 215 215 215 215 215 215 215 217 217 202 58 93 60 76 65 67 66 64 63 64 66 69 71 77 77 76 75 73 72 71 71 68 68 67 67 69 75 82 87 73 84 102 84 72 79 75 81 85 100 100 79 66 71 74 68 75 70 90 93 164 97 234 215 229 227 225 226 227 221 211 203 187 187 
186 189 194 214 202 199 200 222 209 210 211 212 213 214 215 215 213 213 213 214 214 215 216 216 215 215 216 216 216 217 217 217 214 214 214 214 214 214 214 214 209 212 209 213 212 218 117 107 59 48 64 66 52 50 59 75 66 62 58 57 58 60 61 61 52 58 62 72 81 68 54 58 52 61 76 84 82 79 89 104 125 106 102 141 156 135 140 151 108 144 159 129 104 145 150 128 112 99 125 103 187 197 195 196 204 204 204 204 204 204 204 204 206 207 207 207 208 208 208 208 211 211 211 212 212 213 213 213 218 217 216 214 212 210 209 208 215 216 216 218 219 220 221 221 221 220 220 219 218 217 217 216 220 219 217 215 214 214 215 215 216 220 219 208 194 186 190 197 193 193 192 192 191 190 189 189 191 147 103 159 203 211 214 215 216 216 216 216 216 216 216 216 214 214 214 214 214 214 214 214 218 217 216 215 214 213 212 211 211 211 211 211 211 211 211 211 210 210 210 210 210 210 210 210 214 214 214 214 215 215 216 216 214 214 214 214 214 214 214 214 212 225 141 71 81 67 66 68 67 66 64 63 64 66 69 71 74 73 72 71 70 69 68 68 65 68 69 66 64 70 84 96 99 104 110 90 74 73 69 74 97 94 92 91 87 80 75 74 76 82 84 74 160 116 219 226 228 227 227 230 231 226 216 207 188 188 
171 151 146 185 198 203 200 217 209 210 211 212 213 214 215 215 214 214 214 214 214 214 214 214 216 216 217 217 217 218 218 218 214 214 214 214 214 214 214 214 208 212 212 214 209 206 115 85 63 57 58 57 59 65 67 67 68 68 66 63 59 57 59 62 66 62 55 54 59 61 63 69 56 55 63 77 80 74 74 83 108 118 130 157 160 143 151 157 160 168 147 109 130 161 127 115 133 109 130 93 166 202 197 201 204 204 204 204 204 204 204 204 206 206 206 207 207 208 208 208 210 211 211 211 212 212 212 213 215 215 214 213 212 211 210 210 214 215 216 217 218 219 220 220 221 221 220 219 218 218 217 217 221 219 217 215 214 214 216 217 211 214 213 203 188 181 185 192 196 196 195 195 194 193 193 192 189 174 143 197 227 205 216 222 217 217 217 217 217 217 217 217 214 214 214 214 214 214 214 214 216 216 215 214 213 211 210 210 211 211 211 211 211 211 211 211 211 211 211 211 211 211 211 211 214 214 214 214 215 215 216 216 214 214 214 214 214 214 214 214 209 188 79 86 62 81 56 69 67 66 64 63 64 66 69 71 71 71 70 69 67 66 65 65 63 65 68 68 69 75 84 91 101 90 77 65 65 72 72 73 99 78 71 90 104 98 83 77 84 81 77 72 114 169 192 227 225 225 227 232 235 230 220 211 189 189 
133 113 117 176 203 210 202 217 209 210 211 212 213 214 215 215 215 215 214 214 213 212 212 211 215 215 216 216 216 217 217 217 213 213 213 213 213 213 213 213 208 212 217 215 203 189 134 60 61 71 67 60 57 58 63 66 57 60 64 65 63 61 61 62 60 64 76 89 94 89 73 53 63 52 60 79 78 63 68 89 100 145 163 160 159 172 189 175 153 110 126 143 157 174 169 167 138 127 125 112 153 206 200 204 205 205 205 205 205 205 205 205 205 206 206 206 207 207 207 208 210 210 210 211 211 212 212 212 209 210 211 212 213 214 215 215 213 214 215 216 217 218 219 220 221 221 221 220 219 218 218 217 220 219 218 217 216 216 216 216 211 214 213 203 188 181 185 192 190 189 189 188 187 187 186 186 162 161 135 181 228 210 217 213 217 217 217 217 217 217 217 217 215 215 215 215 215 215 215 215 212 212 211 210 209 208 207 206 212 212 212 212 212 212 212 212 212 212 212 212 212 212 212 212 214 214 214 214 215 215 216 216 213 213 213 213 213 213 213 213 203 107 66 68 76 67 68 64 67 66 64 63 64 66 69 71 70 70 69 68 66 65 64 64 62 62 66 73 80 83 80 76 70 65 59 66 72 71 68 61 74 84 86 82 87 97 92 76 84 70 71 55 83 170 196 198 219 221 226 233 237 233 222 213 191 190 
138 125 130 179 194 197 197 219 209 210 211 212 213 214 215 215 216 216 215 214 212 211 210 209 212 213 213 213 214 214 214 214 213 213 213 213 213 213 213 213 210 214 218 214 200 182 141 51 59 75 64 57 55 47 54 60 47 48 52 58 63 65 64 62 63 56 58 59 60 71 70 52 64 59 70 86 77 61 85 127 144 154 153 163 164 161 178 183 169 170 182 160 147 140 148 157 130 139 125 128 138 211 202 204 205 205 205 205 205 205 205 205 205 205 205 206 206 207 207 207 210 210 210 210 211 211 211 212 207 207 209 211 213 215 216 217 212 213 214 215 216 217 218 219 222 222 221 220 219 219 218 218 216 218 220 221 221 218 214 212 216 220 219 208 194 186 190 197 193 193 192 191 190 190 189 189 187 155 100 122 200 215 220 210 218 218 218 218 218 218 218 218 215 215 215 215 215 215 215 215 211 211 210 209 207 206 205 205 212 212 212 212 212 212 212 212 213 213 213 213 213 213 213 213 214 214 214 214 215 215 216 216 213 213 213 213 213 213 213 213 176 59 71 67 77 62 72 63 67 66 64 63 64 66 69 71 71 71 70 69 67 66 65 65 64 64 68 77 85 85 75 66 64 71 75 90 89 73 72 69 79 84 87 84 82 82 81 80 81 92 63 74 74 152 216 184 213 216 223 232 238 234 222 213 192 192 
179 143 124 169 201 216 201 200 209 210 211 212 213 214 215 215 217 217 215 213 211 210 208 208 209 209 210 210 210 211 211 211 212 212 212 212 212 212 212 212 214 216 215 212 200 190 124 65 61 73 53 53 60 48 51 56 66 58 52 53 60 65 63 58 62 66 81 83 74 81 81 60 62 61 70 80 76 78 116 162 159 177 167 155 153 162 171 153 143 165 148 117 137 125 119 109 123 138 123 104 97 204 201 209 206 206 206 206 206 206 206 206 205 205 205 206 206 206 207 207 209 209 210 210 210 211 211 211 210 210 211 211 212 212 212 212 212 212 213 214 215 217 217 218 222 222 221 221 220 219 218 218 212 216 223 227 226 220 213 207 216 220 219 208 194 186 190 197 198 198 197 197 196 195 194 194 191 176 149 150 208 210 214 229 218 218 218 218 218 218 218 218 216 216 216 216 216 216 216 216 214 213 212 211 210 209 208 207 212 212 212 212 212 212 212 212 213 213 213 213 213 213 213 213 214 214 214 214 215 215 216 216 212 212 212 212 212 212 212 212 132 68 80 89 63 68 64 68 67 66 64 63 64 66 69 71 73 72 72 70 69 68 67 67 68 70 73 77 78 76 72 68 70 73 69 88 88 70 73 70 94 76 71 84 90 82 80 88 79 109 72 98 73 139 206 198 206 211 220 230 237 233 222 211 193 193 
154 138 137 182 207 220 209 212 209 210 211 212 213 214 215 215 218 217 215 213 211 209 208 207 207 207 207 208 208 209 209 209 212 212 212 212 212 212 212 212 217 218 212 209 201 200 101 82 59 74 55 58 65 47 53 67 97 81 62 55 59 63 59 52 57 60 70 61 42 56 75 65 60 57 58 65 75 99 139 174 159 179 178 177 172 168 173 159 148 125 139 154 127 69 80 58 123 132 117 62 52 189 198 216 206 206 206 206 206 206 206 206 204 205 205 205 206 206 206 207 209 209 209 210 210 211 211 211 215 215 214 212 210 209 208 207 211 212 213 214 215 216 217 218 222 222 222 221 220 219 219 218 208 215 224 230 229 222 211 204 211 214 213 203 188 181 185 192 192 192 191 190 189 189 188 188 190 170 154 154 216 213 204 224 218 218 218 218 218 218 218 218 216 216 216 216 216 216 216 216 217 217 216 215 213 212 211 211 212 212 212 212 212 212 212 212 214 214 214 214 214 214 214 214 214 214 214 214 215 215 216 216 212 212 212 212 212 212 212 212 101 86 100 94 65 61 64 70 67 66 64 63 64 66 69 71 74 74 73 72 71 70 69 68 72 76 79 76 69 67 70 74 78 70 58 84 96 81 79 67 79 80 75 72 82 98 101 93 75 89 99 82 80 115 179 207 202 207 217 229 236 232 221 210 193 193 
103 86 156 207 203 206 204 206 209 210 211 213 214 216 217 218 216 215 215 215 214 214 214 213 211 211 212 212 213 213 213 213 214 214 214 214 214 214 214 214 211 229 223 206 205 218 132 106 62 55 72 56 72 85 82 80 69 75 97 96 64 53 61 56 73 81 64 62 60 57 69 57 60 64 50 57 79 135 154 156 171 169 165 161 159 157 156 156 171 170 164 162 149 106 82 97 145 151 50 63 91 205 197 205 204 206 208 210 210 208 206 204 207 207 207 208 208 208 209 209 214 214 214 214 214 214 214 214 212 213 213 213 214 214 214 214 215 215 215 215 215 215 215 215 220 220 220 221 222 222 223 223 225 219 214 228 240 222 206 188 199 216 211 216 210 181 177 186 195 194 193 193 192 191 190 190 187 163 116 99 199 227 208 221 220 220 220 219 219 219 218 218 217 217 217 217 217 217 217 217 219 218 217 215 214 212 211 210 211 211 211 211 211 211 211 211 212 212 212 212 212 212 212 212 215 214 214 214 213 213 213 213 206 217 226 206 213 220 196 206 78 93 94 92 88 66 53 67 63 64 66 67 67 67 67 67 78 77 75 72 69 66 64 63 63 57 78 71 68 54 65 52 84 75 68 72 83 90 88 82 75 83 78 66 73 93 95 80 120 87 74 95 106 89 165 217 217 207 203 218 241 250 239 224 203 191 
124 118 164 203 204 208 215 217 209 210 211 213 214 216 217 218 216 216 215 215 215 214 214 214 211 211 212 212 213 213 213 213 214 214 214 214 214 214 214 214 209 223 212 210 209 221 168 77 82 76 87 61 64 65 58 54 67 68 83 82 58 54 65 63 77 73 60 61 59 67 62 58 60 54 75 76 130 140 161 146 153 158 165 171 172 168 163 159 127 114 82 48 38 58 106 153 178 169 131 70 154 204 210 210 204 206 208 210 210 208 206 204 207 207 207 208 208 208 209 209 213 213 213 213 213 213 213 213 213 213 213 213 214 214 214 215 215 215 215 215 215 215 215 215 216 215 214 214 215 218 220 221 214 212 220 205 211 214 209 184 191 216 210 204 198 182 187 196 198 198 198 197 196 196 195 195 196 210 195 143 175 206 215 221 220 220 220 219 219 218 218 218 217 217 217 217 217 217 217 217 219 218 217 216 214 212 211 211 211 211 211 211 211 211 211 211 212 212 212 212 212 212 212 212 214 214 214 214 213 213 213 212 221 220 202 218 206 207 235 182 59 88 102 96 91 85 74 67 59 64 70 72 68 65 65 67 77 76 74 72 69 66 65 63 75 68 78 73 65 63 76 71 68 78 85 81 71 70 82 96 79 75 73 73 74 76 79 84 100 86 74 83 96 86 156 213 221 212 206 215 232 242 238 230 205 193 
167 176 186 202 203 201 212 211 209 210 211 212 214 215 217 217 216 216 216 215 215 214 214 214 211 211 212 212 213 213 213 213 214 214 214 214 214 214 214 214 207 213 213 236 231 218 217 100 62 72 91 66 58 52 59 65 63 60 66 65 52 54 66 66 72 61 48 61 61 78 61 63 75 69 50 87 100 150 154 169 169 169 168 161 150 135 120 112 119 139 153 143 132 147 165 166 165 171 195 122 211 221 203 193 204 206 208 210 210 208 206 204 207 207 207 208 208 208 209 209 213 213 213 213 213 213 213 213 213 213 213 214 214 215 215 215 214 214 214 214 214 214 214 214 212 210 208 207 208 212 217 220 212 182 210 216 221 211 167 122 168 209 213 208 201 188 190 191 196 196 196 195 195 195 195 195 184 178 187 176 203 227 224 211 220 220 219 219 218 218 218 218 218 218 218 218 218 218 218 218 220 219 218 216 215 213 212 211 211 211 211 211 211 211 211 211 212 212 212 212 212 212 212 212 214 214 214 213 213 212 212 212 210 208 210 210 219 221 208 209 102 79 78 95 96 82 69 62 62 67 72 72 69 65 65 67 75 75 73 71 69 67 65 64 60 61 70 79 62 67 69 65 74 76 78 76 73 75 81 87 88 74 63 67 77 80 74 66 77 84 74 69 85 82 140 213 224 217 212 214 223 232 236 236 207 195 
188 214 201 201 205 198 208 204 208 209 210 212 213 215 216 217 217 216 216 216 215 215 215 214 211 211 212 212 213 213 213 213 214 214 214 214 214 214 214 214 226 226 217 204 192 161 164 40 60 71 86 65 59 50 57 57 57 56 58 57 53 55 60 61 66 72 55 74 58 63 60 66 63 62 77 87 123 141 161 161 173 172 171 170 171 172 174 175 169 160 149 128 119 148 174 166 154 171 180 157 176 218 201 206 204 206 208 210 210 208 206 204 207 207 207 208 208 208 209 209 213 213 213 213 213 213 213 213 213 213 214 214 215 215 215 215 214 214 214 214 214 214 214 214 212 210 206 204 205 209 215 218 141 73 121 201 216 198 136 123 158 200 212 213 205 185 183 185 187 187 188 188 188 189 189 189 187 150 123 117 166 216 221 216 219 219 219 218 218 218 217 217 219 219 219 219 219 219 219 219 221 220 219 217 216 214 213 212 211 211 211 211 211 211 211 211 212 212 212 212 212 212 212 212 214 214 213 213 212 212 212 212 196 199 218 208 220 219 193 235 140 91 85 114 115 97 90 88 80 75 69 67 67 69 69 67 73 72 71 70 68 67 65 65 62 67 75 93 71 81 77 73 84 73 63 67 78 85 80 72 83 86 76 63 71 87 78 54 64 79 73 66 81 78 121 218 219 219 219 220 222 226 231 235 205 193 
177 213 199 196 208 205 212 210 208 209 210 211 213 214 216 216 217 217 217 216 216 215 215 215 211 211 212 212 213 213 213 213 214 214 214 214 214 214 214 214 210 212 204 169 203 211 207 105 60 65 71 60 68 61 65 51 53 58 59 58 58 55 53 55 72 91 66 85 70 62 73 64 52 73 101 105 134 152 169 161 179 177 173 169 165 163 162 162 166 151 147 143 136 153 170 163 157 165 164 176 149 189 207 209 204 206 208 210 210 208 206 204 207 207 207 208 208 208 209 209 212 212 212 212 212 212 212 212 214 214 214 215 215 215 216 216 213 213 213 213 213 213 213 213 215 212 209 207 207 208 211 213 165 82 106 191 175 153 95 115 168 196 201 208 202 176 176 187 183 184 185 186 187 188 189 189 195 201 158 107 138 204 213 217 219 219 218 218 218 217 217 217 220 220 220 220 220 220 220 220 222 221 220 218 217 215 214 213 211 211 211 211 211 211 211 211 211 211 211 211 211 211 211 211 213 213 213 212 212 212 211 211 205 209 200 218 207 203 221 173 74 69 87 103 96 97 106 103 106 89 69 62 67 73 72 68 70 70 69 68 67 67 66 66 71 72 73 86 63 78 81 83 75 74 72 70 70 71 74 76 71 93 99 79 65 71 76 70 65 74 73 70 83 76 103 223 211 217 223 227 226 226 228 230 204 191 
179 207 200 194 203 203 204 205 208 208 209 211 213 214 215 216 217 217 217 217 216 216 216 215 211 211 212 212 213 213 213 213 214 214 214 214 214 214 214 214 221 203 200 173 213 212 206 172 45 65 78 68 67 55 71 64 49 62 64 61 62 56 53 62 83 79 56 75 112 125 125 83 58 84 79 99 100 158 164 171 156 161 170 177 181 179 175 172 163 157 161 164 157 158 173 184 175 161 181 179 168 153 203 200 204 206 208 210 210 208 206 204 207 207 207 208 208 208 209 209 212 212 212 212 212 212 212 212 214 214 215 215 216 216 216 216 213 213 213 213 213 213 213 213 215 214 213 210 208 205 203 202 158 113 126 185 183 188 136 124 164 186 193 210 211 180 170 176 185 186 187 189 191 192 194 194 186 207 182 152 179 226 209 207 218 218 218 218 217 217 216 216 221 221 221 221 221 221 221 221 222 222 221 219 217 216 215 214 211 211 211 211 211 211 211 211 211 211 211 211 211 211 211 211 213 213 212 212 211 211 211 211 209 216 208 206 216 214 163 83 65 63 76 92 93 97 111 124 123 104 81 70 70 73 71 68 68 67 67 67 67 67 67 66 65 64 72 80 63 69 73 70 70 74 76 71 64 63 69 77 76 85 93 89 75 65 69 78 70 70 74 73 80 78 92 218 206 213 221 227 229 229 229 229 206 194 
193 202 204 191 192 198 193 203 207 208 209 211 212 214 215 216 218 218 217 217 217 216 216 216 211 211 212 212 213 213 213 213 214 214 214 214 214 214 214 214 224 209 208 188 202 196 204 192 57 81 89 77 67 46 62 53 48 66 67 60 62 58 62 84 82 66 82 76 143 182 170 132 59 57 78 73 125 138 163 148 154 160 169 177 181 180 176 173 168 165 159 156 156 154 161 178 193 165 173 159 159 136 170 214 204 206 208 210 210 208 206 204 207 207 207 208 208 208 209 209 211 211 211 211 211 211 211 211 215 215 215 215 216 216 217 217 212 212 212 212 212 212 212 212 211 212 213 212 207 199 191 185 130 132 143 154 188 210 176 113 148 177 187 208 218 194 174 164 182 183 185 187 190 192 193 194 188 170 139 129 151 212 213 211 218 218 218 217 217 216 216 216 221 221 221 221 221 221 221 221 223 222 221 220 218 217 215 215 211 211 211 211 211 211 211 211 210 210 210 210 210 210 210 210 212 212 212 212 211 211 210 210 205 207 222 204 210 175 74 60 80 63 54 67 79 74 80 103 123 117 104 90 76 68 66 66 66 66 66 66 66 67 67 67 69 68 86 87 79 71 76 65 76 72 68 66 66 67 68 68 78 78 79 81 79 74 69 68 72 67 76 69 69 82 86 203 209 211 214 220 227 232 234 234 212 200 
194 189 199 186 187 201 199 217 207 208 209 210 212 214 215 215 218 218 218 217 217 216 216 216 211 211 212 212 213 213 213 213 214 214 214 214 214 214 214 214 208 228 215 168 170 210 224 150 61 66 60 64 85 77 81 50 47 68 67 56 59 59 72 104 75 78 151 100 139 179 174 177 75 64 54 87 120 158 158 155 168 168 169 171 173 176 179 181 172 170 153 150 166 166 157 163 163 157 152 173 154 152 118 205 204 206 208 210 210 208 206 204 207 207 207 208 208 208 209 209 211 211 211 211 211 211 211 211 215 215 215 216 216 216 217 217 212 212 212 212 212 212 212 212 207 209 212 211 204 193 181 174 139 164 166 122 168 195 205 140 146 176 179 193 210 202 186 168 176 177 179 181 184 186 188 189 195 184 157 112 93 184 223 213 218 218 217 217 217 216 216 216 222 222 222 222 222 222 222 222 223 223 222 220 218 217 216 215 211 211 211 211 211 211 211 211 210 210 210 210 210 210 210 210 212 212 212 211 211 211 210 210 211 196 205 233 169 74 69 83 68 89 83 68 74 80 79 86 117 124 123 107 82 63 60 64 65 65 65 66 66 67 67 67 73 64 80 70 67 56 72 63 75 72 67 65 65 66 66 66 61 81 87 73 67 75 74 61 71 66 78 64 59 85 84 188 214 210 208 213 223 233 238 240 218 206 
194 194 196 198 200 202 203 204 204 204 205 206 207 209 209 210 213 213 213 213 213 213 213 213 209 209 209 210 210 211 211 211 212 212 212 211 211 211 210 210 206 215 217 217 154 89 69 72 72 67 61 61 64 64 59 53 72 60 67 57 42 89 136 123 84 145 173 121 83 153 184 173 147 136 127 133 149 159 155 146 154 158 164 169 169 165 159 155 153 166 164 150 149 160 159 146 179 154 137 171 161 182 146 151 208 215 201 225 222 200 219 206 207 207 208 208 209 210 211 211 209 209 210 211 211 212 213 213 212 213 214 215 216 218 219 219 211 211 211 211 211 211 211 211 209 213 208 200 201 201 185 163 164 167 180 189 185 178 170 159 160 183 191 197 210 199 183 189 180 181 181 182 183 184 184 184 183 185 180 171 144 179 204 221 211 214 218 221 221 219 216 213 218 219 219 220 221 222 222 223 220 220 219 219 218 217 216 216 216 215 215 214 213 212 212 211 212 212 212 212 212 212 212 212 214 213 213 213 212 212 212 211 210 201 216 199 98 110 86 70 72 75 70 63 71 91 100 98 119 118 125 135 124 94 73 69 70 68 82 73 68 67 55 68 58 79 77 77 63 73 65 69 74 71 68 65 64 64 66 67 65 66 67 69 71 72 73 74 63 69 69 75 77 71 81 132 208 208 209 212 216 222 228 231 229 217 
194 194 196 198 200 202 203 204 204 204 205 206 207 209 209 210 214 214 214 214 214 214 214 214 209 209 210 210 211 211 211 211 212 212 212 212 211 211 210 210 221 214 203 218 206 174 115 69 67 67 67 64 61 59 58 59 74 78 73 55 46 71 122 163 174 179 186 152 81 75 115 188 151 142 134 136 146 154 154 150 152 156 162 166 167 163 158 154 152 157 157 152 150 152 149 143 150 137 143 149 173 188 159 131 206 206 203 210 215 214 213 200 207 207 208 209 210 210 211 211 209 210 210 211 212 213 213 214 213 213 214 215 216 217 218 219 211 211 211 211 211 211 211 211 210 209 211 211 201 184 175 175 168 174 175 186 190 157 130 140 160 187 200 201 201 183 168 175 177 178 178 179 180 180 181 181 175 179 178 177 162 199 214 213 208 210 213 216 216 215 212 210 218 218 219 220 220 221 222 222 220 220 219 218 217 217 216 216 216 215 215 214 213 212 212 211 212 212 212 212 212 212 212 212 213 213 213 212 212 212 211 211 201 217 213 140 132 113 68 79 76 71 69 78 98 112 109 97 123 123 130 130 112 85 72 75 72 69 69 55 64 77 69 81 72 78 70 69 67 58 75 79 71 69 66 64 64 66 68 69 70 70 70 70 69 69 68 68 73 59 57 81 88 74 101 174 208 208 209 212 216 222 228 231 239 227 
194 194 196 198 200 202 203 204 204 204 205 206 207 209 209 210 214 214 214 214 214 214 214 214 210 210 210 211 211 212 212 212 213 213 212 212 211 211 211 211 207 209 202 218 225 215 129 60 62 67 70 67 59 55 59 64 67 82 67 54 60 59 93 165 154 188 150 179 169 145 164 146 155 150 144 140 141 146 152 155 149 152 157 162 163 160 157 154 151 151 153 155 153 146 141 140 160 174 194 176 171 163 143 133 200 203 209 199 206 220 207 201 207 208 208 209 210 211 211 212 210 211 211 212 213 214 214 215 214 214 215 215 216 217 217 217 212 212 212 212 212 212 212 212 215 208 212 215 188 150 145 166 161 170 166 187 207 161 126 157 178 186 188 193 203 197 181 178 175 176 176 177 178 179 179 179 181 180 156 124 97 142 194 214 205 207 209 211 212 211 209 207 217 217 218 219 219 220 221 221 220 219 219 218 217 216 216 215 216 215 215 214 213 212 212 211 212 212 212 212 212 212 212 212 213 213 213 212 212 211 211 211 202 206 199 91 161 133 69 62 70 75 90 109 121 121 116 115 127 129 132 125 102 78 71 77 72 75 65 50 66 75 59 63 64 61 64 68 74 48 69 67 67 66 64 63 64 67 70 73 74 73 71 70 68 66 64 64 69 69 67 70 70 64 96 146 208 208 209 212 216 222 228 231 212 200 
194 194 196 198 200 202 203 204 204 204 205 206 207 209 209 210 214 214 214 214 214 214 214 214 211 211 211 212 212 212 213 213 213 213 213 212 212 212 211 211 199 212 213 219 211 202 104 51 62 65 67 65 61 59 60 63 56 65 54 56 72 59 63 108 175 166 163 169 176 181 145 162 157 157 153 145 138 140 149 158 146 149 154 157 159 158 156 155 152 156 158 157 154 150 143 137 144 109 65 68 86 120 99 108 199 208 206 200 209 213 207 208 208 208 209 209 210 211 212 212 212 212 213 213 214 215 216 216 216 216 216 216 216 216 216 216 212 212 212 212 212 212 212 212 216 208 212 216 190 152 150 174 161 165 165 188 207 174 152 180 187 178 168 171 185 189 179 170 178 178 178 179 180 181 181 182 176 196 191 161 126 148 194 204 207 208 209 210 210 210 209 209 216 216 216 217 218 219 219 220 219 219 218 218 217 216 215 215 216 215 215 214 213 212 212 211 212 212 212 212 212 212 212 212 213 212 212 212 211 211 211 210 223 202 213 103 133 134 111 100 78 86 107 130 134 124 121 128 128 130 130 122 104 85 74 71 75 81 69 60 73 70 55 64 63 53 72 74 74 66 67 64 64 63 62 62 64 68 72 75 71 70 69 68 67 66 65 65 48 64 76 77 80 79 121 151 208 208 209 212 216 222 228 231 222 210 
194 194 196 198 200 202 203 204 204 204 205 206 207 209 209 210 215 215 215 215 215 215 215 215 212 212 212 213 213 213 214 214 214 214 213 213 212 212 212 212 221 220 215 219 206 195 84 55 66 62 60 61 64 66 63 60 54 53 55 60 64 59 53 54 99 173 172 165 165 185 175 140 155 157 156 147 138 137 146 156 146 148 151 155 157 159 158 158 159 170 169 158 154 159 153 139 85 124 133 104 68 86 131 215 201 206 175 194 221 210 212 205 208 209 209 210 211 212 212 212 213 214 214 215 216 217 217 217 218 217 217 216 215 215 214 214 213 213 213 213 213 213 213 213 211 208 213 220 211 196 198 212 217 211 213 222 220 209 204 209 213 209 208 205 197 191 185 179 182 183 183 184 185 186 186 186 188 197 181 153 131 150 207 215 211 211 210 210 211 212 213 213 214 214 215 216 217 217 218 218 219 218 218 217 216 215 215 215 216 215 215 214 213 212 212 211 211 211 211 211 211 211 211 211 212 212 212 211 211 210 210 210 206 197 209 124 84 103 110 132 97 95 106 128 139 132 123 122 126 126 124 122 115 103 83 66 74 78 67 65 70 66 72 90 64 48 74 68 54 84 64 65 63 63 62 62 64 68 72 74 64 64 65 66 67 68 69 70 66 61 69 78 74 49 104 146 208 208 209 212 216 222 228 231 221 209 
194 194 196 198 200 202 203 204 204 204 205 206 207 209 209 210 215 215 215 215 215 215 215 215 213 213 213 214 214 214 215 215 214 214 214 213 213 212 212 212 224 214 209 212 195 187 72 71 66 60 56 59 66 69 65 60 60 58 67 63 46 51 59 47 57 48 118 163 173 172 115 158 149 152 153 148 140 139 144 150 147 148 151 155 158 160 162 163 168 180 176 158 154 164 161 146 173 166 151 114 179 207 201 184 185 180 130 167 223 215 214 196 209 209 210 210 211 212 213 213 215 215 216 216 217 218 218 219 219 219 218 216 215 214 213 212 213 213 213 213 213 213 213 213 211 211 212 215 216 216 217 219 219 214 216 211 202 207 210 200 209 205 213 217 204 195 184 168 185 185 185 186 187 188 188 189 195 188 153 108 78 92 183 217 213 211 210 209 209 211 213 215 213 213 214 214 215 216 217 217 218 218 217 217 216 215 214 214 216 215 215 214 213 212 212 211 211 211 211 211 211 211 211 211 212 211 211 211 210 210 210 210 209 215 209 188 167 155 99 105 91 98 111 125 128 123 120 121 122 122 120 120 123 119 97 74 69 76 76 78 69 63 75 74 66 55 88 93 72 107 77 64 66 64 63 62 63 66 69 71 61 62 63 65 67 69 70 71 62 62 70 71 79 81 172 211 208 208 209 212 216 222 228 231 224 212 
194 194 196 198 200 202 203 204 204 204 205 206 207 209 209 210 216 216 216 216 216 216 216 216 213 214 214 214 215 215 215 215 214 214 214 214 213 213 213 212 213 208 208 205 184 183 65 82 61 60 60 62 64 65 65 65 58 60 67 60 44 50 61 57 58 74 72 87 69 81 116 137 141 145 148 148 144 141 140 142 149 150 153 155 159 162 165 167 179 182 174 159 154 160 161 155 170 161 142 98 176 206 199 179 137 138 104 132 198 212 205 198 209 209 210 211 212 212 213 213 216 216 217 217 218 219 219 220 221 220 219 217 215 213 212 211 213 213 213 213 213 213 213 213 215 213 212 211 209 207 206 208 205 217 214 206 212 217 213 211 219 207 210 213 202 199 196 178 183 183 184 184 185 186 186 187 175 190 190 168 125 95 164 191 210 208 206 204 204 207 210 212 212 212 213 213 214 215 216 216 218 218 217 216 215 215 214 214 216 215 215 214 213 212 212 211 210 210 210 210 210 210 210 210 211 211 211 210 210 210 209 209 205 205 198 214 215 149 69 49 66 91 115 121 117 114 116 119 117 121 120 117 121 125 114 96 86 101 109 108 90 95 104 63 77 76 105 135 122 120 110 71 69 67 64 62 62 63 66 67 64 64 65 65 65 66 66 66 63 75 78 56 60 77 182 203 208 208 209 212 216 222 228 231 218 206 
194 194 196 198 200 202 203 204 204 204 205 206 207 209 209 210 216 216 216 216 216 216 216 216 214 214 214 215 215 215 216 216 215 214 214 214 213 213 213 213 221 214 209 204 190 199 70 80 55 61 65 65 61 60 65 70 49 55 56 55 56 55 54 57 63 73 67 80 76 112 145 137 136 140 144 148 147 144 139 136 151 151 153 156 160 164 168 170 187 179 168 159 154 154 157 161 146 142 122 125 186 203 154 136 90 106 101 109 169 203 194 209 209 210 210 211 212 213 213 213 216 217 217 218 219 219 220 220 221 220 219 217 215 213 211 210 214 214 214 214 214 214 214 214 215 212 213 216 212 207 210 219 198 225 214 205 227 221 202 215 222 209 207 192 160 158 177 178 180 180 180 181 182 183 183 184 183 186 182 172 142 108 176 200 207 205 201 199 200 203 206 209 211 211 212 213 214 214 215 215 218 217 217 216 215 214 214 214 216 215 215 214 213 212 212 211 210 210 210 210 210 210 210 210 211 211 211 210 210 209 209 209 210 200 216 208 165 65 61 69 55 79 102 112 119 124 117 105 114 122 122 114 115 125 125 116 121 137 143 136 119 149 167 101 72 69 83 125 124 89 114 62 71 69 66 63 61 62 63 65 69 68 67 66 64 62 61 61 64 62 72 71 76 72 179 212 208 208 209 212 216 222 228 231 221 208 
195 195 197 199 201 203 204 205 206 206 207 207 208 209 210 210 213 213 213 214 215 216 216 217 215 215 215 215 216 216 217 217 217 216 216 215 214 213 213 212 214 206 220 192 192 171 64 138 62 56 68 40 58 58 48 54 59 52 55 54 53 66 54 54 84 102 98 96 125 147 141 131 145 145 132 143 137 152 144 148 148 143 141 145 154 163 167 168 166 171 167 151 141 145 150 151 144 149 137 149 134 154 155 127 134 111 112 119 141 160 184 213 206 207 208 209 211 212 214 214 217 217 218 218 218 219 219 219 217 217 217 216 216 216 215 215 209 209 211 213 215 217 218 219 217 216 215 214 213 212 211 210 210 210 210 210 210 210 210 210 206 204 218 160 103 117 141 171 174 175 175 175 176 176 177 177 184 176 175 137 85 75 125 203 206 207 171 151 185 208 200 203 205 206 208 210 213 215 217 218 223 220 217 214 212 212 213 214 214 214 214 213 213 212 212 212 212 212 212 212 212 212 212 212 212 212 212 212 212 212 212 212 202 201 202 186 65 93 56 84 68 79 95 111 120 122 118 115 112 116 120 119 115 114 118 123 109 118 126 129 112 134 148 78 61 74 80 99 116 111 107 69 71 70 69 67 65 64 62 62 65 65 65 66 66 67 67 67 69 65 67 83 63 102 181 203 206 206 207 209 214 220 226 229 225 205 
195 196 197 199 201 203 205 205 206 206 207 208 208 209 210 210 213 213 213 214 215 216 216 217 215 215 215 216 216 216 217 217 217 216 216 215 214 214 213 213 223 204 208 198 182 183 114 96 52 88 53 80 62 64 65 46 67 60 66 59 71 77 78 95 127 153 160 154 151 141 127 130 132 142 140 148 134 143 143 155 151 147 144 147 155 162 165 165 178 174 164 153 155 163 162 153 141 144 143 128 132 163 192 149 147 131 106 133 149 161 192 211 206 207 208 209 211 213 214 214 217 217 217 218 218 218 219 219 219 218 218 218 217 217 217 217 213 213 214 215 216 217 218 218 217 216 215 214 213 212 211 210 210 210 210 210 210 210 210 210 217 201 187 150 98 102 151 175 172 172 173 174 176 177 178 178 176 162 170 164 123 80 96 171 216 195 136 121 165 191 200 212 209 210 211 212 214 215 217 217 223 221 217 214 212 212 214 215 217 217 217 217 216 216 215 215 212 212 212 212 212 212 212 212 212 212 212 212 212 212 212 212 214 212 219 185 74 64 81 74 70 74 82 91 100 108 112 115 113 118 121 121 117 117 120 124 136 142 135 126 94 95 113 114 81 82 76 107 120 111 89 55 70 69 68 67 65 64 63 62 65 65 66 66 66 67 67 67 62 68 64 82 70 130 195 203 206 206 207 209 214 220 226 229 230 209 
195 196 197 199 201 203 205 206 206 207 207 208 209 209 210 210 213 213 213 214 215 216 216 217 215 215 216 216 216 217 217 217 217 217 216 215 215 214 213 213 210 216 209 211 182 171 144 90 59 52 65 67 72 70 68 68 73 67 74 57 81 69 81 118 120 137 144 148 154 143 135 143 129 133 131 142 140 149 145 147 156 151 148 150 156 161 161 160 163 165 162 154 150 144 127 108 96 91 92 104 114 158 186 143 130 123 75 117 132 154 193 203 206 207 208 210 211 213 214 215 217 217 217 217 218 218 218 219 220 220 220 219 219 219 218 218 218 218 218 218 218 217 217 217 217 217 216 215 213 212 211 211 210 210 210 210 210 210 210 210 209 188 162 148 91 84 170 206 174 175 176 178 180 182 184 185 172 180 191 186 176 151 144 191 207 201 119 82 135 194 224 217 215 215 215 215 216 216 216 216 223 221 217 214 212 213 214 215 220 219 219 219 218 218 218 218 212 212 212 212 212 212 212 212 212 212 212 212 212 212 212 212 222 204 221 212 144 83 68 69 68 72 78 86 95 102 108 112 115 119 123 123 121 120 124 129 123 153 143 113 86 112 123 158 139 121 86 113 114 108 74 56 69 68 68 67 66 65 64 64 66 66 66 66 67 67 67 68 55 74 63 79 72 163 210 204 206 206 207 209 214 220 226 229 229 209 
196 196 198 200 202 204 205 206 207 207 208 208 209 210 211 211 213 213 213 214 215 216 216 217 216 216 216 216 217 217 218 218 218 217 217 216 215 214 214 213 200 227 209 214 204 168 144 112 121 60 71 54 76 66 52 61 82 78 88 60 87 55 68 116 121 135 137 141 156 151 139 139 126 125 125 135 144 150 146 142 158 154 151 152 156 159 157 153 156 165 163 141 114 91 69 53 94 73 58 118 107 156 166 150 134 129 75 107 120 171 203 211 207 207 209 210 212 213 215 215 216 216 217 217 217 218 218 218 221 220 220 220 219 219 219 219 222 222 221 220 218 217 216 216 217 217 216 215 214 213 212 211 210 210 210 210 210 210 210 210 164 135 127 141 99 87 159 191 177 178 180 182 185 187 189 190 163 194 195 149 114 92 108 178 206 208 124 82 122 172 203 194 219 219 218 217 216 216 215 215 224 221 218 215 213 213 214 215 218 218 217 217 217 216 216 216 212 212 212 212 212 212 212 212 212 212 212 212 212 212 212 212 215 204 213 222 209 168 73 71 67 75 87 99 107 110 108 106 116 120 125 125 123 124 128 133 115 137 136 114 94 130 123 148 151 135 87 101 92 98 59 53 67 67 67 66 66 66 65 65 66 66 66 67 67 68 68 68 52 85 66 71 64 179 216 207 206 206 207 209 214 220 226 229 225 205 
196 197 198 200 202 204 206 207 207 207 208 209 210 210 211 211 213 213 213 214 215 216 216 217 216 216 217 217 217 218 218 218 218 218 217 216 216 215 214 214 219 219 201 205 219 202 166 114 109 100 39 62 55 58 57 41 83 84 98 70 93 56 66 113 112 143 154 151 159 157 138 128 117 123 133 133 134 134 142 148 157 152 150 152 155 156 152 147 146 155 157 147 142 148 154 155 127 103 80 120 94 117 134 138 135 129 89 94 106 182 199 208 207 208 209 211 212 214 215 216 216 216 216 216 217 217 218 218 219 219 219 218 218 218 217 217 222 221 220 219 218 217 216 215 218 218 217 215 214 213 212 212 210 210 210 210 210 210 210 210 163 120 123 154 146 138 154 159 174 175 176 177 179 181 182 183 175 183 181 160 133 82 66 125 179 169 118 117 145 145 166 198 219 218 218 217 216 215 215 214 224 222 218 215 213 214 215 216 214 213 213 213 212 212 212 211 212 212 212 212 212 212 212 212 212 212 212 212 212 212 212 212 209 221 213 206 214 223 155 76 72 79 89 100 107 110 109 108 114 120 124 125 124 125 130 135 146 122 128 132 103 102 88 113 133 139 104 107 98 110 65 61 65 65 66 66 66 67 67 67 66 67 67 67 68 68 68 69 57 94 72 64 58 178 212 211 206 206 207 209 214 220 226 229 229 209 
197 197 199 201 203 205 206 207 208 208 209 209 210 211 211 212 213 213 213 214 215 216 216 217 217 217 217 217 218 218 218 219 219 218 218 217 216 215 215 214 230 206 211 208 210 227 209 117 65 113 100 64 49 61 67 68 63 66 82 63 79 59 69 109 108 135 138 134 152 163 147 132 124 122 127 122 131 130 141 143 150 147 146 149 154 153 148 143 161 158 151 145 150 161 161 153 162 151 148 135 131 112 138 132 112 110 92 90 108 180 192 199 208 208 210 211 213 214 215 216 215 215 216 216 216 217 217 217 216 216 216 215 215 214 214 214 217 217 217 216 216 216 216 216 218 218 217 216 215 214 213 212 210 210 210 210 210 210 210 210 207 169 156 167 171 170 168 168 168 168 168 169 169 169 169 169 173 174 175 168 165 134 97 111 151 151 142 149 165 148 150 195 214 214 214 214 214 214 214 214 225 222 219 215 214 214 215 216 212 212 211 211 210 210 210 210 212 212 212 212 212 212 212 212 212 212 212 212 212 212 212 212 214 214 212 216 212 202 209 78 79 79 80 84 90 98 106 111 111 116 123 124 123 125 130 135 147 126 137 135 112 96 103 120 142 152 124 111 110 117 71 70 64 64 65 66 67 68 68 69 67 67 67 68 68 69 69 69 65 93 77 64 71 178 206 212 206 206 207 209 214 220 226 229 239 219 
197 198 199 201 203 205 207 207 208 208 209 210 210 211 212 212 213 213 213 214 215 216 216 217 217 217 217 218 218 218 219 219 219 219 218 217 216 216 215 215 221 215 221 217 216 218 225 154 107 144 166 68 70 68 57 84 51 52 62 50 55 61 76 106 137 148 139 135 154 162 151 144 136 123 119 110 128 129 140 136 142 140 141 145 151 151 145 139 147 150 150 149 157 166 163 152 144 128 129 126 174 143 158 145 141 147 139 150 166 193 209 206 208 209 210 211 213 215 216 216 215 215 215 216 216 216 217 217 212 212 212 212 211 211 210 210 211 211 212 213 214 215 216 216 219 218 217 216 215 214 213 213 210 210 210 210 210 210 210 210 214 208 162 154 159 156 171 168 172 171 170 169 167 165 164 163 150 169 174 131 93 83 83 105 142 152 165 153 157 144 121 162 207 208 209 210 212 213 214 215 225 223 219 216 214 214 216 217 214 214 214 213 213 212 212 212 212 212 212 212 212 212 212 212 212 212 212 212 212 212 212 212 217 203 215 225 219 188 149 74 78 77 76 79 85 93 102 107 108 113 119 122 121 123 129 134 126 135 139 123 131 100 113 122 126 124 102 89 109 107 60 63 62 63 64 65 67 68 69 70 67 67 68 68 68 69 69 69 72 85 78 73 101 189 205 209 206 206 207 209 214 220 226 229 244 224 
197 198 199 201 203 205 207 208 208 208 209 210 211 211 212 212 213 213 213 214 215 216 216 217 217 217 218 218 218 219 219 219 219 219 218 217 217 216 215 215 212 233 211 216 243 205 213 193 133 159 84 60 70 66 50 63 63 59 62 52 46 70 87 112 120 141 151 154 158 151 149 163 134 126 128 110 119 115 136 143 136 136 137 143 148 149 144 138 139 150 153 147 145 154 162 163 143 100 76 125 215 207 206 208 203 212 197 218 223 197 213 198 208 209 210 212 213 215 216 217 215 215 215 215 216 216 217 217 210 210 210 209 209 208 208 208 206 207 208 210 212 214 216 217 219 218 218 216 215 214 213 213 210 210 210 210 210 210 210 210 201 221 154 153 174 162 178 148 182 181 178 175 172 169 167 166 169 163 178 170 140 106 81 87 104 95 125 135 148 131 105 172 203 204 206 208 210 213 215 216 225 223 219 216 214 215 216 217 217 217 217 216 216 216 215 215 212 212 212 212 212 212 212 212 212 212 212 212 212 212 212 212 212 215 228 201 208 215 62 66 71 75 81 89 94 98 99 99 105 111 117 119 119 122 128 133 134 135 123 119 151 68 63 84 88 81 79 85 132 121 70 73 62 62 64 65 67 69 70 71 67 68 68 68 69 69 69 70 76 76 77 81 128 201 207 207 206 206 207 209 214 220 226 229 242 222 
178 194 205 200 202 199 205 210 208 208 209 210 210 211 212 212 217 227 219 214 222 217 216 236 225 223 223 223 219 213 213 217 221 225 228 227 226 226 221 214 213 215 217 215 209 211 221 227 142 118 142 57 58 75 56 60 63 43 48 57 53 70 99 105 129 135 146 156 162 164 162 160 155 151 144 136 129 125 122 122 140 141 143 143 142 143 147 150 146 153 157 154 147 146 153 161 134 110 89 207 205 204 215 208 208 218 216 210 212 206 199 202 214 215 216 217 217 216 215 214 213 210 208 210 215 217 215 211 204 207 208 190 184 196 201 208 214 203 194 198 211 221 219 213 216 216 215 215 215 214 214 214 227 215 210 214 212 202 203 212 208 204 162 165 153 157 163 157 168 177 185 185 177 169 168 170 160 174 177 176 167 98 87 86 85 98 84 102 104 96 124 202 206 205 201 208 223 219 211 216 220 223 217 212 215 218 219 222 207 208 216 220 210 204 208 211 213 213 214 214 214 215 215 215 207 215 214 215 221 217 213 223 215 218 223 215 205 170 66 76 73 72 81 95 96 88 92 105 99 104 109 111 110 111 117 122 132 125 119 119 118 104 79 59 66 68 86 112 117 96 72 63 70 65 61 63 70 75 77 76 66 67 68 67 68 75 88 98 88 71 78 62 166 195 204 208 207 208 208 207 210 218 226 231 230 230 
197 206 211 207 209 209 207 202 208 208 209 210 211 211 212 212 210 222 220 219 226 217 208 218 207 215 224 226 219 212 212 217 210 208 208 215 226 229 217 203 223 215 216 216 209 211 214 207 229 206 196 120 82 31 77 74 59 83 76 53 57 78 106 135 130 136 146 155 161 164 162 160 159 154 148 141 135 132 130 130 121 125 130 134 138 138 139 140 145 151 156 153 144 139 142 147 147 127 118 222 213 197 213 212 204 210 210 209 210 208 209 214 213 213 214 214 214 214 213 213 213 210 208 210 215 217 215 211 201 217 212 196 143 106 150 198 212 203 195 199 212 220 218 213 215 215 215 215 214 214 214 213 217 203 200 213 219 203 180 168 197 166 139 148 167 162 156 142 162 170 178 178 172 166 164 165 160 168 166 158 140 73 73 90 141 155 125 110 109 134 161 204 191 203 209 210 216 221 221 219 219 218 214 212 214 217 220 224 232 222 215 214 213 212 211 209 212 212 212 212 213 213 214 214 210 214 213 213 214 211 207 207 208 219 206 192 213 228 126 65 78 77 84 95 93 85 87 98 98 103 109 110 109 111 116 121 129 123 118 119 119 108 86 68 77 89 109 118 101 74 64 70 65 64 62 63 65 67 67 67 65 66 66 65 64 70 81 91 78 79 83 90 175 202 193 207 201 195 201 219 231 229 223 221 230 230 
203 209 206 197 189 201 210 211 208 209 209 210 211 212 212 213 209 218 217 217 225 222 213 215 211 217 222 222 218 216 215 216 220 223 223 218 210 206 212 220 234 215 214 218 212 220 226 212 207 207 195 136 143 58 70 68 59 61 58 58 73 94 110 119 132 137 146 154 160 163 161 160 162 157 152 146 142 140 139 139 132 129 125 124 127 131 136 139 143 143 146 151 156 155 150 145 151 136 129 216 211 205 216 200 199 203 213 217 211 208 210 212 210 210 210 209 209 210 210 210 213 210 208 210 215 217 215 211 216 226 210 219 163 98 154 212 210 202 197 201 212 219 218 213 215 215 214 214 214 213 213 213 210 213 218 214 197 181 183 195 170 119 104 103 135 128 125 124 168 175 182 184 181 176 174 174 176 176 175 184 187 142 137 150 156 137 107 106 109 135 157 195 206 210 215 212 204 205 214 218 212 214 223 230 226 217 208 200 196 208 215 215 212 208 208 212 209 210 210 210 211 211 211 211 211 211 213 213 210 209 205 198 206 216 205 198 197 218 211 204 81 81 87 93 90 82 83 90 97 102 107 109 108 109 115 120 124 119 116 118 120 113 97 83 98 110 122 119 94 68 62 70 62 65 67 66 64 62 62 63 68 70 70 67 65 68 77 85 53 80 79 56 158 206 208 205 193 199 205 209 212 218 225 231 230 230 
187 196 198 199 189 211 215 204 209 209 210 211 211 212 213 213 218 218 210 207 216 225 223 218 220 222 219 215 216 221 220 214 222 214 209 210 212 212 217 224 228 213 218 224 214 218 223 208 187 223 222 119 149 85 38 131 137 52 46 85 83 103 141 137 135 140 146 154 158 160 161 160 160 156 152 147 144 142 143 144 144 137 129 124 123 124 124 123 128 134 144 151 155 154 151 149 145 138 127 210 200 217 218 195 200 206 216 216 205 202 207 207 209 207 206 205 205 206 207 209 213 210 208 210 215 217 215 211 198 197 185 205 180 134 162 193 207 202 200 204 212 217 216 213 214 214 213 213 213 212 212 212 203 205 208 210 205 197 192 192 182 146 146 133 143 143 142 161 161 166 173 177 177 174 171 170 185 183 176 181 189 165 150 155 143 124 137 183 191 188 171 190 218 205 205 208 199 194 204 215 179 186 208 224 219 212 200 183 168 198 215 215 213 207 206 214 208 208 208 209 209 210 210 210 210 207 212 214 208 204 200 192 209 201 197 220 209 197 217 220 77 81 87 89 86 82 83 87 93 98 104 105 104 106 111 116 116 113 112 114 118 115 106 97 113 113 115 115 107 91 75 67 61 65 70 70 66 64 64 66 73 75 75 71 67 68 75 81 69 60 71 65 203 199 210 211 202 209 208 203 214 233 230 213 230 230 
190 185 169 163 148 192 209 199 209 210 210 211 212 213 213 214 221 217 210 205 209 217 207 184 183 205 221 219 215 218 219 215 213 210 214 223 219 208 207 216 212 211 222 224 211 206 207 199 214 206 200 137 154 87 21 168 146 69 79 125 105 101 137 146 139 142 148 152 156 158 160 160 157 154 149 144 142 140 140 141 132 130 130 133 134 128 114 103 106 122 138 144 140 137 141 148 151 131 118 217 199 212 195 183 181 202 214 207 201 205 209 209 209 207 204 201 201 204 207 209 213 210 208 210 215 217 215 211 213 213 214 207 195 187 191 203 203 202 203 207 213 216 215 213 213 213 212 212 212 211 211 211 209 212 208 196 186 188 197 205 204 202 212 206 190 199 186 205 174 177 183 189 193 193 189 186 178 191 188 181 181 183 184 204 202 176 178 201 201 204 179 191 186 193 198 201 206 208 199 188 189 196 216 220 206 205 196 166 185 211 214 207 216 217 209 213 208 209 209 209 210 210 210 211 210 208 210 212 199 177 168 174 197 206 208 222 216 210 219 175 69 77 84 85 83 84 86 87 88 93 98 99 99 100 105 110 107 105 105 107 111 112 109 106 108 107 109 116 123 118 98 78 60 62 64 65 65 65 65 66 69 72 73 70 65 64 69 74 88 66 64 72 204 199 209 202 196 207 208 191 176 181 204 223 229 229 
196 196 174 149 106 160 202 212 210 210 211 212 212 213 214 214 216 214 215 213 210 208 178 130 130 181 224 227 214 212 215 216 201 178 169 187 204 206 205 210 212 218 218 213 209 207 212 222 200 234 223 175 166 168 135 125 61 71 95 122 126 111 113 132 142 144 147 150 154 157 159 160 157 153 148 142 139 136 135 136 132 126 123 127 134 135 127 118 101 102 108 123 141 151 149 144 151 106 98 209 208 199 153 127 129 186 212 207 216 222 210 202 211 208 203 200 200 203 208 211 213 210 208 210 215 217 215 211 215 213 208 183 183 205 204 202 200 202 205 210 213 215 214 213 212 212 212 211 211 210 210 210 202 211 200 163 132 139 176 208 205 212 212 214 194 203 187 193 163 164 170 178 186 188 183 178 177 182 171 154 135 127 107 125 102 79 105 166 190 177 127 145 151 200 213 199 212 213 170 126 162 185 220 224 206 209 191 138 157 202 213 206 217 217 207 215 211 211 211 212 212 212 213 213 210 212 209 208 190 142 125 155 201 216 221 212 205 206 224 185 65 77 84 81 80 84 86 84 80 85 91 92 91 93 98 103 97 96 96 97 100 103 106 108 97 106 114 120 127 128 116 101 71 64 57 57 61 65 64 61 62 66 68 66 62 61 64 68 85 71 67 127 202 200 195 208 195 198 205 197 163 144 180 235 229 229 
192 200 189 169 116 171 208 211 210 211 211 212 213 213 214 214 216 213 219 219 215 212 174 113 134 183 222 223 213 215 218 214 195 125 81 119 192 229 222 206 215 228 216 206 214 203 189 201 213 208 206 226 195 139 158 151 53 88 103 102 112 122 131 149 145 145 147 149 152 156 158 160 161 157 151 145 138 135 133 133 134 117 100 97 107 118 122 121 101 88 83 97 122 135 128 114 110 98 131 204 216 194 147 82 100 185 210 193 215 228 209 201 214 210 204 201 201 204 210 214 213 210 208 210 215 217 215 211 213 209 189 183 192 207 212 198 197 202 207 212 213 214 213 214 211 211 211 211 210 210 209 209 220 222 209 180 165 174 193 203 211 211 201 201 184 162 154 151 164 164 169 179 190 193 188 182 184 176 169 169 148 128 93 120 144 99 106 165 199 171 97 121 150 212 220 201 210 187 125 91 79 129 195 213 206 221 196 120 122 187 213 207 216 213 204 217 214 214 214 214 215 215 216 216 204 214 208 212 196 127 106 165 222 207 207 205 216 202 196 162 68 81 87 80 76 81 82 77 74 79 84 86 85 86 91 97 88 88 87 87 89 94 100 105 103 114 119 118 123 130 126 115 101 83 64 60 67 72 67 60 64 68 72 72 69 68 71 74 71 58 88 199 208 146 135 184 211 202 200 204 199 190 196 212 228 228 
210 180 132 113 86 172 212 204 210 211 211 212 213 214 214 215 221 214 219 219 218 223 192 131 178 204 217 210 212 225 225 212 215 161 127 149 190 212 218 224 205 229 220 213 221 181 125 116 185 218 223 206 229 217 210 146 79 98 129 124 97 108 135 136 146 146 147 149 152 155 158 161 166 161 155 146 140 135 133 132 112 94 74 68 76 86 89 86 91 90 87 80 73 68 68 69 54 118 210 221 219 197 175 89 114 201 203 162 190 218 211 216 216 211 205 201 201 205 211 216 213 210 208 210 215 217 215 211 211 218 194 209 209 191 206 190 196 201 209 213 214 213 213 214 211 211 211 210 210 209 209 209 196 210 202 164 136 150 189 219 212 213 211 209 188 123 117 106 154 154 158 169 181 186 180 173 181 168 162 163 121 85 59 116 117 97 101 141 192 187 94 84 158 206 207 199 207 158 99 105 84 142 211 224 211 229 200 111 146 202 213 201 219 221 207 216 216 216 216 216 217 217 218 218 197 213 209 219 209 131 111 191 215 209 217 201 213 211 218 206 72 86 90 80 74 78 77 69 70 75 80 82 81 82 87 93 84 84 83 81 82 87 96 102 120 123 118 112 119 132 130 117 130 104 77 69 77 83 75 63 72 77 82 83 80 79 82 86 133 183 215 210 180 163 193 191 202 216 203 159 136 164 211 239 228 228 
181 175 132 86 104 173 211 204 215 205 204 214 218 213 215 222 217 207 212 216 202 186 165 135 168 199 217 208 205 217 217 203 212 163 116 147 190 203 214 207 224 219 216 220 217 191 117 146 209 217 207 212 214 190 184 95 99 120 121 118 123 111 100 112 153 156 152 144 147 157 156 146 161 160 156 152 148 144 141 139 154 147 181 133 59 91 75 63 62 69 74 133 167 129 74 137 209 211 213 204 200 205 162 86 123 171 210 212 202 203 206 203 217 212 205 201 202 208 216 221 218 216 213 211 211 212 214 216 215 209 202 195 192 194 198 201 202 202 203 205 206 207 208 209 211 210 210 210 209 209 209 208 208 208 220 180 102 103 173 215 221 209 205 202 169 112 82 87 160 160 161 163 166 169 173 175 159 152 153 153 126 82 65 76 85 56 84 150 99 107 102 83 132 170 204 215 187 132 115 146 113 164 185 193 211 221 195 136 155 198 213 206 212 212 204 209 202 211 217 216 212 211 210 208 219 204 199 214 205 160 157 205 214 211 211 212 210 207 210 215 134 75 81 90 73 73 73 78 77 72 62 66 67 78 81 86 72 68 66 71 82 89 90 88 99 115 124 118 116 126 135 137 77 78 81 82 81 79 77 75 79 82 85 88 87 83 79 76 165 211 201 204 188 117 161 185 198 208 195 154 95 136 187 215 222 228 
186 141 108 114 127 137 163 194 216 215 217 220 218 213 213 217 222 214 214 203 172 152 141 124 131 158 193 214 209 189 170 161 172 162 151 176 185 176 192 202 213 217 217 218 222 208 138 152 208 218 210 218 202 183 148 64 102 120 121 118 122 113 102 112 111 127 143 149 150 154 161 166 173 171 168 165 161 157 154 152 161 169 151 163 125 65 78 55 56 62 55 58 65 89 86 117 176 185 213 215 180 158 135 97 136 139 161 195 218 219 213 211 212 210 207 206 207 210 213 216 206 209 213 216 215 212 207 204 209 204 197 191 189 190 194 197 209 210 211 212 213 214 215 215 212 212 212 211 211 211 210 210 224 193 173 136 87 102 157 178 196 198 204 209 187 131 90 88 169 168 167 165 162 159 156 154 175 172 170 148 104 71 65 68 81 78 100 136 137 116 87 72 97 131 182 207 169 102 91 130 163 186 173 168 192 216 220 197 195 214 213 206 215 217 214 224 208 212 212 209 207 210 213 215 216 204 193 198 205 201 203 219 207 206 206 209 209 209 210 213 204 102 56 59 65 70 62 64 74 75 83 63 70 59 62 48 64 71 82 90 93 92 89 88 108 105 109 125 142 135 95 55 73 76 79 83 85 84 83 82 93 89 85 83 85 86 84 82 108 182 211 198 201 102 143 198 201 204 137 102 105 125 134 166 214 220 
155 129 121 140 147 137 135 147 198 210 220 218 212 211 213 213 214 211 213 195 158 143 148 147 132 129 159 206 207 151 94 71 113 134 159 183 173 152 169 190 213 218 214 206 220 230 188 200 216 219 216 234 181 105 71 120 106 119 120 119 121 113 106 112 109 93 103 143 166 161 158 169 168 165 163 159 156 153 150 149 153 163 161 155 151 85 64 49 48 49 68 70 56 87 95 97 91 127 192 202 150 132 147 142 153 134 131 159 195 212 210 206 212 209 205 202 203 207 212 216 214 213 212 211 211 211 211 212 207 203 198 193 191 192 195 198 207 207 208 208 209 209 210 210 212 212 212 212 211 211 211 210 206 165 145 137 125 132 133 107 157 196 209 196 181 149 114 104 159 162 167 171 172 170 167 165 163 131 153 183 135 69 66 95 101 76 85 97 148 141 128 92 99 129 181 204 165 116 112 132 168 184 168 172 198 208 215 215 207 211 205 205 215 214 208 212 232 223 215 216 220 220 214 208 213 204 203 209 212 214 209 196 209 211 212 212 211 206 199 192 210 200 192 146 89 60 48 53 66 69 53 70 56 76 67 74 70 81 95 100 97 93 93 96 99 105 111 108 92 76 74 80 77 79 83 86 87 87 86 85 81 88 94 91 84 82 90 98 86 116 159 196 141 113 145 177 195 188 114 110 145 145 131 141 216 222 
119 124 128 130 135 137 126 111 170 194 211 209 204 209 214 213 213 209 210 190 150 134 141 141 131 117 143 199 212 162 110 94 117 134 159 180 175 160 165 178 214 217 213 200 211 224 210 227 206 203 227 192 110 119 130 122 113 118 120 120 120 116 111 113 122 98 91 117 151 166 163 156 167 167 164 162 159 156 154 153 140 143 162 140 127 93 56 56 57 55 74 75 73 105 114 109 78 129 196 187 126 124 155 150 166 171 160 145 162 204 225 219 220 215 208 203 204 210 218 224 218 215 211 209 208 210 213 216 205 202 198 195 194 195 197 199 210 209 209 209 209 209 209 209 212 212 211 211 211 210 210 210 206 160 133 135 142 153 139 102 128 194 204 163 151 157 144 128 144 151 162 173 180 182 181 179 144 92 128 194 153 75 70 105 113 62 74 78 112 139 166 114 63 106 167 190 170 152 133 104 154 175 170 184 203 193 194 205 195 199 200 204 213 217 215 214 210 205 206 213 217 213 208 207 212 193 198 209 201 200 209 209 202 207 208 206 207 211 210 205 200 210 213 206 206 201 168 137 127 77 61 48 83 62 69 59 89 92 95 94 92 94 99 104 101 72 57 74 98 99 83 69 83 84 87 89 89 87 85 83 92 85 81 86 95 96 86 75 121 101 138 180 104 129 155 151 156 141 105 121 131 130 136 116 217 223 
155 144 139 144 148 148 152 158 169 192 209 207 202 207 212 211 216 210 214 204 177 167 169 163 156 156 180 214 217 192 179 189 186 184 190 194 193 188 183 188 206 209 214 206 209 203 200 216 214 218 211 141 123 123 114 129 119 117 119 121 119 118 116 112 114 128 119 95 106 148 169 160 166 165 164 162 160 158 156 155 148 146 133 145 104 66 66 67 57 75 79 60 93 137 135 124 118 148 185 171 123 124 148 144 142 172 173 141 138 178 206 204 204 205 205 206 207 207 208 208 207 209 213 215 214 211 208 205 201 200 198 196 196 197 198 199 201 201 200 200 199 198 197 197 204 204 204 203 203 203 202 202 184 152 131 130 139 149 143 123 126 169 173 146 147 163 154 134 137 143 151 158 161 160 156 153 141 118 141 167 151 148 166 165 171 157 174 170 161 182 209 184 181 191 204 192 170 174 179 161 175 188 178 182 187 179 192 208 210 213 217 215 211 215 218 215 222 215 213 213 202 189 192 204 205 193 204 217 210 211 216 209 199 211 213 204 200 209 215 213 207 198 192 201 201 190 195 208 195 219 200 170 76 55 58 103 97 93 89 90 94 97 97 95 59 64 78 90 86 75 76 88 77 80 84 88 90 91 90 90 92 91 88 83 78 77 78 80 105 108 173 170 173 165 195 192 194 186 170 171 171 174 195 178 210 216 
195 185 179 184 186 188 197 208 192 205 215 212 207 206 207 208 216 210 219 223 212 212 214 203 208 208 212 214 209 203 206 215 218 211 214 205 202 207 204 213 204 204 212 207 213 206 215 225 199 222 188 94 119 133 114 122 125 116 118 121 117 120 121 111 120 124 119 104 97 114 148 174 163 162 161 160 158 157 156 155 163 145 138 124 87 96 72 68 51 64 70 70 127 143 124 129 126 122 134 140 126 119 132 144 133 153 161 146 132 135 144 145 154 163 177 186 187 179 167 159 169 169 170 170 169 168 167 167 161 160 160 160 160 161 161 162 154 154 153 151 150 148 147 147 143 143 142 142 142 141 141 141 134 130 132 136 138 137 131 122 138 133 140 157 171 171 147 118 122 125 129 132 132 129 126 123 113 115 123 119 127 179 215 201 195 224 216 207 207 214 205 217 206 205 212 205 174 147 140 141 123 135 136 145 151 159 172 160 160 166 196 223 225 222 222 217 205 174 152 156 162 157 155 160 193 197 202 205 215 233 232 212 156 192 220 221 214 216 214 207 222 211 199 210 216 215 212 190 189 191 181 107 82 60 79 70 87 85 87 93 98 95 84 73 76 75 78 81 79 73 72 76 68 72 78 85 91 94 96 96 75 80 81 73 67 73 94 113 78 91 169 209 215 214 223 199 200 205 198 189 218 222 222 229 215 221 
188 199 200 193 194 205 206 199 208 206 208 212 209 205 205 209 216 208 213 215 203 202 204 194 209 206 202 200 204 210 211 208 205 202 212 203 201 211 206 216 210 206 207 196 212 212 221 205 192 107 102 127 123 133 148 129 130 115 117 122 116 122 125 111 130 112 108 116 110 99 116 150 167 168 166 165 164 163 163 162 157 132 125 90 111 145 84 62 63 53 62 74 127 124 115 139 128 124 118 125 131 120 116 131 164 168 172 165 144 125 121 127 129 137 148 157 158 151 140 133 130 127 122 119 118 121 125 128 119 119 119 120 121 121 121 121 126 125 124 122 120 118 117 116 133 133 133 132 132 131 131 131 132 132 128 125 125 128 134 141 139 121 140 171 178 174 149 106 116 117 119 121 123 123 124 124 136 137 135 130 138 172 202 208 201 218 198 197 211 220 203 213 217 208 195 188 178 163 166 186 173 174 171 168 156 156 133 63 76 75 134 214 239 227 220 219 212 179 166 193 221 225 218 218 192 197 189 180 189 199 200 199 104 162 214 225 219 221 221 215 200 216 219 220 215 217 189 105 92 97 74 61 42 67 72 78 77 80 84 87 87 81 72 66 70 73 76 80 86 86 74 60 73 76 80 84 87 88 87 86 77 63 55 68 93 111 109 100 103 91 122 218 196 218 198 166 185 162 185 183 212 220 217 229 222 228 
196 198 199 195 194 197 200 202 205 196 194 205 209 204 205 213 199 194 203 206 196 201 212 209 191 201 208 207 202 201 203 201 202 200 212 204 203 211 195 196 210 208 207 187 202 197 187 139 93 142 119 111 132 135 103 123 132 115 117 122 116 123 127 111 115 126 126 113 102 104 106 102 154 154 153 153 152 151 151 151 138 126 59 87 170 140 108 60 67 78 106 105 142 150 144 137 127 143 136 130 148 149 138 145 174 177 175 159 139 128 132 142 145 145 145 146 147 148 149 150 139 141 143 144 143 141 139 137 136 137 139 141 142 142 141 141 147 146 144 142 140 138 136 135 137 137 137 136 136 135 135 135 140 141 136 131 134 137 142 150 130 131 161 174 161 172 161 105 132 131 130 129 130 131 132 133 137 146 143 134 143 171 201 219 209 199 204 211 201 210 215 203 208 201 170 149 156 156 147 150 133 129 132 146 163 202 192 102 91 65 116 209 231 197 178 179 176 169 183 211 217 198 189 196 200 215 222 219 190 126 81 85 133 186 224 214 191 189 196 197 198 188 182 198 204 212 186 94 74 56 58 69 75 59 62 75 77 80 81 76 68 65 68 73 66 67 62 61 74 92 93 82 88 88 88 86 82 77 72 69 58 75 95 104 100 93 90 90 103 92 80 157 204 201 187 203 220 142 192 196 183 202 226 227 217 223 
165 178 167 159 165 183 204 196 173 167 154 182 205 207 174 166 179 186 193 173 169 183 174 168 165 157 161 167 172 188 190 168 165 172 172 164 159 163 163 158 176 183 171 162 167 149 116 102 117 118 119 121 124 126 127 128 128 127 125 123 121 119 118 117 119 119 120 117 113 108 103 99 100 144 164 153 149 148 145 150 112 110 121 151 152 130 105 63 77 107 113 118 156 180 168 155 120 153 158 174 166 159 153 163 185 178 170 163 160 146 139 172 176 168 159 157 175 168 131 129 148 161 173 174 177 180 172 161 144 136 156 158 162 172 161 161 168 173 172 161 162 164 158 164 168 170 159 120 146 171 170 163 152 134 125 141 165 177 176 172 167 120 138 164 172 169 163 111 123 133 137 130 127 132 136 134 127 133 131 134 129 178 211 217 215 213 211 208 208 209 211 213 208 168 77 85 84 145 170 190 171 82 45 67 72 182 215 95 77 88 116 193 214 175 159 96 81 74 116 219 210 131 74 75 82 199 228 226 215 119 88 87 128 209 224 208 116 95 83 81 103 118 149 177 215 192 98 63 67 60 59 67 70 65 63 67 66 72 76 73 67 64 68 73 73 64 57 61 72 78 73 66 75 75 75 74 72 69 66 64 102 96 98 106 108 103 104 111 107 102 87 75 207 196 153 209 183 161 205 190 187 169 191 203 183 225 
140 150 136 128 135 154 173 162 146 148 143 178 202 198 155 139 139 167 192 167 140 140 136 142 136 127 132 144 155 172 169 140 139 129 125 132 137 135 129 129 138 178 174 127 110 128 129 112 117 118 120 121 123 125 126 127 127 127 125 123 121 120 118 118 121 121 121 120 116 111 106 103 105 147 165 155 152 150 144 145 118 129 144 164 149 123 109 80 96 112 125 147 173 171 161 171 107 152 172 182 173 165 152 180 157 164 168 173 161 137 145 171 173 167 161 155 171 169 144 148 174 179 178 170 169 175 174 168 146 122 146 166 170 179 173 168 171 184 184 173 170 166 164 177 168 169 159 120 146 171 170 164 165 129 108 130 166 178 169 158 167 120 138 164 172 170 163 111 123 133 137 130 127 132 135 133 127 133 131 132 129 178 211 216 215 213 211 209 208 210 212 213 219 183 76 84 86 194 204 213 204 149 125 117 120 184 206 103 83 74 107 198 223 218 224 148 87 84 108 225 205 132 84 102 89 201 223 221 214 122 92 90 119 206 219 201 103 92 84 116 199 185 142 112 74 51 66 58 74 66 65 70 69 61 57 61 68 70 72 71 68 66 68 70 72 69 65 65 66 67 64 62 77 70 61 56 60 72 86 96 96 97 96 95 97 101 103 103 124 102 124 113 161 183 192 213 176 178 211 194 208 179 180 201 177 219 
158 179 169 150 135 143 169 169 140 143 141 178 203 196 149 133 144 171 200 186 169 165 145 136 145 148 166 181 186 198 197 174 179 167 151 139 141 159 181 194 199 187 164 130 107 113 125 125 118 119 120 121 123 124 125 126 126 126 125 124 122 121 120 119 124 124 125 124 120 116 111 108 110 149 164 155 153 150 139 135 109 133 157 168 141 118 123 110 113 115 125 154 179 174 167 180 113 150 169 170 172 161 114 141 161 172 170 173 135 105 141 167 182 184 185 171 167 158 133 134 162 166 165 159 161 169 173 169 156 110 134 171 171 176 172 151 153 177 178 168 161 146 150 173 169 170 160 121 148 171 171 164 176 127 100 129 166 175 166 160 167 120 138 164 172 169 163 111 123 133 136 130 126 131 136 133 127 132 131 132 128 178 210 216 216 214 211 209 209 210 212 214 211 167 77 71 82 186 199 211 206 200 210 192 188 203 205 111 74 62 106 205 216 220 231 139 94 94 99 227 209 136 86 101 87 196 216 214 209 119 89 87 117 210 220 201 90 86 79 152 113 78 53 81 73 70 45 64 67 64 68 75 73 63 59 62 71 68 66 67 69 69 67 65 70 72 74 74 72 71 72 73 60 60 62 67 76 88 100 107 96 102 99 90 91 102 106 101 107 76 101 99 89 130 182 221 149 173 200 163 168 170 191 200 183 219 
161 184 175 153 135 143 171 176 148 148 140 174 199 195 155 142 147 166 195 197 202 201 162 132 129 153 190 204 192 197 205 198 197 193 162 123 130 179 204 203 184 131 116 135 130 118 124 134 120 120 120 121 122 123 123 123 125 125 124 124 123 122 122 121 126 127 128 127 125 121 117 114 112 148 160 150 148 144 131 126 114 141 161 162 129 112 126 118 108 109 118 144 175 182 163 145 100 135 156 155 171 166 102 133 171 182 171 167 111 76 137 166 172 174 174 147 126 117 102 107 146 155 161 160 163 170 170 162 169 112 131 169 161 165 158 109 131 167 169 161 149 123 132 167 169 171 160 121 147 172 171 164 173 128 106 133 164 168 169 177 167 120 138 164 172 169 163 111 122 132 136 129 126 131 135 133 126 132 130 132 128 177 210 216 216 214 211 209 209 210 212 214 213 172 134 111 111 129 128 136 127 110 114 120 144 195 207 113 76 80 120 213 213 208 208 124 82 95 106 226 231 152 95 85 72 187 214 213 205 112 83 82 107 210 222 208 91 90 80 179 198 108 105 43 64 58 65 60 65 60 60 66 66 65 73 86 72 66 61 63 69 71 66 60 60 61 62 64 65 64 62 60 55 64 79 93 102 104 102 100 106 107 103 96 96 104 109 108 113 96 90 101 95 110 140 222 196 199 227 211 203 210 235 221 207 229 
143 155 139 128 134 154 179 174 145 144 137 170 194 192 151 138 129 162 204 207 203 196 158 132 131 162 208 222 207 210 219 213 207 195 158 132 151 189 183 148 112 101 118 137 130 125 128 124 121 121 121 121 121 121 121 121 124 124 124 124 124 124 124 124 127 128 129 130 128 124 121 118 110 146 157 143 138 134 126 124 150 165 169 156 123 110 121 105 124 98 78 83 111 150 177 186 106 147 173 167 174 166 110 148 161 176 170 168 111 75 137 167 167 162 155 116 92 107 124 141 167 172 172 165 165 170 169 163 176 121 136 169 156 165 156 83 128 173 172 169 157 119 131 174 169 171 160 122 147 172 172 165 166 123 104 133 162 166 169 182 167 120 138 164 172 169 163 111 122 132 135 129 125 131 134 132 126 131 130 131 128 177 209 215 217 215 212 210 209 211 213 215 212 202 195 195 197 204 200 204 212 126 61 61 86 189 215 113 73 87 107 198 213 211 205 149 76 85 84 142 161 101 82 84 64 186 220 220 209 112 83 84 97 207 220 217 105 100 87 177 217 214 201 160 154 192 165 53 72 64 57 56 55 61 82 105 70 64 59 61 67 69 64 58 67 63 61 67 75 76 68 59 84 88 95 102 105 106 104 102 110 104 100 102 102 99 102 109 102 103 83 99 99 93 77 135 232 219 211 214 226 210 213 221 226 237 
151 164 149 136 138 157 186 185 140 143 142 179 203 197 150 133 133 168 211 213 202 190 152 128 128 152 191 210 204 209 214 199 207 182 152 142 149 148 125 99 126 130 138 135 122 119 123 121 122 122 121 121 120 120 119 119 123 123 123 124 124 125 126 126 126 127 129 129 129 126 123 120 109 148 158 139 128 127 126 135 173 177 167 149 126 124 134 109 122 107 114 126 118 106 110 115 125 154 164 161 165 158 111 136 167 178 171 162 116 86 132 168 174 168 162 122 99 127 157 175 174 173 164 151 152 166 177 178 172 127 139 175 166 175 167 86 126 177 171 172 163 117 129 177 170 171 161 122 148 174 172 165 166 125 104 130 163 172 169 171 167 120 138 164 172 169 163 111 121 132 135 128 125 130 134 132 125 131 129 131 127 177 209 215 217 215 212 210 210 211 213 215 200 194 120 124 112 187 207 217 222 140 74 72 78 178 202 102 69 82 94 195 215 214 209 175 132 137 133 133 139 82 72 91 71 189 220 221 213 120 90 90 111 215 220 220 115 95 81 130 216 210 194 69 103 196 69 75 67 66 67 69 64 62 75 93 65 63 61 61 63 64 62 59 65 62 66 81 101 111 105 96 104 105 107 107 106 104 102 101 104 96 96 103 102 93 92 99 110 112 103 109 98 112 98 93 157 215 203 191 222 207 191 213 212 228 
158 182 172 146 126 136 171 181 141 142 137 172 196 192 148 134 137 162 197 200 201 194 152 120 133 154 190 208 206 212 214 199 211 191 164 147 136 124 119 119 137 126 114 116 121 115 118 134 123 123 122 121 120 119 118 117 122 122 123 124 125 126 127 127 124 125 127 128 128 126 123 121 112 154 165 140 123 123 134 152 174 174 156 138 123 133 146 119 93 94 116 130 118 117 129 132 109 127 122 134 146 148 122 132 167 174 173 161 132 107 128 169 171 165 163 124 98 127 154 161 168 166 156 145 148 166 181 186 168 126 136 181 176 175 165 94 120 173 161 167 164 111 122 171 170 171 161 122 148 173 172 166 172 145 130 146 168 175 171 169 167 120 138 164 172 169 163 111 121 131 135 128 125 130 133 131 125 131 129 130 127 176 209 214 217 216 213 211 210 212 214 215 207 190 65 75 63 159 206 220 205 180 160 156 156 198 189 90 79 86 108 210 193 187 211 201 199 209 227 234 230 157 88 94 84 186 201 201 206 123 93 87 117 211 204 208 118 90 84 86 142 214 175 78 160 51 68 61 61 63 70 74 68 64 77 95 60 62 64 62 59 58 60 62 50 54 66 84 103 113 113 110 96 102 110 115 115 108 98 92 98 99 102 105 104 98 92 90 107 111 109 105 95 118 125 106 64 143 178 198 211 203 191 177 163 202 
159 179 166 140 122 132 166 173 138 132 117 145 169 172 139 131 138 163 197 202 207 207 168 139 130 158 199 212 200 204 213 207 205 189 158 130 123 132 135 130 120 125 117 117 128 123 116 126 124 123 122 121 119 118 117 117 121 122 123 124 125 127 128 128 122 124 126 127 127 125 122 121 116 160 172 142 122 123 141 166 176 175 153 130 113 124 138 111 119 124 131 116 102 125 140 120 106 127 120 129 122 120 114 124 136 151 169 171 162 139 134 171 178 166 161 119 93 128 160 167 177 179 174 163 163 173 180 177 166 123 130 182 179 163 153 93 122 175 160 169 169 113 123 172 170 172 161 123 148 173 173 166 178 169 164 168 173 174 176 180 168 120 138 164 173 169 163 111 121 131 134 128 124 130 133 131 125 130 129 130 127 176 208 214 218 216 213 211 210 212 214 215 211 188 75 89 70 95 123 117 120 126 132 138 182 205 180 82 73 71 103 195 132 129 198 217 212 198 201 221 227 172 78 90 91 177 177 177 193 120 89 79 98 187 178 190 120 98 106 81 66 77 83 74 56 58 69 56 70 63 58 54 52 62 93 124 57 62 66 63 57 54 58 64 69 76 88 97 102 103 103 102 86 94 106 115 116 109 99 91 96 107 113 110 108 108 100 87 98 115 110 104 109 106 108 115 116 82 123 204 191 189 217 188 119 178 
140 134 126 125 134 152 172 185 131 130 130 131 131 131 132 132 145 161 184 201 201 185 161 145 130 153 192 210 203 210 215 202 128 127 127 127 126 124 124 124 122 122 122 122 122 122 122 122 123 123 123 123 123 123 123 123 120 121 121 122 123 123 124 124 129 129 129 129 129 129 129 129 116 163 176 132 112 118 165 169 163 159 164 133 118 124 144 130 124 124 124 124 123 123 123 122 122 122 122 122 122 123 122 122 110 112 116 124 136 149 161 168 172 171 173 118 98 131 144 171 175 174 175 177 178 175 168 162 159 124 146 173 158 163 153 96 131 179 168 169 169 117 118 174 174 185 165 120 111 149 182 187 166 175 178 172 172 178 175 166 166 129 135 163 171 181 163 109 120 126 128 124 126 134 136 131 137 131 142 135 126 172 217 204 215 215 216 216 216 217 217 217 216 198 168 145 142 150 147 136 130 127 126 142 175 200 193 171 182 153 132 120 118 152 198 215 207 214 219 215 196 163 130 108 99 140 155 137 188 130 88 90 96 114 106 171 160 95 76 100 138 151 172 68 71 61 71 61 61 70 58 62 77 61 84 78 76 71 73 56 82 85 83 98 102 119 72 96 101 91 110 108 102 100 99 99 102 107 113 116 109 108 106 103 100 97 94 93 96 104 110 106 98 99 112 125 111 116 76 133 205 158 134 148 183 199 
162 161 159 162 169 181 192 199 167 167 167 168 169 169 169 169 171 181 196 207 207 196 182 171 180 178 192 212 212 188 141 98 129 128 127 126 125 125 124 124 122 122 122 122 122 122 122 122 124 124 124 124 124 124 124 124 120 121 121 122 123 124 124 125 129 129 129 129 129 129 129 129 131 173 174 149 121 129 160 167 166 150 155 143 125 117 142 130 125 124 124 124 123 123 123 123 122 122 122 122 122 122 122 122 127 125 122 120 120 122 126 128 175 167 161 110 94 123 128 145 158 168 173 164 149 146 159 174 165 122 127 157 168 180 161 100 120 159 156 163 162 117 115 156 152 165 151 110 93 118 149 160 164 161 151 141 141 151 162 164 157 122 125 149 158 168 153 104 128 135 136 132 134 142 143 138 151 143 149 140 132 178 224 216 212 212 212 212 213 213 214 214 219 216 208 204 211 218 209 193 157 167 184 201 209 210 210 212 216 207 203 199 196 204 215 218 224 218 209 203 204 212 223 231 200 208 205 195 217 210 212 222 188 195 176 216 216 190 188 214 202 244 139 70 86 64 45 76 64 76 65 65 76 62 84 70 73 64 77 77 106 108 92 84 102 116 73 99 100 83 101 106 103 101 100 99 101 105 110 113 110 109 107 105 102 99 97 96 96 103 107 103 95 95 106 117 121 112 125 74 159 206 138 177 180 192 
172 174 179 185 190 193 195 196 196 197 197 198 198 198 198 198 199 201 206 210 210 207 201 198 204 195 201 209 176 115 102 136 128 129 127 128 126 125 124 124 123 123 123 123 123 123 123 123 124 124 124 124 124 124 124 124 121 121 122 122 123 124 125 125 128 128 128 128 128 128 128 128 132 164 158 158 130 139 154 163 166 143 145 153 133 110 142 127 125 125 125 124 124 123 123 123 122 122 123 122 122 122 122 122 125 123 119 116 114 114 115 115 126 123 131 105 103 127 121 125 138 134 127 117 110 106 107 108 105 86 91 110 119 127 118 88 96 111 106 111 109 85 92 121 104 108 104 94 96 109 115 111 116 112 111 113 113 111 112 116 110 95 107 119 109 113 115 92 131 138 139 134 136 143 144 139 143 136 142 137 135 181 227 227 211 211 212 212 212 213 213 213 215 216 213 211 218 223 214 198 162 158 167 190 206 206 207 213 212 216 213 211 215 214 211 215 212 211 211 210 211 213 215 217 223 216 225 235 215 218 215 201 219 221 208 221 222 217 210 224 221 164 57 64 69 69 62 69 48 65 62 61 72 67 91 67 70 56 73 64 73 76 78 76 103 112 74 103 100 74 87 102 104 103 101 100 100 102 105 106 110 110 108 107 105 104 103 102 98 104 107 102 94 92 99 107 115 124 111 99 83 195 196 202 211 221 
180 184 188 193 196 196 195 194 192 192 192 193 193 194 194 195 200 201 202 202 202 201 201 200 193 220 199 138 115 125 130 131 129 128 128 127 126 125 125 125 123 123 123 123 123 123 123 123 125 125 125 125 125 125 125 125 121 121 122 123 124 124 125 125 127 127 127 127 127 127 127 127 117 135 133 146 136 137 149 156 161 139 141 153 134 111 145 120 125 125 125 125 124 124 123 123 122 123 123 123 122 122 122 122 120 120 120 120 121 123 124 125 103 110 127 120 127 149 147 150 162 146 133 136 145 143 122 101 118 126 135 138 135 134 138 143 131 125 120 124 122 116 129 145 112 106 106 116 131 136 127 116 110 110 121 137 137 121 110 110 112 107 120 124 108 109 118 111 133 138 138 133 134 141 141 136 136 132 139 136 135 168 203 205 208 208 208 209 209 210 210 210 214 215 210 204 205 207 198 184 187 166 153 166 191 205 206 204 206 212 201 195 206 206 204 216 214 213 212 210 209 208 208 208 213 203 217 232 212 220 224 207 218 219 222 220 216 214 201 206 206 54 51 81 64 64 74 55 66 84 84 80 86 86 112 79 105 82 92 70 61 67 86 90 103 107 76 107 100 69 75 96 103 102 101 100 100 100 100 101 109 109 109 109 108 108 108 108 105 108 110 105 98 94 97 102 107 109 111 105 99 108 223 217 212 221 
158 159 159 160 161 163 164 165 157 158 158 158 159 159 159 160 177 178 180 181 181 180 178 177 176 163 136 127 137 128 117 126 129 129 128 128 127 126 125 125 124 124 124 124 124 124 124 124 126 126 126 126 126 126 126 126 122 122 123 123 124 125 126 126 126 126 126 126 126 126 126 126 113 119 124 132 140 127 143 143 152 142 144 140 129 122 146 114 126 126 125 125 125 124 124 124 122 122 122 122 123 123 122 122 128 128 127 126 125 124 121 120 121 124 131 121 121 138 149 163 154 151 151 156 161 160 152 144 149 153 150 149 154 154 152 156 150 140 145 151 149 151 154 157 145 137 132 134 136 136 139 144 142 137 141 152 152 141 137 142 155 141 140 146 148 154 152 138 141 147 147 141 141 148 148 142 152 151 155 150 141 151 165 163 162 162 162 163 163 163 164 164 159 165 168 165 167 169 161 148 168 164 154 143 145 155 161 160 162 172 165 161 170 163 153 161 178 175 172 169 169 172 176 179 166 163 173 176 182 184 194 190 194 190 198 190 189 194 200 205 122 53 80 78 72 57 68 75 94 104 101 91 85 80 106 66 121 96 108 96 96 99 103 93 103 104 78 108 102 72 69 89 99 100 100 100 100 99 98 97 106 106 107 108 109 110 111 112 111 113 114 110 104 100 99 100 106 102 121 94 120 96 128 212 203 212 
156 154 151 150 151 154 158 161 159 159 159 160 160 161 161 161 155 156 159 160 159 158 156 155 156 150 129 116 129 142 136 125 130 129 129 128 127 126 126 125 124 124 124 124 124 124 124 124 127 127 127 127 127 127 127 127 122 122 123 124 125 125 126 126 126 126 126 126 126 126 126 126 125 127 131 129 139 119 136 130 146 145 148 121 123 134 141 115 126 126 126 126 125 125 124 124 123 122 122 122 122 122 123 122 121 123 125 124 124 121 119 117 118 122 125 120 116 122 132 143 163 164 164 160 157 159 166 173 163 160 153 153 160 160 155 153 166 156 162 159 160 169 167 171 176 167 161 163 168 171 172 173 175 170 167 167 167 167 170 175 162 156 154 158 163 165 160 152 155 160 160 153 153 158 158 152 158 161 164 161 154 152 154 154 161 161 162 162 162 163 163 163 153 158 158 152 153 159 159 152 153 166 169 158 150 154 156 152 144 152 154 157 162 158 151 152 160 161 163 165 165 163 161 160 156 161 167 164 173 163 159 158 157 154 158 149 153 158 171 153 45 80 62 62 58 72 95 87 93 92 88 81 69 64 95 59 90 84 109 103 108 105 105 102 103 102 79 105 106 85 71 82 93 95 97 99 100 99 97 96 101 102 104 106 109 111 113 114 112 113 114 112 109 105 102 100 115 111 105 116 91 118 71 147 185 195 
181 180 180 179 181 183 186 188 184 184 184 185 185 185 186 186 196 194 193 191 191 193 194 196 215 139 101 127 142 125 120 133 130 130 129 128 127 127 126 126 125 125 125 125 125 125 125 125 128 128 128 128 128 128 128 128 122 123 123 124 125 126 126 127 125 125 125 125 125 125 125 125 126 135 132 130 127 119 132 129 146 145 149 105 121 143 131 123 127 127 126 126 125 125 125 125 122 123 122 122 122 122 122 123 112 115 119 123 126 126 125 124 118 121 125 132 134 131 131 130 196 194 189 184 182 182 186 189 194 193 196 196 191 191 193 191 197 191 194 181 184 196 192 203 193 188 185 190 201 207 200 189 190 193 191 187 187 191 193 190 188 197 203 203 199 194 193 197 194 200 199 192 191 196 195 189 186 190 194 195 194 191 194 201 197 197 197 198 198 199 199 199 200 204 200 190 187 194 197 194 186 190 193 195 197 199 198 195 185 182 187 192 191 195 200 198 192 190 187 187 191 199 208 214 206 204 197 204 195 207 209 213 200 208 205 195 204 202 200 131 68 93 62 74 61 102 114 84 96 84 80 81 69 65 105 76 75 87 114 103 109 102 106 122 103 101 79 102 111 100 77 76 87 90 94 98 100 100 98 97 96 98 100 103 107 110 113 114 107 108 109 110 109 106 101 97 117 100 110 100 95 92 106 85 182 194 
150 151 154 157 158 159 159 159 164 164 164 164 165 165 166 166 176 172 166 162 162 166 172 176 167 121 109 128 129 125 133 137 130 130 129 129 128 127 126 126 125 125 125 125 125 125 125 125 128 128 128 128 128 128 128 128 123 123 124 124 125 126 126 127 124 124 124 124 124 124 124 124 115 133 121 128 114 124 132 134 148 144 148 97 121 147 122 130 127 127 126 126 126 125 125 125 122 122 122 122 123 122 122 122 115 118 123 127 129 129 126 125 127 120 113 122 129 125 122 115 136 144 153 153 150 146 146 148 150 145 151 155 149 151 155 147 147 152 162 150 155 161 144 155 152 157 155 145 138 141 144 144 149 156 154 144 144 154 156 149 144 150 153 155 159 154 146 146 153 158 157 150 149 153 152 146 150 152 151 150 150 147 151 163 154 154 154 155 155 156 156 156 147 160 168 165 164 165 161 153 158 149 146 150 149 145 150 160 161 151 158 160 149 150 155 145 156 156 157 158 159 159 159 159 165 161 158 185 150 175 169 163 167 184 172 161 177 176 165 57 81 73 73 75 84 117 95 109 101 79 73 75 60 52 94 69 78 87 103 94 114 106 97 108 103 101 79 99 114 110 81 72 83 87 93 98 101 101 100 98 93 95 98 102 106 109 112 114 102 103 104 106 108 105 99 95 96 105 105 83 90 105 99 95 147 163 
138 139 141 144 146 148 150 151 152 153 153 155 156 157 158 158 163 165 152 158 164 157 163 164 120 122 126 130 132 132 131 130 130 130 129 128 128 127 126 126 125 125 125 126 126 126 127 127 127 127 127 127 127 127 127 127 128 128 128 128 128 128 128 128 129 127 124 121 122 125 129 131 129 127 125 124 125 128 131 133 117 132 141 130 138 120 119 127 123 123 123 123 123 123 123 123 121 121 121 121 121 121 121 121 127 127 126 126 126 125 125 125 126 126 126 127 127 127 128 128 118 167 151 152 147 158 157 148 147 147 147 148 148 149 150 150 151 151 151 151 150 151 150 150 150 150 150 150 150 150 150 150 151 151 151 151 151 151 151 151 149 149 148 148 147 146 145 145 149 149 149 148 148 147 147 147 148 148 149 149 149 150 150 150 149 149 149 150 150 150 150 150 152 152 152 152 153 153 154 154 145 145 145 145 145 145 145 145 145 144 144 144 143 143 143 143 145 146 146 148 149 150 151 151 149 149 149 149 149 150 149 149 158 167 156 163 147 160 107 67 75 79 72 74 92 93 88 99 80 83 74 63 62 75 154 49 78 105 95 90 103 107 105 92 101 90 88 99 102 92 85 88 82 89 96 99 98 97 100 103 91 93 97 102 107 111 115 117 107 108 110 110 108 105 101 99 116 106 114 84 93 96 95 91 102 146 
147 147 148 148 148 149 149 149 148 149 149 151 152 153 154 153 159 160 149 155 159 153 159 155 120 122 126 130 132 132 131 130 130 130 129 128 128 127 126 126 125 125 125 126 126 126 127 127 127 127 127 127 127 127 127 127 128 128 128 128 128 128 128 128 131 129 126 124 125 127 130 133 131 130 127 125 125 127 129 131 119 123 123 116 136 125 122 122 124 124 124 124 124 124 124 124 122 122 122 122 122 122 122 122 127 127 126 126 126 125 125 125 126 126 126 127 127 127 128 128 126 145 164 145 157 154 155 147 147 148 148 148 149 149 149 150 151 151 151 151 151 151 151 151 151 151 151 151 151 151 151 151 152 152 152 152 152 152 152 152 152 151 151 150 149 148 148 147 150 149 149 149 148 148 148 147 149 149 149 149 150 150 151 151 150 150 150 150 150 150 150 150 152 152 152 153 153 153 154 154 147 147 147 147 147 147 147 147 147 147 147 147 146 146 145 145 148 148 149 150 151 152 153 154 152 152 152 152 152 152 152 152 157 163 157 163 154 163 96 70 84 68 60 79 104 102 89 88 86 79 67 70 85 59 134 90 87 115 106 98 107 111 113 105 110 99 96 104 105 94 87 88 87 93 99 100 97 94 95 98 97 98 99 101 103 105 106 107 106 101 94 88 87 89 93 97 97 82 87 79 96 95 100 99 84 102 
150 149 148 147 146 145 144 144 146 146 147 148 149 151 152 151 156 156 147 153 155 151 155 141 120 122 126 130 132 132 131 130 130 130 129 128 128 127 126 126 125 125 125 126 126 126 127 127 127 127 127 127 127 127 127 127 128 128 128 128 128 128 128 128 132 131 129 128 129 130 133 134 136 133 130 127 125 125 127 128 102 96 90 90 127 129 127 124 124 124 124 124 124 124 124 124 123 123 123 123 123 123 123 123 127 127 126 126 126 125 125 125 126 126 126 127 127 127 128 128 132 126 164 151 157 157 149 148 149 149 149 149 150 150 150 151 152 152 152 152 152 152 152 152 152 152 152 152 152 152 152 152 153 153 153 153 153 153 153 153 155 155 154 154 153 152 151 151 151 150 150 150 149 149 149 149 150 150 150 150 151 151 152 152 150 150 150 150 150 150 150 150 152 152 153 153 153 154 154 154 151 151 151 151 151 151 151 151 152 151 151 151 150 150 150 150 151 152 152 154 155 156 157 157 156 156 156 156 156 156 156 156 155 158 159 163 162 167 81 74 76 61 70 97 103 93 88 88 70 83 69 68 95 60 98 65 67 106 108 104 108 103 100 90 115 106 103 107 107 98 89 87 91 97 101 101 96 92 92 94 102 102 101 100 99 98 97 97 87 88 89 93 99 107 114 118 114 110 110 104 97 72 83 92 101 92 
145 145 144 144 144 144 143 143 151 151 152 153 155 156 157 157 157 156 149 155 154 153 154 129 120 122 126 130 132 132 131 130 130 130 129 128 128 127 126 126 125 125 125 126 126 126 127 127 127 127 127 127 127 127 127 127 129 129 129 129 129 129 129 129 133 133 132 132 132 133 134 135 139 136 132 128 126 125 126 126 137 125 110 100 130 128 123 119 125 125 125 125 125 125 125 125 124 124 124 124 124 124 124 124 127 127 126 126 126 125 125 125 126 126 126 127 127 127 128 128 133 124 145 168 150 160 145 148 150 150 150 151 151 151 152 152 153 153 153 153 153 153 153 153 153 153 153 153 153 153 153 153 154 154 154 154 154 154 154 154 158 158 157 157 156 155 154 154 152 152 151 151 151 150 150 150 151 151 151 152 152 153 153 153 151 151 151 151 151 151 151 151 153 153 153 153 154 154 155 155 155 155 155 155 155 155 155 155 156 156 155 155 154 154 154 154 154 155 156 157 158 159 160 160 159 159 159 159 159 159 159 159 155 154 161 163 168 169 70 76 64 64 89 108 94 85 89 86 78 94 74 85 110 99 98 54 67 110 115 109 108 101 99 92 108 103 101 103 105 100 93 88 89 95 100 100 96 93 94 96 100 100 99 98 96 95 94 94 113 112 110 108 106 106 105 105 110 117 115 116 104 84 95 100 118 105 
143 144 145 147 149 151 152 153 158 158 159 160 162 163 164 165 160 157 154 160 155 157 156 118 120 122 126 130 132 132 131 130 130 130 129 128 128 127 126 126 125 125 125 126 126 126 127 127 127 127 127 127 127 127 127 127 129 129 129 129 129 129 129 129 132 132 133 134 135 135 134 134 140 137 133 129 127 126 127 127 144 136 123 107 128 122 122 124 126 126 126 126 126 126 126 126 125 125 125 125 125 125 125 125 127 127 126 126 126 125 125 125 126 126 126 127 127 127 128 128 131 129 129 169 154 151 153 147 151 151 152 152 153 153 153 153 155 155 155 155 155 155 155 155 155 155 155 155 155 155 155 155 156 156 156 156 156 156 156 156 160 159 159 158 157 157 156 156 153 153 153 153 152 152 151 151 152 153 153 153 154 154 154 155 152 152 152 152 152 152 152 152 153 153 154 154 154 155 155 155 157 157 157 157 157 157 157 157 158 158 158 157 157 156 156 156 156 156 157 158 159 161 161 162 161 161 161 161 161 161 161 161 154 153 160 163 168 169 70 76 67 76 97 100 86 89 92 76 87 84 64 102 109 119 107 81 77 111 104 89 87 88 98 98 93 93 93 94 99 101 95 88 83 90 97 99 97 96 99 102 94 94 95 96 97 98 99 99 101 98 94 92 95 103 112 117 102 104 97 103 110 115 106 89 99 98 
149 150 152 155 158 160 162 163 159 160 161 162 163 164 165 167 161 157 157 163 154 159 156 106 120 122 126 130 132 132 131 130 130 130 129 128 128 127 126 126 125 125 125 126 126 126 127 127 127 127 127 127 127 127 127 127 130 130 130 130 130 130 130 130 129 130 133 134 135 134 132 131 138 136 133 129 128 128 130 131 115 117 113 101 122 118 126 136 127 127 127 127 127 127 127 127 127 127 127 127 127 127 127 127 127 127 126 126 126 125 125 125 126 126 126 127 127 127 128 128 132 128 129 149 164 140 162 148 153 153 153 153 154 154 155 155 156 156 156 156 156 156 156 156 156 156 156 156 156 156 156 156 157 157 157 157 157 157 157 157 159 159 158 158 157 156 155 155 155 155 154 154 153 153 153 153 154 154 154 155 155 155 156 156 153 153 153 153 153 153 153 153 154 154 154 154 155 155 155 156 157 157 157 157 157 157 157 157 159 158 158 158 157 157 157 156 155 156 157 158 159 160 161 161 161 161 161 161 161 161 161 161 155 158 158 162 161 165 80 72 72 94 107 92 75 82 88 78 75 94 87 103 99 123 98 68 71 102 93 79 80 81 87 84 83 86 87 87 93 99 95 85 81 88 96 99 98 98 100 104 90 92 94 96 99 102 104 105 116 113 108 102 96 90 86 84 111 111 114 110 108 123 95 83 87 92 
152 152 153 154 155 156 157 158 152 152 153 154 156 157 158 159 158 153 155 161 149 156 152 93 120 122 126 130 132 132 131 130 130 130 129 128 128 127 126 126 125 125 125 126 126 126 127 127 127 127 127 127 127 127 127 127 130 130 130 130 130 130 130 130 125 128 131 133 134 132 129 127 136 134 131 129 129 131 133 135 130 131 127 113 130 122 126 133 128 128 128 128 128 128 128 128 128 128 128 128 128 128 128 128 127 127 126 126 126 125 125 125 126 126 126 127 127 127 128 128 134 128 131 133 159 148 156 155 154 154 154 155 155 155 156 156 157 157 157 157 157 157 157 157 157 157 157 157 157 157 157 157 158 158 158 158 158 158 158 158 158 157 157 156 155 155 154 154 156 156 155 155 155 154 154 154 155 155 155 156 156 156 157 157 154 154 154 154 154 154 154 154 154 154 154 155 155 155 156 156 156 156 156 156 156 156 156 156 158 158 157 157 156 156 156 156 154 154 155 156 157 159 159 160 160 160 160 160 160 160 160 160 155 162 155 161 151 161 94 67 88 107 104 83 72 74 79 84 85 125 121 94 119 131 87 51 75 107 102 96 102 98 92 77 83 89 89 85 90 98 93 80 85 91 98 100 97 95 97 100 93 94 96 99 102 104 106 107 97 103 111 116 115 107 98 91 94 95 123 120 105 124 91 108 91 85 
149 148 148 147 146 145 145 144 143 144 145 146 147 148 149 150 154 148 152 158 145 153 148 84 120 122 126 130 132 132 131 130 130 130 129 128 128 127 126 126 125 125 125 126 126 126 127 127 127 127 127 127 127 127 127 127 130 130 130 130 130 130 130 130 123 126 130 132 133 131 127 125 133 132 130 129 130 133 136 138 122 123 120 111 133 128 129 133 128 128 128 128 128 128 128 128 128 128 128 128 128 128 128 128 127 127 126 126 126 125 125 125 126 126 126 127 127 127 128 128 134 132 127 132 143 167 141 163 154 154 155 155 155 156 156 156 158 158 158 158 158 158 158 158 158 158 158 158 158 158 158 158 159 159 159 159 159 159 159 159 156 156 156 155 154 153 153 152 156 156 156 155 155 155 154 154 155 156 156 156 157 157 157 157 154 154 154 154 154 154 154 154 154 154 155 155 155 156 156 156 155 155 155 155 155 155 155 155 157 157 156 156 156 155 155 155 152 153 154 155 156 157 158 159 159 159 159 159 159 159 159 159 155 165 153 160 145 157 104 64 115 110 83 69 81 83 74 76 101 112 95 64 137 115 66 60 77 105 95 89 98 97 89 73 88 94 93 86 89 97 91 76 91 96 101 101 96 92 92 94 98 98 99 101 103 104 105 106 106 108 111 111 108 101 94 89 87 72 107 110 99 120 74 102 87 65 
141 141 142 143 144 145 146 147 150 151 151 152 153 154 154 155 152 155 157 156 144 153 158 76 117 119 123 127 130 131 130 129 130 130 130 129 129 129 128 128 129 129 129 128 128 128 127 127 128 128 129 129 130 130 130 130 127 128 129 130 131 132 133 133 130 130 130 130 130 130 130 130 129 130 130 131 132 132 133 133 135 133 131 129 128 129 132 133 129 129 129 129 129 129 129 129 126 126 126 127 127 128 128 128 130 130 130 130 130 130 130 130 127 127 127 128 128 128 129 129 125 137 135 128 133 164 139 153 149 149 150 151 151 152 153 153 151 151 151 151 151 151 151 151 149 149 149 150 150 150 151 151 149 149 149 149 149 149 149 149 154 154 154 153 153 153 152 152 147 147 147 146 146 146 145 145 146 146 146 146 146 146 146 146 152 152 152 152 152 152 152 152 148 148 148 149 149 149 150 150 152 152 152 153 153 154 154 154 161 160 160 159 158 157 157 156 154 153 152 151 150 149 148 147 155 155 155 155 155 155 155 155 150 158 159 149 143 165 112 84 106 95 87 84 78 72 78 90 125 76 83 69 75 95 102 62 99 98 97 95 93 91 90 89 79 93 102 96 83 99 83 83 86 99 97 93 98 93 89 100 108 95 92 101 106 100 96 99 108 107 106 104 102 100 99 99 99 83 104 107 114 104 108 80 97 97 
146 146 147 148 149 150 151 152 147 147 147 148 149 150 150 151 152 155 157 156 145 153 152 80 117 119 123 127 130 131 130 129 130 130 130 129 129 129 128 128 129 129 128 128 128 127 127 127 128 128 128 129 129 130 130 130 127 128 128 130 131 132 133 133 130 130 130 130 130 130 130 130 129 130 130 131 132 133 133 134 135 134 131 129 128 130 132 133 131 131 131 131 131 131 131 131 128 128 128 129 129 130 130 130 130 130 130 130 130 130 130 130 127 127 128 128 128 129 129 129 126 135 135 130 135 155 147 151 146 147 147 148 149 150 150 150 152 152 152 152 152 152 152 152 155 155 155 156 156 156 157 157 157 157 157 157 157 157 157 157 152 152 151 151 151 150 150 150 152 151 151 151 150 150 150 149 150 150 150 150 150 150 150 150 154 154 154 154 154 154 154 154 158 158 159 159 159 160 160 160 161 161 161 161 162 162 162 163 160 160 159 159 158 157 156 156 162 162 163 164 164 165 166 166 158 158 158 158 158 158 158 158 161 164 155 149 160 168 126 99 88 90 87 78 73 79 93 104 101 88 85 98 71 105 82 64 100 99 97 95 93 91 90 89 78 91 102 99 85 99 82 82 86 98 96 92 97 93 89 101 101 101 103 103 97 92 97 106 95 100 105 110 110 107 102 98 118 93 92 95 104 110 114 93 100 100 
142 142 143 144 146 147 148 148 148 149 149 150 151 152 152 153 151 154 156 156 145 154 141 88 117 119 123 127 130 131 130 129 130 130 130 129 129 129 128 128 129 128 128 128 127 127 127 127 127 127 128 128 128 129 129 129 127 127 128 129 130 132 132 133 131 131 131 131 131 131 131 131 130 130 131 131 132 133 134 134 136 134 131 129 129 130 132 134 134 134 134 134 134 134 134 134 131 131 131 132 132 133 133 133 131 131 131 131 131 131 131 131 127 128 128 128 129 129 129 129 129 132 134 132 136 141 159 149 155 155 156 157 157 158 159 159 153 153 153 153 153 153 153 153 156 156 157 157 157 158 158 158 161 161 161 161 161 161 161 161 163 163 163 162 162 161 161 161 158 158 157 157 156 156 156 156 156 156 156 156 156 156 156 156 156 156 156 156 156 156 156 156 163 164 164 164 165 165 165 166 163 163 163 164 164 164 165 165 160 159 159 158 157 156 156 155 151 152 154 156 159 161 163 164 167 167 167 167 167 167 167 167 166 173 162 163 182 151 110 77 81 77 68 65 82 106 111 101 82 87 110 101 98 94 75 61 100 100 98 96 94 92 91 90 77 89 102 102 89 99 80 80 86 98 95 91 96 92 90 103 102 107 106 97 91 94 101 104 94 97 101 105 108 109 108 107 107 102 103 110 100 109 112 108 90 90 
152 152 153 154 155 157 157 158 155 155 156 156 157 158 158 159 151 153 156 157 148 155 127 97 117 119 123 127 130 131 130 129 130 130 130 129 129 129 128 128 128 128 128 127 127 127 126 126 126 126 127 127 128 128 128 128 126 127 128 129 130 131 132 132 131 131 131 131 131 131 131 131 130 130 131 132 133 133 134 134 136 134 132 130 129 130 133 134 137 137 137 137 137 137 137 137 133 133 134 134 134 135 135 135 131 131 131 131 131 131 131 131 128 128 128 129 129 129 130 130 131 129 133 133 137 129 166 149 158 158 158 159 160 161 161 162 155 155 155 155 155 155 155 155 153 153 153 153 154 154 155 155 159 159 159 159 159 159 159 159 171 171 170 170 169 169 169 169 163 162 162 162 161 161 161 161 161 161 161 161 161 161 161 161 158 158 158 158 158 158 158 158 159 159 159 159 160 160 160 161 156 156 156 157 157 157 158 158 159 158 158 157 156 155 155 155 151 151 152 154 155 157 158 158 164 164 164 164 164 164 164 164 157 170 162 165 178 116 85 59 76 66 59 70 98 118 112 93 79 92 120 97 115 92 72 60 101 100 99 97 95 93 92 91 77 87 100 105 92 98 77 81 85 96 93 88 94 92 92 106 110 110 100 90 93 105 104 94 107 103 97 94 96 104 113 119 95 108 111 124 104 112 109 116 95 95 
147 147 148 149 150 151 152 153 154 154 155 155 156 157 158 158 150 152 155 157 150 156 111 108 117 119 123 127 130 131 130 129 130 130 130 129 129 129 128 128 128 128 127 127 126 126 126 126 125 126 126 126 127 127 127 127 126 126 127 128 129 131 132 132 132 132 132 132 132 132 132 132 131 131 132 132 133 134 135 135 137 135 132 130 130 131 133 135 137 137 137 137 137 137 137 137 134 134 134 135 135 135 136 136 132 132 132 132 132 132 132 132 128 128 129 129 130 130 130 130 132 128 132 134 135 124 164 154 148 149 149 150 151 152 152 152 157 157 157 157 157 157 157 157 155 155 155 155 156 156 156 157 161 161 161 161 161 161 161 161 165 165 165 164 164 163 163 163 164 164 164 163 163 162 162 162 162 162 162 162 162 162 162 162 158 158 158 158 158 158 158 158 155 155 155 156 156 156 157 157 151 152 152 152 153 153 153 154 159 158 158 157 156 155 155 155 152 151 151 150 150 149 148 147 152 152 152 152 152 152 152 152 146 158 156 153 148 87 82 75 66 65 73 92 104 103 96 93 88 108 101 106 102 112 64 64 102 101 100 98 96 94 93 92 81 86 98 105 92 95 76 85 85 95 90 86 92 92 94 109 111 111 103 92 95 105 102 91 112 107 100 95 96 102 110 116 105 110 101 115 112 124 112 115 99 99 
131 132 132 134 135 136 137 137 146 146 147 147 148 149 150 150 150 151 154 157 153 157 97 117 117 119 123 127 130 131 130 129 130 130 130 129 129 129 128 128 127 127 127 126 126 126 125 125 124 125 125 125 126 126 126 127 125 126 127 128 129 130 131 132 132 132 132 132 132 132 132 132 131 131 132 133 134 134 135 135 137 135 133 130 130 131 134 135 136 136 136 136 136 136 136 136 132 132 133 133 134 134 134 134 132 132 132 132 132 132 132 132 129 129 129 130 130 130 131 131 132 129 132 134 132 126 153 163 151 151 152 153 153 154 155 155 159 159 159 159 159 159 159 159 162 162 162 162 163 163 164 164 166 166 166 166 166 166 166 166 165 165 165 165 164 164 164 163 162 162 161 161 161 160 160 160 159 159 159 159 159 159 159 159 156 156 156 156 156 156 156 156 157 157 157 158 158 158 159 159 155 155 155 156 156 156 157 157 158 158 157 156 155 155 154 154 150 150 149 147 146 144 143 141 155 155 155 155 155 155 155 155 148 154 163 155 122 75 73 75 71 71 83 101 104 92 84 86 105 109 101 94 107 111 73 64 103 102 101 99 97 95 93 93 87 86 94 103 89 92 76 90 84 94 88 83 91 92 96 112 103 111 112 105 97 95 96 96 100 102 105 108 108 107 105 104 96 107 105 115 123 125 111 113 101 101 
138 139 139 141 142 143 144 144 142 143 143 144 145 146 146 147 149 150 154 157 154 158 86 125 117 119 123 127 130 131 130 129 130 130 130 129 129 129 128 128 127 127 126 126 126 125 125 125 124 124 124 125 125 125 126 126 125 125 126 127 129 130 131 131 132 132 132 132 132 132 132 132 131 132 132 133 134 135 135 136 138 136 133 131 130 132 134 135 133 133 133 133 133 133 133 133 130 130 131 131 131 132 132 132 132 132 132 132 132 132 132 132 129 129 130 130 130 131 131 131 131 130 131 133 128 133 139 172 160 160 160 161 162 163 163 164 160 160 160 160 160 160 160 160 163 163 163 164 164 165 165 165 165 165 165 165 165 165 165 165 166 166 166 166 165 165 164 164 158 158 157 157 156 156 156 156 155 155 155 155 155 155 155 155 154 154 154 154 154 154 154 154 157 157 157 158 158 159 159 159 157 157 158 158 158 159 159 159 157 157 156 155 155 154 153 153 155 155 156 156 156 156 156 155 159 159 159 159 159 159 159 159 157 150 165 154 96 73 64 64 77 83 91 95 92 85 83 84 113 103 113 85 116 101 83 63 104 103 102 100 98 96 94 93 93 87 91 99 86 89 77 97 84 93 87 82 90 92 97 114 103 107 112 114 105 93 90 93 92 97 104 111 113 112 109 106 90 104 110 110 129 119 110 113 117 116 
139 139 140 141 143 144 145 145 146 146 146 147 148 149 149 150 149 150 154 157 155 158 80 128 117 119 123 127 130 131 130 129 130 130 130 129 129 129 128 128 127 127 126 126 125 125 125 125 123 124 124 124 125 125 125 125 125 125 126 127 129 130 131 131 133 133 133 133 133 133 133 133 132 132 133 133 134 135 135 136 138 136 133 131 131 132 134 136 132 132 132 132 132 132 132 132 128 129 129 129 130 130 130 131 133 133 133 133 133 133 133 133 129 129 130 130 131 131 131 132 130 132 131 132 125 138 129 178 157 157 158 159 159 160 161 161 161 161 161 161 161 161 161 161 158 159 159 159 160 160 160 161 159 159 159 159 159 159 159 159 157 157 156 156 155 155 155 155 155 154 154 154 153 153 153 153 151 151 151 151 151 151 151 151 152 152 152 152 152 152 152 152 153 153 154 154 155 155 155 155 155 155 156 156 156 157 157 157 156 155 155 154 153 153 152 152 141 142 143 145 147 149 151 152 148 148 148 148 148 148 148 148 160 136 148 134 69 77 73 76 68 95 110 94 71 69 85 99 110 111 105 106 99 112 77 66 104 103 102 100 98 96 95 94 97 88 89 96 83 87 78 101 83 92 86 81 89 92 97 115 111 102 103 114 116 101 87 84 93 95 98 103 108 113 117 119 112 104 93 84 126 122 118 116 116 116 
134 135 136 137 138 139 140 140 145 145 146 146 146 147 147 147 145 149 143 144 155 157 71 124 126 95 135 133 125 126 139 129 128 128 127 127 127 126 126 126 128 128 127 127 127 126 126 126 127 127 126 126 126 125 125 125 126 126 126 127 127 127 128 128 129 129 130 130 130 131 131 131 129 130 130 131 132 132 133 133 135 133 131 129 128 130 132 133 131 131 131 131 131 131 131 131 133 133 133 133 133 133 133 133 133 133 133 133 132 132 132 131 130 131 131 132 133 134 134 135 132 133 133 133 134 134 134 135 165 144 146 155 146 143 150 147 147 148 148 148 149 150 149 150 157 157 157 157 157 157 157 157 153 153 153 153 154 154 154 155 160 160 160 159 159 158 158 158 149 148 148 147 146 145 145 145 142 143 142 142 142 141 141 141 145 145 146 146 146 147 147 147 150 150 149 150 149 150 149 150 146 147 146 147 146 147 146 146 154 154 152 151 149 148 146 146 140 142 146 149 150 148 144 142 147 147 147 148 148 149 149 149 145 156 143 92 69 70 77 84 116 108 104 79 81 82 75 119 86 106 104 111 93 103 68 83 102 99 97 97 100 102 102 101 99 92 96 81 90 78 87 84 98 82 71 73 78 85 101 118 108 107 106 106 109 114 119 122 88 86 86 91 100 108 112 113 104 116 122 116 111 113 112 107 116 115 
138 139 140 141 142 143 144 145 147 147 148 148 148 149 149 149 149 153 147 147 156 158 76 119 129 97 131 135 127 123 135 129 128 128 128 127 127 126 126 126 128 128 127 127 127 126 126 126 127 127 126 126 126 125 125 125 126 126 126 127 127 127 128 128 129 129 130 130 130 131 131 131 129 130 130 131 132 133 133 134 135 133 131 129 128 130 132 133 131 131 131 131 131 131 131 131 133 133 133 133 133 133 133 133 134 133 133 133 132 132 132 132 130 131 131 132 133 134 134 135 133 133 133 134 134 134 135 135 153 148 151 155 148 145 148 148 145 145 145 146 146 146 148 147 150 149 149 149 149 149 149 149 155 155 155 156 156 156 157 157 154 154 153 153 153 152 152 152 147 147 146 146 145 144 144 143 149 148 147 147 147 146 146 146 148 148 148 149 149 150 150 150 147 147 147 147 147 147 147 147 146 146 146 146 146 146 146 147 146 146 145 145 144 143 143 143 135 138 141 144 144 142 139 138 143 143 144 144 144 145 145 145 146 156 118 70 75 79 82 108 111 112 87 87 81 78 106 99 97 93 89 97 110 112 77 78 103 101 99 99 100 100 99 98 98 94 93 85 87 82 86 85 84 92 85 67 68 89 103 103 100 103 109 113 115 113 110 108 107 98 91 93 101 104 99 92 101 96 87 86 102 123 127 120 109 106 
145 145 146 147 148 149 150 151 150 151 151 151 152 152 152 153 154 159 152 151 157 158 86 109 133 99 123 137 131 120 128 130 128 128 128 128 127 127 126 126 128 128 127 127 127 126 126 126 127 127 126 126 126 125 125 125 126 126 126 127 127 127 128 128 129 129 130 130 130 131 131 131 130 130 131 131 132 133 134 134 135 133 131 129 128 130 132 133 131 131 131 131 131 131 131 131 133 133 133 133 133 133 133 133 134 134 134 133 133 132 132 132 130 131 131 132 133 134 134 135 133 133 133 134 134 135 135 136 136 152 159 154 152 148 145 149 143 144 144 145 145 145 146 146 152 152 152 152 152 152 152 152 146 146 147 147 147 148 148 148 148 148 147 147 147 146 146 146 146 146 145 144 143 143 142 142 142 141 141 141 140 140 140 140 138 139 139 139 140 140 140 141 145 145 145 145 145 145 145 145 146 146 146 146 146 146 146 146 142 142 143 143 144 145 145 145 137 139 141 143 143 142 140 139 145 145 145 146 146 147 147 147 142 155 101 67 91 89 78 112 110 100 81 86 80 93 120 85 101 84 84 92 119 110 81 83 104 104 104 102 100 97 96 95 97 96 89 90 83 88 85 88 94 87 79 72 67 72 87 102 115 114 112 111 111 112 114 115 101 115 119 100 74 72 99 129 140 167 194 204 209 217 223 224 206 203 
149 150 151 152 153 154 155 156 153 153 154 154 154 155 155 155 158 163 157 155 158 158 100 98 134 102 114 139 134 118 122 129 129 129 128 128 128 127 127 127 128 128 127 127 127 126 126 126 127 127 126 126 126 125 125 125 126 126 126 127 127 127 128 128 129 129 130 130 130 131 131 131 130 130 131 132 133 133 134 134 135 133 131 129 128 130 132 133 131 131 131 131 131 131 131 131 133 133 133 133 133 133 133 133 134 134 134 134 133 133 132 132 130 131 131 132 133 134 134 135 133 134 134 134 135 135 135 136 122 154 163 154 156 151 145 150 147 147 147 147 148 148 149 149 144 144 144 144 144 144 144 144 145 146 146 146 147 147 147 147 148 148 147 147 147 146 146 146 145 145 144 144 143 142 142 141 148 148 148 147 147 146 146 146 142 142 143 143 143 144 144 144 143 143 143 143 143 143 143 143 144 144 144 144 144 144 144 144 144 144 146 147 149 150 152 152 144 145 146 147 147 147 147 146 151 151 152 152 152 153 153 153 148 154 95 75 90 87 78 108 112 80 86 78 87 117 101 88 95 88 94 104 109 94 73 97 104 107 108 106 100 95 93 93 95 97 86 94 81 92 86 92 104 87 77 81 82 82 95 114 101 105 111 113 111 103 94 88 85 83 95 131 175 203 204 194 222 218 206 196 202 218 226 224 217 216 
151 151 152 153 155 156 157 157 154 154 155 155 155 156 156 156 157 164 158 157 157 157 115 86 130 105 106 137 136 121 121 129 129 129 129 128 128 128 127 127 128 128 127 127 127 126 126 126 127 127 126 126 126 125 125 125 126 126 126 127 127 127 128 128 129 129 130 130 130 131 131 131 131 131 132 132 133 134 135 135 135 133 131 129 128 130 132 133 131 131 131 131 131 131 131 131 133 133 133 133 133 133 133 133 135 135 134 134 134 133 133 133 130 131 131 132 133 134 134 135 134 134 134 135 135 136 136 136 116 150 162 155 158 154 147 152 152 152 153 153 154 154 154 154 160 160 160 160 160 160 160 160 159 159 159 159 160 160 161 161 154 154 154 153 153 152 152 152 147 147 146 145 144 144 143 143 149 149 149 148 148 147 147 147 142 142 143 143 143 144 144 144 143 143 143 143 143 143 143 143 143 143 143 143 143 143 143 143 143 143 145 146 148 149 151 151 146 146 146 146 146 147 148 149 150 150 151 151 151 152 152 152 156 148 90 79 71 81 96 115 103 81 79 78 105 116 85 94 94 99 99 114 95 87 64 101 101 107 112 109 101 94 92 94 94 97 86 95 82 94 88 94 92 98 96 89 96 111 111 99 113 104 92 85 90 104 122 135 181 197 214 218 212 207 210 216 204 205 201 197 205 220 224 219 222 221 
149 149 150 151 152 154 154 155 153 153 154 154 154 155 155 155 151 161 156 156 155 157 129 75 122 108 98 132 135 127 125 129 130 130 129 129 128 128 128 128 128 128 127 127 127 126 126 126 127 127 126 126 126 125 125 125 126 126 126 127 127 127 128 128 129 129 130 130 130 131 131 131 131 131 132 133 134 134 135 135 135 133 131 129 128 130 132 133 131 131 131 131 131 131 131 131 133 133 133 133 133 133 133 133 135 135 135 135 134 134 133 133 130 131 131 132 133 134 134 135 134 135 135 135 136 136 136 136 121 142 155 157 159 156 152 154 155 156 156 156 157 157 157 158 156 156 156 156 156 156 156 156 161 162 162 162 163 163 163 163 161 161 161 160 160 160 159 159 150 150 149 148 147 147 146 146 143 144 144 144 143 143 142 142 138 139 139 139 140 140 140 141 144 144 144 144 144 144 144 144 142 142 142 142 142 142 142 142 139 139 140 141 141 142 142 143 143 142 140 139 140 141 144 145 142 142 143 143 143 144 144 144 141 139 84 86 73 92 108 112 86 97 70 90 116 94 90 91 99 105 95 111 91 94 64 95 95 105 113 112 102 94 94 97 94 94 89 92 87 93 93 96 92 96 100 100 98 94 85 76 80 97 126 158 186 205 215 218 225 214 200 194 196 201 203 202 204 220 227 214 195 182 174 168 144 141 
145 145 146 147 148 149 150 151 151 152 152 152 153 153 153 153 145 156 152 153 153 156 140 68 113 111 93 127 134 134 131 129 130 130 130 129 129 128 128 128 128 128 127 127 127 126 126 126 127 127 126 126 126 125 125 125 126 126 126 127 127 127 128 128 129 129 130 130 130 131 131 131 131 132 132 133 134 135 135 136 135 133 131 129 128 130 132 133 131 131 131 131 131 131 131 131 133 133 133 133 133 133 133 133 136 136 135 135 134 134 134 134 130 131 131 132 133 134 134 135 135 135 135 136 136 136 137 137 131 131 145 159 158 156 158 156 154 154 155 155 155 156 156 156 164 164 164 164 164 164 164 164 158 158 158 159 159 160 160 160 166 165 165 165 164 164 164 163 154 153 153 152 151 150 150 149 152 152 151 151 151 150 150 150 148 148 148 149 149 150 150 150 145 145 145 145 145 145 145 145 140 140 140 140 140 140 140 140 142 142 141 141 140 139 139 138 145 143 140 138 139 141 145 147 139 139 139 140 140 141 141 141 130 147 80 85 89 107 102 96 77 95 85 102 104 87 94 85 96 102 97 99 93 98 75 94 90 102 114 114 104 96 97 101 95 91 93 87 93 91 97 97 98 92 95 100 93 84 101 129 201 204 209 214 216 216 213 212 213 205 200 205 212 210 195 181 152 132 101 79 83 102 112 110 117 114 
141 142 143 144 145 146 147 148 150 150 150 151 151 152 152 152 140 151 150 152 151 155 147 64 106 112 91 124 133 139 134 130 130 130 130 129 129 129 128 128 128 128 127 127 127 126 126 126 127 127 126 126 126 125 125 125 126 126 126 127 127 127 128 128 129 129 130 130 130 131 131 131 132 132 133 133 134 135 135 136 135 133 131 129 128 130 132 133 131 131 131 131 131 131 131 131 133 133 133 133 133 133 133 133 136 136 135 135 135 134 134 134 130 131 131 132 133 134 134 135 135 135 135 136 136 137 137 137 138 125 139 160 158 157 162 157 152 152 152 152 153 153 153 154 159 159 159 159 159 159 159 159 164 164 164 165 165 165 166 166 167 166 166 166 165 165 165 165 156 156 155 154 153 153 152 152 147 147 146 146 145 145 145 145 144 144 145 145 145 146 146 146 147 147 147 147 147 147 147 147 139 139 139 139 139 139 139 139 149 149 147 146 144 143 141 141 151 148 145 143 144 146 150 153 142 142 143 143 143 144 144 144 143 169 75 68 91 111 90 88 78 76 114 105 84 97 89 83 87 97 105 92 95 94 84 100 86 100 114 114 104 97 98 104 95 89 96 84 97 88 100 98 88 102 104 88 87 125 184 226 214 211 206 203 204 208 213 217 221 222 213 183 141 104 84 78 88 99 102 95 91 95 96 93 113 112 
145 146 147 148 149 150 151 152 148 148 148 148 148 148 148 148 147 156 149 151 149 155 151 97 72 115 94 113 134 132 143 129 130 130 130 129 129 129 128 128 128 127 127 126 125 124 124 124 126 126 126 127 127 127 128 128 127 127 127 127 127 127 127 127 130 128 126 125 125 127 130 132 132 132 133 133 134 135 136 136 134 132 130 127 127 128 130 132 129 129 130 130 131 131 131 131 132 132 133 133 134 135 135 136 134 135 136 136 135 131 128 125 128 128 128 128 129 129 129 129 133 133 134 134 135 136 137 137 145 122 126 160 174 157 155 172 153 152 152 152 152 152 152 152 158 158 159 159 160 161 162 162 162 163 163 163 164 164 164 165 163 163 164 164 164 165 165 165 159 157 154 151 150 150 152 153 152 152 151 150 149 149 148 148 144 144 144 144 144 144 144 144 148 148 148 148 148 148 148 148 142 141 141 140 139 138 138 138 139 139 139 139 139 139 139 139 150 149 148 146 145 143 142 141 146 146 146 146 146 146 146 146 140 192 90 85 89 110 85 71 82 86 96 88 83 103 70 101 88 97 97 88 89 98 98 89 89 95 101 101 98 95 96 98 103 95 85 88 101 101 94 93 101 66 68 93 199 215 201 206 200 217 222 213 212 217 202 176 147 123 96 88 95 101 95 86 87 79 80 95 117 143 177 204 229 229 
147 148 149 150 151 152 153 153 160 160 160 160 160 160 160 160 150 160 153 155 155 156 153 118 74 108 91 108 131 131 142 130 130 130 130 129 129 129 128 128 128 128 127 126 125 125 124 124 126 126 126 127 127 128 128 128 127 127 127 127 127 127 127 127 130 128 126 125 125 127 130 132 131 132 132 133 134 135 135 136 134 132 130 128 127 129 131 132 129 129 130 130 130 131 131 131 131 132 132 133 134 135 135 136 134 135 136 136 135 131 128 125 128 129 129 129 130 130 131 131 133 133 134 134 135 136 137 137 139 124 131 159 169 154 147 156 157 156 156 157 157 156 156 156 162 162 162 163 164 165 165 166 166 166 166 166 167 167 167 168 163 163 163 164 164 164 165 165 163 161 157 154 153 154 155 157 156 155 155 154 153 152 152 151 153 153 153 153 153 153 153 153 151 151 151 151 151 151 151 151 146 145 145 144 143 142 142 141 148 148 148 148 148 148 148 148 153 152 151 150 148 147 146 145 146 146 146 146 146 146 146 146 146 193 128 75 104 99 87 67 83 92 90 93 83 92 80 94 96 104 104 96 96 103 103 95 90 95 101 101 97 94 95 97 92 75 83 96 86 84 95 97 96 57 88 167 205 193 213 221 207 216 209 171 121 90 88 96 101 106 105 94 82 83 101 118 171 179 197 212 212 207 212 224 222 222 
150 150 151 152 154 155 156 156 159 159 159 159 159 159 159 159 154 164 156 158 162 154 153 148 79 98 88 100 124 128 141 131 130 130 130 129 129 129 128 128 128 128 127 127 126 125 124 124 126 126 127 127 128 128 128 128 127 127 127 127 127 127 127 127 130 128 126 125 125 127 130 132 131 131 132 132 133 134 135 135 135 133 130 128 128 129 131 133 129 129 129 130 130 130 131 131 131 131 132 133 134 134 135 135 133 134 136 136 134 131 127 125 128 129 129 130 131 132 133 134 133 133 134 134 135 136 137 137 133 129 137 154 161 151 141 141 154 155 154 154 154 154 154 154 151 151 152 153 154 154 155 155 162 162 163 163 164 164 164 164 162 162 163 163 163 164 164 164 165 163 160 157 156 156 158 159 159 158 158 157 156 155 155 154 156 156 156 156 156 156 156 156 154 154 154 154 154 154 154 154 149 149 148 147 146 146 145 145 151 151 151 151 151 151 151 151 154 153 153 152 151 150 149 148 145 145 145 145 145 145 145 145 148 200 152 78 106 90 83 72 88 95 87 98 82 82 90 88 94 98 98 92 92 96 96 90 90 96 101 101 96 93 93 95 92 108 95 84 101 101 87 93 99 80 95 169 185 186 209 199 165 115 79 93 122 121 96 75 85 100 127 159 186 203 210 211 206 204 209 217 214 205 204 210 235 235 
152 152 153 154 155 156 157 158 157 157 157 157 157 157 157 157 153 162 156 157 163 150 149 168 87 88 86 91 117 124 136 131 130 130 130 129 129 129 128 128 129 128 128 127 126 125 125 125 127 127 127 128 128 128 129 129 128 128 128 128 128 128 128 128 130 128 126 125 125 127 130 132 130 130 131 131 132 133 134 134 135 133 130 128 128 129 131 133 128 128 129 129 130 130 130 130 131 131 132 132 133 134 135 135 133 134 135 135 134 130 127 125 127 127 129 130 132 133 135 135 133 133 134 134 135 136 137 137 132 134 140 146 150 150 147 145 148 149 149 149 148 148 148 148 155 155 156 156 157 158 159 159 154 154 155 155 156 156 156 156 161 161 162 162 162 163 163 163 164 162 159 156 154 155 157 158 158 157 157 156 155 154 154 153 150 150 150 150 150 150 150 150 153 153 153 153 153 153 153 153 148 148 147 147 146 145 144 144 145 145 145 145 145 145 145 145 150 150 150 149 149 149 148 148 144 144 144 144 144 144 144 144 144 204 131 97 90 84 80 89 94 88 93 96 78 82 92 87 94 96 95 92 90 91 90 88 91 96 101 100 95 91 91 93 106 91 98 93 72 85 100 80 111 114 123 164 206 184 128 85 77 82 95 101 91 90 129 177 180 196 215 225 222 212 203 198 217 197 185 193 208 214 216 217 228 228 
152 152 153 154 155 156 157 158 160 160 160 160 160 160 160 160 151 155 154 155 158 146 144 173 102 82 87 84 111 121 132 131 130 130 130 129 129 129 128 128 129 129 128 128 127 126 125 125 127 127 128 128 128 129 129 129 128 128 128 128 128 128 128 128 130 128 126 125 125 127 130 132 129 129 130 130 131 132 133 133 136 134 131 129 128 130 132 134 128 128 128 129 129 129 130 130 130 130 131 132 133 133 134 134 132 133 135 135 133 130 126 124 123 125 126 128 130 132 134 135 133 133 134 134 135 136 137 137 135 139 139 136 140 150 158 160 149 149 149 149 149 149 150 149 155 155 156 156 157 158 159 159 153 154 154 154 155 155 155 155 160 160 161 161 161 162 162 162 160 158 155 152 151 151 153 154 154 154 153 153 152 151 150 150 146 146 146 146 146 146 146 146 150 150 150 150 150 150 150 150 146 145 145 144 143 142 142 141 142 142 142 142 142 142 142 142 144 144 145 145 145 146 146 146 143 143 143 143 143 143 143 143 139 186 97 104 80 73 88 106 98 77 102 88 75 89 87 94 105 102 101 101 99 95 94 95 92 97 101 100 94 89 88 90 87 103 87 73 84 87 111 165 201 155 155 115 112 83 71 98 92 89 102 141 184 208 210 205 213 216 218 213 204 199 199 203 211 204 207 220 221 195 161 139 94 94 
150 150 151 152 154 155 156 156 153 153 153 153 153 153 153 153 152 148 155 154 153 146 143 166 120 78 92 80 107 118 128 130 130 130 130 129 129 129 128 128 130 129 129 128 127 126 126 125 128 128 128 128 129 129 130 130 129 129 129 129 129 129 129 129 130 128 126 125 125 127 130 132 128 128 129 130 130 131 132 132 136 134 131 129 129 130 132 134 127 128 128 128 129 129 129 129 130 130 131 131 132 133 134 134 132 133 134 134 133 130 126 124 118 120 121 124 127 130 132 133 133 133 134 134 135 136 137 137 139 140 138 132 133 145 159 168 157 157 157 157 157 157 157 157 151 151 152 153 154 154 155 155 160 160 160 160 161 161 161 162 159 159 160 160 161 161 161 161 159 157 153 151 149 150 151 153 153 153 152 152 151 150 150 149 151 151 151 151 151 151 151 151 149 149 149 149 149 149 149 149 145 145 144 143 143 142 141 141 146 146 146 146 146 146 146 146 141 141 142 143 144 145 145 146 142 142 142 142 142 142 142 142 137 147 84 96 86 71 102 109 95 74 103 79 78 92 86 103 106 99 97 100 97 90 88 92 93 97 101 99 93 87 86 87 86 83 89 81 86 149 209 211 205 107 132 96 88 94 90 72 150 186 221 230 221 213 212 213 199 202 207 211 212 207 198 192 158 139 117 97 76 61 61 71 94 94 
147 148 149 150 151 152 153 153 148 148 148 148 148 148 148 148 156 145 159 158 151 152 147 155 137 79 97 78 104 116 125 129 130 130 130 129 129 129 128 128 130 130 129 128 127 127 126 126 128 128 128 129 129 130 130 130 129 129 129 129 129 129 129 129 130 128 126 125 125 127 130 132 127 128 128 129 130 130 131 131 136 135 132 130 129 131 133 134 127 127 128 128 128 129 129 129 129 130 130 131 132 133 133 134 132 133 134 134 132 129 126 123 112 115 117 121 123 127 129 131 133 133 134 134 135 136 137 137 139 138 137 134 131 135 148 160 160 160 160 160 160 160 160 160 162 162 162 163 164 165 165 166 161 162 162 162 163 163 163 164 159 159 159 159 160 160 161 161 162 159 156 153 152 152 154 155 156 156 155 155 154 153 152 152 154 154 154 154 154 154 154 154 152 152 152 152 152 152 152 152 148 148 147 147 146 145 145 144 149 149 149 149 149 149 149 149 142 142 143 145 146 148 149 149 142 142 142 142 142 142 142 142 138 111 91 93 91 94 105 99 86 80 94 73 86 88 92 109 103 94 92 97 93 83 81 87 93 98 101 99 92 86 84 85 73 89 83 93 154 210 217 207 195 103 102 64 46 100 174 205 215 216 212 206 207 212 210 203 222 226 221 193 149 111 90 84 78 80 87 90 80 68 70 81 87 86 
145 146 147 148 149 150 151 152 156 156 156 156 156 156 156 156 161 144 164 162 151 158 151 148 147 80 101 78 103 115 123 128 130 130 130 129 129 129 128 128 130 130 129 129 128 127 126 126 128 128 129 129 129 130 130 130 129 129 129 129 129 129 129 129 130 128 126 125 125 127 130 132 127 127 128 129 129 130 131 131 137 135 132 130 129 131 133 134 127 127 127 128 128 128 129 129 129 130 130 131 132 132 133 133 131 132 134 134 132 129 125 123 109 111 113 117 121 124 127 129 133 133 134 134 135 136 137 137 137 136 137 138 131 127 135 148 157 157 157 157 157 157 157 157 158 158 159 159 160 161 162 162 158 158 158 158 159 159 160 160 158 158 159 159 160 160 160 160 165 163 159 157 155 156 157 159 160 160 159 158 157 157 156 156 152 152 152 152 152 152 152 152 156 156 156 156 156 156 156 156 152 152 151 151 150 149 148 148 147 147 147 147 147 147 147 147 144 145 146 148 150 151 153 153 141 141 141 141 141 141 141 141 138 92 100 100 87 124 100 89 79 88 84 72 93 82 100 111 111 101 98 104 100 88 86 94 93 98 101 98 91 85 83 84 106 77 102 181 228 218 200 198 183 84 58 129 196 211 194 197 202 203 207 213 217 215 206 196 168 136 98 80 85 95 96 92 83 81 86 94 92 82 78 82 87 87 
144 145 147 149 151 153 154 155 152 152 152 153 153 153 154 154 155 154 154 154 153 153 153 153 157 69 87 90 87 111 113 130 131 131 130 128 128 129 130 131 122 124 127 130 132 133 133 133 127 127 126 125 125 124 123 123 129 123 130 135 121 123 137 125 127 126 123 122 122 123 126 127 128 128 129 129 130 130 131 130 132 132 131 131 131 131 131 131 130 130 130 129 129 129 128 128 127 128 129 130 131 132 133 133 138 142 138 130 129 130 117 98 75 98 108 133 117 125 124 127 141 150 143 129 129 141 144 132 130 130 129 129 130 132 133 134 165 166 149 148 153 166 164 143 159 160 161 163 165 167 169 170 162 162 163 163 164 165 166 166 165 165 165 165 165 165 165 165 167 165 162 160 159 160 162 163 162 161 159 157 155 153 152 151 149 149 150 150 151 151 151 151 153 153 153 153 153 153 153 153 146 146 146 146 146 146 146 146 147 147 147 147 147 147 147 147 145 145 145 146 146 147 147 147 149 153 148 136 134 142 144 138 142 104 82 77 88 95 93 104 72 104 74 80 95 89 112 101 98 108 108 98 94 96 89 76 84 90 99 105 88 78 100 100 78 110 186 212 211 195 206 206 174 129 170 193 187 195 184 191 198 205 210 201 174 135 99 77 79 87 94 95 92 93 100 107 106 93 83 83 91 92 81 69 81 81 
133 135 139 144 149 155 158 161 152 152 152 152 153 153 154 154 153 153 154 152 152 151 151 151 157 81 83 89 86 104 115 130 130 130 130 128 128 129 129 130 127 127 128 129 129 130 130 130 126 127 128 130 131 133 134 134 139 127 131 136 119 113 127 128 115 115 116 116 121 125 131 133 125 125 127 127 129 129 131 131 134 134 133 132 131 130 129 129 130 130 130 129 129 128 128 128 127 128 128 130 131 132 133 133 122 134 144 144 135 121 103 88 87 88 93 111 109 114 122 135 135 118 122 136 144 138 127 131 138 150 167 178 174 158 136 121 124 168 167 137 155 160 146 150 151 150 152 154 156 157 159 159 157 158 158 159 160 161 161 162 161 161 161 161 161 161 161 161 155 153 150 148 147 148 150 151 150 150 150 150 150 150 150 150 150 150 150 150 151 151 152 152 152 152 152 152 152 152 152 152 143 143 143 143 143 143 143 143 145 145 145 145 145 145 145 145 147 147 148 148 149 149 149 149 155 157 154 145 139 140 143 143 147 92 84 83 84 102 96 89 82 98 80 85 92 88 104 97 99 107 105 95 91 94 89 79 74 107 96 90 106 88 98 87 86 170 218 200 184 204 209 204 167 147 176 178 162 174 186 205 183 147 103 80 82 90 89 82 86 92 98 98 96 97 103 109 105 99 94 92 93 91 86 80 78 78 
142 143 145 147 149 151 153 153 151 151 152 152 153 153 153 153 153 153 153 152 152 151 151 151 156 100 76 88 84 95 118 129 129 128 129 129 129 129 128 128 146 141 134 127 124 124 126 128 134 133 132 131 129 128 127 127 127 121 130 134 127 127 124 113 122 121 119 118 118 121 124 126 124 125 126 128 130 132 134 135 134 134 133 132 130 129 128 128 130 130 129 129 129 129 129 128 127 127 128 129 130 132 132 133 119 127 133 132 126 122 125 129 173 135 100 84 111 128 134 129 131 127 140 128 125 141 149 173 180 177 171 165 161 159 159 159 111 134 171 144 158 152 143 148 147 147 148 149 151 152 153 153 153 153 154 155 156 156 157 157 157 157 157 157 157 157 157 157 160 158 155 152 151 152 154 155 150 151 152 153 155 157 158 158 150 150 151 151 152 152 152 152 150 150 150 150 150 150 150 150 142 142 142 142 142 142 142 142 146 146 146 146 146 146 146 146 151 151 151 152 152 153 153 153 160 160 159 156 146 139 143 152 143 77 86 86 83 110 96 78 93 86 86 91 88 88 95 95 102 104 100 91 87 90 89 84 85 94 96 102 98 93 117 69 148 206 210 203 192 205 194 203 158 156 165 174 186 185 141 88 79 78 81 91 101 102 92 82 88 92 96 97 95 96 100 104 104 105 105 101 95 91 91 92 91 91 
151 151 151 151 151 151 151 151 151 151 151 152 152 152 153 153 156 156 156 155 155 155 154 154 155 122 72 87 84 86 118 127 126 127 129 130 130 129 127 126 130 131 132 133 134 135 135 135 133 132 132 131 130 129 128 128 121 121 127 121 133 151 134 108 126 124 121 119 118 119 121 122 124 125 127 129 132 134 136 137 129 129 130 130 131 131 132 132 129 129 129 128 128 128 127 127 126 127 128 129 130 131 132 132 133 134 126 115 118 136 156 167 186 175 153 93 97 106 124 133 139 125 133 132 158 190 171 164 167 166 163 161 160 160 161 161 141 86 155 162 158 149 158 142 153 152 153 153 154 155 155 156 152 153 153 154 155 156 156 156 157 157 157 157 157 157 157 157 167 165 162 159 158 159 161 162 155 155 155 156 157 158 158 158 151 151 152 152 152 153 153 153 149 149 149 149 149 149 149 149 145 145 145 145 145 145 145 145 151 151 151 151 151 151 151 151 154 154 155 155 155 156 156 156 159 157 160 163 154 143 148 162 118 73 87 82 89 115 91 84 96 72 90 95 87 92 91 98 103 101 95 88 85 87 89 88 99 88 92 109 91 97 108 98 203 206 195 212 208 198 188 187 145 151 165 179 139 73 65 94 83 95 108 110 103 99 103 110 87 89 90 90 90 90 91 93 102 104 104 100 96 93 93 94 91 91 
141 142 144 147 150 153 156 157 150 150 151 151 152 152 152 152 160 160 159 159 159 158 158 158 152 141 72 88 84 82 113 124 124 126 129 132 132 129 126 124 124 129 135 139 137 131 122 116 121 122 126 131 136 141 145 147 137 126 125 113 121 133 118 119 112 111 111 112 116 120 125 128 121 122 123 124 126 128 129 130 123 124 126 129 131 134 136 137 129 129 128 129 128 127 127 127 126 126 127 128 129 131 132 132 137 140 132 120 127 149 158 151 161 163 169 130 137 124 119 134 137 113 126 146 171 183 169 176 148 155 166 173 173 164 153 145 159 85 148 159 158 154 165 146 156 155 155 155 155 155 155 155 154 154 154 155 156 157 157 158 160 160 160 160 160 160 160 160 159 157 154 151 150 151 153 154 153 152 151 150 148 147 146 145 152 152 153 153 153 154 154 154 150 150 150 150 150 150 150 150 151 151 151 151 151 151 151 151 156 156 156 156 156 156 156 156 156 156 156 156 157 157 157 158 153 151 155 162 158 149 152 164 85 79 86 74 96 112 84 99 89 63 89 94 88 98 92 102 101 95 90 87 85 84 86 90 97 107 83 93 102 99 73 168 205 201 208 207 197 198 207 148 136 154 124 77 66 89 95 66 94 92 89 87 89 96 105 111 94 93 91 91 92 92 90 89 100 98 95 94 95 94 91 88 94 94 
143 143 144 145 146 147 148 148 150 150 150 151 151 152 152 152 160 159 159 159 158 158 158 157 148 153 77 89 86 83 103 120 122 125 130 133 133 130 125 122 133 130 127 124 124 126 129 131 164 165 168 171 175 178 180 182 178 160 166 161 154 134 109 139 116 115 114 114 115 119 122 125 123 123 123 123 123 123 123 123 123 124 126 128 131 133 135 136 128 128 128 128 127 127 126 126 125 126 127 128 129 130 131 132 126 128 127 129 140 154 153 144 169 145 146 150 181 159 113 127 110 135 152 152 148 159 180 193 173 170 164 159 157 157 160 161 145 127 156 142 155 156 156 154 150 149 149 148 148 147 147 147 153 153 154 154 155 156 157 157 160 160 160 160 160 160 160 160 155 153 150 148 147 148 150 151 157 156 155 152 150 148 146 145 153 153 154 154 154 155 155 155 153 153 153 153 153 153 153 153 154 154 154 154 154 154 154 154 157 157 157 157 157 157 157 157 155 155 156 156 156 157 157 157 150 148 150 155 157 153 151 152 67 88 81 69 98 105 84 102 80 68 88 90 91 101 94 102 96 89 87 90 88 83 83 89 102 100 85 98 91 93 99 207 203 190 200 200 197 203 212 115 136 97 80 85 83 74 72 79 57 64 77 92 104 107 104 99 108 104 100 99 101 100 96 92 96 93 90 90 92 92 89 87 101 101 
157 156 155 153 150 148 147 146 150 150 150 150 151 151 151 152 154 154 154 153 153 153 152 152 144 159 84 91 88 86 93 117 120 124 130 134 134 130 124 120 121 120 120 125 137 153 169 179 173 172 170 168 166 164 162 162 162 153 167 159 157 132 80 91 138 136 133 130 129 130 132 133 140 139 138 136 134 133 131 131 130 130 130 129 130 129 129 128 128 128 128 128 127 126 126 126 125 125 126 127 129 130 131 132 129 121 126 141 149 146 150 162 152 153 158 156 166 151 97 122 81 138 149 150 157 173 182 139 160 157 154 152 151 153 156 159 140 146 156 149 149 148 150 148 146 146 145 144 143 142 141 141 148 149 149 150 151 152 152 153 156 156 156 156 156 156 156 156 159 157 154 152 151 152 154 155 158 158 157 156 155 155 154 154 154 154 154 155 155 155 156 156 156 156 156 156 156 156 156 156 153 153 153 153 153 153 153 153 153 153 153 153 153 153 153 153 154 154 154 154 155 155 155 156 153 151 146 146 152 153 143 130 73 93 74 71 93 95 91 87 75 82 89 86 94 99 91 94 91 84 85 93 92 82 80 86 101 86 95 106 77 86 169 206 205 188 179 204 203 198 192 113 132 78 75 74 69 78 69 69 78 80 79 75 73 81 99 113 115 109 103 102 105 104 98 92 89 93 96 93 89 87 89 93 93 93 
160 160 161 162 163 164 165 166 149 150 150 150 151 151 151 151 149 149 149 148 148 147 147 147 141 162 88 92 89 89 86 114 120 124 130 134 134 130 124 120 133 140 151 162 169 170 169 167 174 174 172 171 169 168 166 166 165 165 167 142 160 166 97 69 148 148 147 148 150 154 158 161 160 159 156 153 150 147 145 144 138 136 134 131 128 124 122 120 128 128 127 127 127 126 126 126 125 125 126 127 129 131 131 131 148 131 138 163 160 135 137 166 150 173 174 162 178 193 117 107 70 124 126 139 137 133 160 134 129 132 136 141 145 148 150 151 155 131 145 173 143 138 152 132 148 147 146 145 143 142 141 141 144 144 145 146 147 147 148 148 152 152 152 152 152 152 152 152 158 156 153 150 149 150 152 154 146 146 147 149 150 151 152 152 154 154 155 155 155 156 156 156 158 158 158 158 158 158 158 158 150 150 150 150 150 150 150 150 148 148 148 148 148 148 148 148 152 152 153 153 153 154 154 154 158 155 146 140 147 152 136 112 86 94 69 75 86 90 100 69 74 95 91 84 95 96 88 86 88 81 84 95 95 82 78 84 82 103 99 89 92 87 202 204 187 205 187 207 191 187 176 126 121 59 71 69 59 77 67 68 51 59 66 68 67 74 88 100 114 107 100 99 102 101 94 87 85 95 103 99 87 82 90 101 98 98 
152 153 156 159 162 165 168 169 172 171 170 169 168 167 166 165 164 163 161 159 157 155 154 153 148 166 117 74 83 82 93 122 124 120 127 137 127 112 124 150 158 159 160 161 163 164 165 166 168 168 168 168 168 168 168 168 179 168 161 148 150 151 115 86 150 152 155 158 158 158 156 154 150 154 157 155 150 148 151 154 160 158 156 154 154 156 159 160 149 147 143 137 132 127 123 120 126 126 126 126 126 126 126 126 128 128 128 128 129 129 129 130 123 123 125 128 130 132 134 135 145 144 144 143 142 141 141 141 153 151 147 145 145 147 151 154 138 146 136 151 156 154 160 148 143 143 144 146 147 148 149 150 153 154 155 157 158 160 161 162 153 153 153 154 154 154 155 155 155 154 153 152 151 150 149 149 158 158 158 159 160 161 161 162 160 160 160 161 161 162 162 162 159 159 159 160 160 160 161 161 156 156 155 155 155 154 154 154 157 157 157 157 157 157 157 157 153 153 153 153 153 153 153 153 157 147 146 160 154 154 148 63 76 80 66 78 88 85 88 70 81 83 84 83 84 86 87 85 81 85 87 85 81 79 81 85 78 104 91 99 101 153 198 205 204 204 194 195 197 201 177 112 90 77 69 72 72 66 63 65 65 68 68 64 62 68 83 95 96 100 105 109 108 103 97 93 87 87 87 88 88 89 89 90 93 93 
145 146 148 150 153 155 156 157 164 164 164 164 164 163 163 163 164 163 162 161 160 159 158 158 149 162 138 82 96 90 97 118 125 126 125 124 129 141 153 160 166 166 168 169 171 173 174 174 167 167 167 167 167 167 167 167 159 157 162 146 138 142 137 143 150 153 156 159 161 161 160 159 156 160 162 160 156 154 156 160 148 147 144 143 143 145 148 150 152 151 150 148 145 143 142 141 145 145 145 145 145 145 145 145 148 147 147 147 148 148 148 149 149 150 150 149 150 150 151 151 157 156 155 155 154 153 152 152 154 152 150 148 147 148 148 149 138 141 126 159 155 156 154 156 161 161 162 163 164 165 166 166 162 161 160 158 156 154 153 152 153 153 153 154 154 155 155 155 155 154 153 152 151 150 149 149 155 155 156 157 157 158 159 159 166 165 162 159 156 153 151 150 149 149 149 150 150 151 151 151 154 154 153 153 153 152 152 152 153 153 153 153 153 153 153 153 149 149 149 149 149 149 149 149 160 150 150 163 157 158 145 69 77 78 68 83 90 80 81 69 83 81 81 85 86 84 84 87 81 85 87 85 81 79 81 85 81 92 99 78 124 167 195 200 197 198 193 197 197 194 172 114 85 72 64 66 68 65 64 68 72 73 71 65 59 60 67 75 92 97 102 107 108 104 99 96 88 88 89 89 89 90 90 90 105 105 
139 139 140 141 142 142 143 143 153 154 155 156 157 158 159 159 161 161 161 162 162 162 162 162 152 158 161 95 105 100 100 112 123 114 105 109 127 146 156 155 156 157 159 161 163 165 167 168 164 164 164 164 164 164 164 164 160 159 168 153 135 133 138 161 151 154 158 162 165 165 165 164 162 165 168 166 162 160 162 166 153 150 145 141 138 138 138 139 151 152 153 154 155 156 157 158 149 149 149 149 149 149 150 149 151 151 152 151 152 152 152 153 159 158 157 156 155 154 153 153 163 163 162 161 161 160 159 159 155 155 155 154 151 148 145 143 143 140 124 168 160 163 155 168 154 154 155 155 156 156 157 157 154 155 155 156 157 158 158 159 153 153 154 154 155 155 155 155 155 154 153 152 151 150 149 149 151 151 152 153 154 154 155 155 154 154 153 153 153 152 152 152 153 153 153 154 154 154 155 155 151 150 150 150 149 149 149 148 147 147 147 147 147 147 147 147 155 155 155 155 155 155 155 155 147 140 140 150 146 147 122 62 79 75 72 90 92 74 71 69 86 77 77 87 88 80 80 90 81 85 87 85 81 79 81 85 85 87 82 100 161 172 194 198 190 194 192 197 195 190 167 109 81 67 59 62 67 67 70 77 71 74 76 74 70 69 72 76 87 92 98 103 106 105 102 100 91 91 91 91 91 91 90 90 97 97 
137 137 137 137 137 137 137 137 144 145 146 148 150 152 154 155 155 155 156 157 159 160 161 161 155 157 169 106 96 106 97 108 135 112 105 126 144 145 149 161 148 149 151 154 157 159 161 163 163 163 163 163 163 163 163 163 167 156 162 158 147 137 129 144 153 156 160 165 168 169 168 168 163 167 169 167 163 161 164 167 172 168 161 154 148 144 142 141 148 149 150 152 154 156 158 158 147 147 147 147 147 148 147 147 148 148 148 149 149 149 150 150 155 155 155 155 154 154 154 154 160 160 160 159 158 157 157 156 156 157 159 158 155 149 143 139 145 140 135 165 167 169 164 174 158 158 158 158 158 158 158 158 150 150 152 154 157 159 161 161 154 154 154 155 155 155 156 156 155 154 153 152 151 150 149 149 147 148 148 149 150 151 151 152 145 146 146 147 149 150 150 151 147 147 147 148 148 149 149 149 148 148 147 147 147 146 146 146 143 143 143 143 143 143 143 143 144 144 144 144 144 144 144 144 149 144 144 151 148 151 110 70 79 72 77 94 90 68 63 71 87 74 74 89 90 77 77 91 81 85 87 85 81 79 81 85 88 87 69 168 193 171 196 200 190 199 194 192 192 195 167 95 82 69 61 66 73 76 81 89 94 97 100 102 100 98 95 94 83 87 93 99 103 105 105 104 95 95 94 93 93 92 91 91 93 94 
141 141 141 141 141 141 141 141 141 141 143 145 147 149 150 151 149 149 150 151 153 154 155 155 159 156 162 120 79 104 90 106 114 102 108 133 144 140 144 158 156 158 160 164 167 171 173 176 163 163 163 163 163 163 163 163 157 141 146 149 150 147 137 147 156 158 162 166 168 169 168 167 160 164 167 165 160 158 161 164 177 173 168 163 159 157 157 157 152 152 153 153 154 154 154 156 155 155 155 155 155 155 155 155 156 157 157 157 158 158 158 159 158 158 160 162 164 165 167 168 159 159 158 157 157 156 155 155 157 159 160 160 156 151 144 141 138 132 145 147 166 164 167 164 164 163 162 162 161 160 160 159 158 158 157 155 154 152 151 151 154 154 155 155 155 156 156 156 155 154 153 152 151 150 149 149 145 147 147 148 149 150 150 151 153 152 150 147 144 142 140 139 149 149 149 150 150 150 151 151 147 147 146 146 146 145 145 145 142 142 142 142 142 142 142 142 153 153 153 153 153 153 153 153 146 144 144 148 146 151 93 75 77 71 82 93 84 64 59 76 86 73 73 88 89 76 76 90 81 85 87 85 81 79 81 85 88 83 118 214 205 184 198 200 195 208 197 186 190 204 173 89 88 75 70 77 86 89 94 102 94 95 95 94 90 83 74 68 81 84 89 95 100 103 105 106 99 99 98 96 95 93 92 91 89 89 
145 146 146 147 148 149 150 150 144 144 145 146 147 148 149 149 148 148 148 148 148 149 149 149 161 154 155 137 74 94 87 100 75 89 105 116 126 135 143 147 158 160 163 167 171 175 178 180 166 166 166 166 166 166 166 166 156 145 147 140 138 143 141 155 159 161 164 166 166 165 163 162 158 162 164 162 158 156 158 162 164 163 161 161 162 165 168 170 161 160 160 159 159 158 157 157 160 160 160 160 160 160 160 160 161 161 161 162 162 162 163 163 157 159 161 163 166 169 171 172 163 163 162 162 161 160 160 159 159 160 160 159 155 152 149 147 131 122 145 131 158 153 158 150 154 152 151 150 148 147 146 146 154 154 154 154 154 154 154 154 155 155 155 155 156 156 157 157 155 154 153 152 151 150 149 149 146 147 147 148 149 150 150 151 147 147 146 145 144 142 142 141 154 154 154 155 155 156 156 156 148 148 147 147 147 146 146 146 144 144 144 144 144 144 144 144 142 142 142 142 142 142 142 142 140 141 141 141 141 147 73 76 73 71 86 87 74 63 62 84 83 74 75 85 86 77 78 87 81 85 87 85 81 79 81 85 84 93 196 212 203 202 197 197 197 210 200 189 192 208 185 109 92 82 81 91 100 101 103 108 103 101 100 101 102 98 90 83 82 84 87 92 97 101 103 105 103 103 101 99 97 94 93 92 89 89 
147 148 149 152 154 156 158 159 150 150 150 149 149 149 149 149 152 152 151 150 149 148 147 146 160 149 156 155 88 83 88 92 79 90 104 113 122 133 143 149 149 151 154 159 163 168 171 173 169 169 169 169 169 169 169 169 165 160 162 146 139 143 135 138 162 163 165 165 164 161 157 155 159 162 165 163 158 157 159 163 161 160 158 157 159 161 165 167 162 162 162 162 162 162 162 162 158 158 158 158 158 158 158 158 160 160 160 160 161 161 161 162 157 158 159 160 161 162 163 164 165 165 164 164 163 162 161 161 161 159 156 154 154 154 156 155 138 121 142 137 156 151 148 150 158 156 155 153 151 149 148 147 146 147 149 152 154 157 159 160 155 155 155 156 156 157 157 157 155 154 153 152 151 150 149 149 147 147 148 148 149 150 151 151 140 140 141 143 144 146 147 148 142 142 143 143 143 144 144 144 150 149 149 149 148 148 148 148 149 149 149 149 149 149 149 149 148 148 148 148 148 148 148 148 149 152 151 149 150 157 71 90 68 71 89 78 64 64 67 92 79 77 77 81 82 80 80 83 81 85 87 85 81 79 81 85 77 138 216 204 200 197 197 197 193 203 201 200 197 204 197 149 93 86 88 101 109 107 105 107 98 94 92 96 102 103 99 93 84 85 87 90 94 97 101 102 106 105 103 101 98 95 93 92 102 102 
146 148 150 153 156 160 162 163 155 154 153 152 151 150 149 148 157 156 155 153 151 149 147 146 159 145 161 166 105 75 91 85 93 81 86 105 114 110 119 139 146 148 151 156 161 166 170 171 171 171 171 171 172 172 172 172 164 163 169 157 155 160 134 118 164 164 165 164 162 157 153 150 161 164 167 165 160 159 161 165 172 169 164 159 156 155 155 155 156 157 158 159 160 162 163 163 163 163 163 163 163 163 163 163 164 165 165 165 166 166 166 168 166 165 165 164 163 162 162 161 162 162 162 161 160 159 159 158 161 159 155 153 152 155 158 161 150 128 142 152 161 158 144 160 160 159 157 155 153 151 149 149 155 154 154 153 152 151 151 150 155 155 156 156 156 157 157 157 155 154 153 152 151 150 149 149 148 148 149 149 150 151 152 152 149 148 147 145 143 141 139 139 143 144 144 144 145 145 145 146 151 151 151 150 150 149 149 149 153 153 153 153 153 153 153 153 145 145 145 145 145 145 145 144 144 148 148 144 146 154 61 88 65 72 91 72 57 65 72 97 76 79 79 78 79 82 82 81 81 85 87 85 81 79 81 85 71 189 186 212 202 176 196 200 187 194 201 211 202 197 204 184 92 87 91 105 113 108 103 103 111 104 98 98 102 103 97 90 85 86 87 89 92 95 99 101 108 107 105 102 99 96 94 93 96 96 
153 154 154 155 155 156 155 156 167 168 166 165 163 163 161 161 156 156 156 156 156 156 156 156 159 149 161 144 150 68 88 84 83 80 79 88 101 111 113 111 133 138 143 146 149 158 170 179 171 171 171 171 171 171 171 171 168 167 164 161 157 153 150 149 168 168 168 168 169 169 169 169 160 158 156 155 157 161 167 170 165 169 166 159 158 162 158 149 154 158 164 168 168 163 158 154 163 163 162 162 161 160 160 159 162 162 162 162 161 161 160 160 162 161 161 160 159 158 158 158 161 161 161 161 162 162 163 163 157 157 157 156 156 156 155 155 162 151 133 144 148 162 151 146 158 158 157 156 155 155 154 154 159 158 158 157 156 155 155 154 165 167 169 171 171 169 167 165 159 159 158 157 155 154 153 153 158 159 157 156 154 154 152 153 154 154 151 150 147 146 143 142 144 148 151 150 146 145 148 152 143 146 150 153 153 151 147 145 147 147 147 147 146 146 146 145 151 151 151 151 151 151 151 151 150 155 151 148 136 150 85 70 62 83 76 58 62 67 77 98 71 72 71 67 62 63 69 75 72 90 80 74 67 96 94 69 115 180 195 197 199 189 188 178 188 194 197 193 201 209 203 202 90 92 95 97 99 99 98 98 104 101 97 94 94 96 99 102 85 86 88 91 95 98 100 101 100 101 104 105 105 103 101 99 89 89 
148 148 148 148 149 149 150 150 147 146 145 144 143 142 141 142 147 147 147 147 147 147 147 148 153 144 153 139 147 80 79 78 86 81 79 85 97 108 112 112 127 132 138 141 145 153 164 173 172 171 170 169 169 170 171 172 170 168 166 162 159 155 153 152 134 137 140 146 151 156 160 162 181 179 176 173 170 169 169 169 169 157 161 178 175 157 154 168 159 161 163 164 163 158 153 150 152 153 154 155 156 157 158 159 163 163 163 162 162 161 161 161 159 159 158 157 157 156 155 155 158 159 159 159 160 160 160 161 157 157 157 156 156 155 155 155 155 154 130 133 131 165 164 163 161 160 160 159 158 157 157 157 153 153 154 155 156 157 158 159 159 161 163 165 165 163 161 159 157 157 156 155 153 152 151 151 151 151 152 152 153 154 155 155 160 159 158 156 154 152 151 150 149 153 156 155 151 150 153 157 154 151 147 144 143 146 149 152 147 146 146 146 145 145 145 144 145 145 145 145 145 145 145 145 147 153 151 150 139 149 81 68 69 83 73 57 64 71 76 90 69 74 78 74 66 62 66 72 69 85 79 80 73 92 85 69 171 195 183 186 200 195 191 183 188 191 194 194 199 204 203 204 110 102 90 81 79 85 94 100 97 96 95 95 95 97 99 100 82 83 86 89 93 96 99 100 106 106 106 105 101 96 91 88 91 91 
142 142 142 143 143 143 144 144 145 144 144 143 143 142 142 141 144 144 144 144 144 144 144 145 151 144 149 140 150 108 76 77 89 83 78 80 90 101 109 112 121 126 132 137 140 148 158 166 174 171 168 165 165 168 171 174 171 170 168 165 162 159 157 156 159 157 153 148 143 138 134 132 138 141 147 154 160 165 168 169 172 178 166 145 147 170 179 170 163 164 164 164 163 162 160 159 153 154 154 155 155 156 156 156 158 158 158 158 157 157 156 156 155 154 154 153 152 151 151 151 155 155 156 156 156 157 157 157 157 157 156 156 155 155 155 155 154 167 141 138 119 160 156 157 157 157 156 155 155 154 153 153 147 148 150 153 156 158 160 162 153 155 157 159 159 157 155 153 154 154 153 152 150 149 148 148 144 145 146 149 151 153 155 156 154 153 152 151 149 148 147 146 149 153 156 155 151 150 153 157 157 153 149 145 143 145 148 150 146 146 145 145 144 144 144 144 143 143 143 143 143 143 143 143 134 143 141 144 136 141 67 57 79 83 69 57 67 77 77 78 66 78 88 85 72 62 62 67 66 75 74 83 77 85 75 80 174 183 174 183 194 187 188 192 189 188 190 196 196 196 202 205 117 106 89 75 69 73 83 90 87 89 92 95 97 98 98 97 89 89 88 88 88 88 87 87 94 97 100 102 103 102 100 99 102 102 
140 141 141 141 142 142 142 143 143 143 143 143 143 143 143 143 150 150 150 150 150 150 150 150 155 150 151 146 157 140 85 82 90 85 78 77 83 93 104 111 116 123 131 136 139 146 155 162 173 170 166 163 163 166 170 173 172 171 169 167 165 162 161 160 168 166 162 158 153 148 144 142 135 134 131 125 115 104 93 87 105 116 134 148 144 135 138 151 154 154 154 155 157 160 163 165 163 163 161 160 158 157 156 155 152 152 151 151 151 150 150 150 151 150 150 149 148 147 147 147 152 153 153 153 154 154 154 155 156 156 156 155 155 155 154 154 146 167 150 154 125 154 144 148 149 148 148 147 146 145 145 145 148 148 150 152 154 155 157 158 151 153 155 157 157 155 153 151 152 151 151 149 148 147 146 146 144 144 145 147 148 150 151 152 150 149 149 148 147 147 146 146 144 148 151 150 146 145 148 152 149 151 153 155 153 149 144 140 147 146 147 145 146 144 145 144 149 148 149 148 149 148 149 148 142 153 150 156 153 151 72 68 88 81 64 57 71 84 78 67 65 81 96 95 80 65 61 63 64 64 65 78 76 80 75 107 170 176 178 184 187 183 187 194 190 186 186 197 193 190 201 197 102 99 92 85 79 75 72 71 79 82 88 94 97 97 95 93 89 89 88 86 85 84 83 82 80 84 91 98 104 108 109 110 105 105 
143 143 144 144 144 145 145 145 147 148 148 149 150 151 151 151 154 154 154 154 154 154 155 154 155 150 150 148 156 156 99 83 89 85 80 76 78 86 99 106 114 121 131 137 141 146 154 160 170 168 165 163 163 165 168 170 171 170 169 167 165 164 163 162 159 159 158 157 155 154 153 153 142 144 146 146 143 138 133 129 90 82 90 117 141 145 136 130 148 147 147 147 148 150 152 154 158 158 158 158 158 158 158 158 153 153 152 152 151 151 151 151 148 148 147 147 146 145 144 144 151 152 152 152 153 153 153 154 156 156 155 155 155 154 154 154 141 154 144 155 131 150 147 162 147 147 146 146 145 144 143 143 151 151 151 151 151 150 150 150 153 155 158 159 159 158 155 153 151 151 150 149 148 147 146 145 149 149 148 148 147 146 146 145 156 156 155 155 155 155 155 155 144 148 151 150 146 145 148 152 147 150 153 155 154 150 146 143 149 149 148 149 147 148 147 147 150 151 150 151 150 151 150 150 144 155 150 157 159 151 69 73 92 77 62 59 73 89 82 61 67 82 99 100 88 72 63 61 64 59 57 68 70 77 80 140 195 189 186 181 182 191 191 187 192 186 184 198 191 188 200 177 91 92 94 93 88 81 73 67 75 79 84 90 93 93 91 90 85 85 85 85 85 86 86 86 74 78 84 90 96 98 100 100 102 103 
146 146 146 146 147 147 148 148 150 150 151 153 154 156 157 157 149 149 149 149 149 150 149 149 150 145 145 145 148 155 117 79 85 85 82 78 76 81 91 99 110 118 129 136 140 144 150 157 165 165 166 166 166 166 165 165 167 167 166 165 164 163 163 162 170 168 165 161 156 152 149 148 151 151 151 150 147 144 141 139 140 134 110 85 95 131 150 145 156 156 157 157 156 155 153 152 146 147 149 151 153 156 157 158 157 157 156 156 155 155 155 155 148 148 147 146 145 145 144 144 152 153 153 153 154 154 154 155 155 155 155 155 154 154 153 153 159 157 145 142 128 137 147 166 153 153 152 151 150 150 149 149 152 151 151 149 148 147 146 146 155 157 160 161 161 160 157 155 153 152 151 150 149 148 147 147 153 152 151 149 148 146 145 145 152 152 152 153 153 154 154 155 149 153 156 155 151 150 153 157 153 150 147 145 146 149 154 157 153 152 152 152 151 151 151 150 148 148 148 148 148 148 148 148 139 150 139 146 152 141 58 71 90 72 61 63 74 91 86 60 71 82 95 101 95 82 69 62 66 61 59 63 67 77 84 161 177 172 186 183 177 188 188 185 194 190 183 197 192 193 198 148 97 96 94 91 87 84 82 80 76 78 81 84 86 87 87 86 95 94 91 88 85 82 79 78 67 71 78 85 91 95 97 97 113 113 
145 145 145 146 146 146 147 147 137 138 139 141 143 145 146 147 146 146 146 147 146 146 146 146 151 146 147 146 144 150 140 82 81 84 85 81 76 77 85 92 103 112 123 131 135 140 144 150 159 162 167 170 170 167 162 159 164 164 163 163 162 162 161 161 159 159 160 161 162 163 163 164 154 153 150 148 147 147 147 148 140 139 140 129 94 70 97 144 145 150 156 162 165 166 164 163 154 154 153 152 151 150 149 149 152 152 152 151 151 150 151 151 149 148 148 147 146 145 145 145 154 154 155 155 156 156 156 156 155 155 155 154 154 153 153 153 169 163 155 132 132 133 147 150 155 154 154 153 152 151 151 150 146 147 147 147 148 148 148 149 154 156 158 160 160 158 156 154 155 155 154 152 151 150 149 149 151 151 151 151 151 151 151 151 146 146 147 148 149 150 151 151 149 153 156 155 151 150 153 157 148 147 145 144 147 152 158 162 157 157 156 156 156 155 155 155 151 151 151 151 151 151 151 151 154 163 147 154 163 150 68 88 86 67 62 66 74 93 91 63 77 81 89 98 100 92 76 64 69 68 70 67 69 78 80 164 160 145 171 181 175 182 183 189 196 194 183 197 193 199 197 120 108 105 99 94 89 87 87 87 81 80 79 78 79 80 82 84 93 92 91 90 88 86 85 85 80 84 89 96 101 103 104 105 118 118 
143 143 143 144 144 144 145 145 142 143 144 146 149 151 152 153 148 148 149 149 148 148 148 148 158 151 154 151 146 150 161 89 78 83 86 83 77 75 81 88 97 107 119 127 131 134 139 144 155 160 167 172 172 167 160 155 162 162 161 161 161 161 160 160 148 149 151 154 157 159 161 162 157 154 148 142 139 139 141 142 141 133 122 120 129 131 109 81 113 121 135 149 159 164 165 165 176 173 167 160 152 145 140 137 142 142 142 141 141 141 140 141 150 149 149 148 147 146 146 145 156 156 156 157 157 157 158 158 155 155 154 154 154 153 153 153 149 153 159 130 145 144 157 142 151 150 150 149 148 147 147 146 140 141 143 146 148 150 152 153 152 154 156 158 158 156 154 152 157 156 155 154 153 152 151 150 147 148 149 151 153 155 157 158 152 152 153 154 156 157 158 159 144 148 151 150 146 145 148 152 136 140 147 153 157 158 157 156 160 159 159 159 158 158 158 157 159 159 159 159 159 159 159 159 159 167 147 153 164 151 69 94 82 64 62 68 73 93 94 65 80 80 84 95 103 98 81 66 70 75 80 73 72 78 75 158 202 150 154 171 178 189 185 190 197 197 184 196 194 204 196 102 111 109 107 103 97 91 86 83 85 82 78 75 74 76 80 82 67 71 77 86 95 104 110 114 114 115 116 115 112 108 104 102 106 106 
146 147 147 149 150 151 152 152 151 152 152 153 154 155 155 156 153 159 159 152 152 157 157 151 149 149 149 149 149 149 149 149 61 93 69 101 75 74 84 75 90 97 110 125 136 144 147 148 149 155 163 171 174 173 170 167 172 171 168 164 159 155 152 151 151 151 152 153 154 154 155 155 152 152 152 152 151 151 151 150 141 140 138 137 138 140 143 145 124 88 76 108 146 157 157 160 175 166 162 166 164 158 158 165 150 149 144 135 129 127 133 138 132 136 141 146 149 149 147 145 151 151 151 151 151 151 151 151 167 159 151 152 159 165 165 162 146 145 139 145 154 130 154 155 147 146 146 145 143 142 142 141 145 145 146 147 148 148 149 149 159 158 157 154 152 149 148 147 157 155 152 151 153 156 161 164 161 161 162 163 164 165 166 166 157 158 158 160 161 162 163 164 160 159 159 159 158 157 157 157 159 160 160 161 162 163 163 164 164 164 163 162 160 159 158 158 162 162 163 163 163 164 164 164 165 168 154 162 161 140 76 97 66 67 76 68 95 98 98 73 86 86 88 91 95 95 92 89 70 69 70 73 77 82 87 91 146 190 233 213 206 192 198 186 188 190 195 189 191 213 194 135 132 131 105 109 100 105 94 86 78 74 72 73 77 81 83 83 90 102 111 117 125 130 121 105 124 118 112 113 117 118 112 106 111 113 
140 140 141 142 143 145 145 146 150 150 151 152 152 153 154 154 153 159 159 152 152 157 157 151 161 161 161 161 161 161 161 161 86 80 83 88 78 76 78 75 87 94 106 120 133 142 147 149 149 154 162 169 173 173 170 168 172 171 168 164 160 156 153 152 155 155 155 155 155 155 154 154 150 150 150 150 149 149 149 148 154 152 147 143 141 140 141 142 134 140 130 102 84 95 120 136 141 151 160 160 155 154 156 159 166 158 152 154 159 157 144 131 142 143 145 146 147 146 144 143 150 150 150 150 150 150 150 150 154 150 147 149 154 155 150 145 162 150 150 161 144 145 160 151 139 140 142 145 147 150 152 153 139 140 142 144 146 148 150 151 156 157 159 162 165 167 169 170 155 153 151 150 151 154 158 161 156 156 157 157 158 159 159 159 157 156 156 155 154 154 153 153 164 164 163 163 163 163 162 162 165 165 165 166 167 168 168 169 166 165 164 163 162 161 160 159 162 162 162 162 163 163 163 164 165 168 152 167 161 142 75 93 74 73 79 71 92 92 88 65 85 90 97 101 102 100 99 99 87 73 72 84 82 72 82 105 130 142 179 206 211 192 209 238 226 207 215 231 226 216 204 183 128 118 124 122 115 106 102 96 78 79 79 78 80 91 106 118 122 117 116 122 128 129 127 125 114 113 114 119 126 131 132 132 128 130 
141 141 142 143 144 146 146 147 150 150 151 151 152 153 154 154 153 159 159 152 152 157 157 151 153 153 153 153 153 153 153 154 122 71 93 74 81 77 72 74 82 88 99 113 126 137 145 149 147 152 160 167 171 172 171 169 172 171 168 165 161 158 156 154 161 160 159 158 156 155 154 153 148 147 147 147 146 146 146 145 154 151 147 143 140 140 140 141 158 144 143 145 116 74 66 87 112 140 158 149 134 138 152 161 140 151 161 159 149 141 142 147 152 150 147 145 143 142 142 143 148 148 148 148 148 148 148 148 149 149 150 154 157 155 148 141 150 133 147 163 135 168 176 165 169 168 166 164 161 159 157 156 155 154 153 151 149 147 146 145 151 152 156 160 164 168 172 173 163 161 160 159 160 162 164 166 165 165 165 166 166 166 166 166 164 164 162 160 157 155 153 152 161 161 162 162 162 162 162 162 156 156 157 158 159 159 160 160 168 167 166 165 164 163 162 161 161 161 161 161 162 162 162 163 165 166 152 169 165 140 78 85 67 68 75 75 94 97 95 78 75 87 100 105 102 99 100 103 104 83 72 79 79 73 81 100 145 135 145 189 209 211 205 215 219 215 224 232 227 229 230 222 178 135 154 141 135 122 116 109 100 81 68 80 108 127 124 112 118 108 107 119 125 119 116 120 131 132 131 127 121 117 116 117 119 121 
151 151 152 153 154 155 156 157 153 153 154 155 156 156 157 157 153 159 159 152 152 157 157 151 155 155 155 155 155 155 155 155 150 83 87 73 80 77 72 71 78 83 91 103 117 130 141 147 146 150 157 164 169 171 172 171 172 170 168 166 163 160 158 157 165 164 162 160 157 155 153 152 145 145 145 144 144 144 143 143 139 138 136 135 136 138 141 143 149 147 146 150 152 136 94 55 62 73 93 121 151 165 151 130 159 153 147 145 147 148 146 143 152 149 144 140 139 140 142 144 147 147 147 147 147 147 147 147 141 142 145 148 151 151 148 146 154 141 153 147 134 165 157 150 158 158 159 160 161 162 163 163 167 166 164 161 159 156 154 153 149 149 149 149 150 150 150 150 162 162 161 160 160 161 161 162 157 157 156 156 155 155 155 154 160 159 158 157 155 154 153 152 153 153 154 155 156 157 157 158 161 161 162 162 163 164 164 165 168 169 167 167 165 165 163 163 159 160 160 161 160 162 161 161 165 160 158 163 169 127 83 77 66 68 76 84 99 103 101 93 74 90 108 113 107 103 106 113 111 99 79 66 71 85 87 80 120 163 178 182 165 190 193 194 171 186 204 211 217 228 228 217 224 147 151 140 134 138 123 115 121 120 119 119 118 111 99 90 103 98 99 110 120 121 122 124 131 134 134 125 112 103 102 105 100 102 
156 156 157 158 159 161 161 162 157 157 158 158 159 160 161 161 153 159 159 152 152 157 157 151 156 156 156 156 156 156 156 156 163 113 70 82 78 76 76 68 77 79 84 93 106 121 134 142 145 148 154 160 166 170 172 173 171 170 169 167 165 163 161 161 164 163 161 159 157 154 152 152 145 145 144 144 144 143 143 143 138 137 135 134 135 137 140 142 147 144 136 133 143 151 138 116 67 69 74 76 77 90 124 154 153 147 141 139 139 137 133 128 143 140 136 134 134 136 140 142 141 141 141 141 141 141 141 141 125 126 127 128 130 135 141 145 151 151 154 128 152 162 146 151 156 156 157 158 159 160 161 161 155 156 159 162 165 169 171 172 181 180 179 177 175 173 172 171 151 151 151 151 150 149 148 147 147 147 146 145 144 143 142 141 141 142 142 143 144 144 145 145 150 150 152 153 155 156 157 158 160 160 161 161 162 163 164 164 168 167 167 165 165 163 163 161 159 158 159 159 160 159 161 161 163 153 164 154 168 106 86 72 80 81 85 97 102 103 97 95 69 85 101 105 99 96 101 108 112 112 99 78 74 85 88 81 79 129 151 156 135 157 160 165 184 173 163 166 171 170 177 191 211 139 137 141 125 144 121 120 118 122 125 121 110 98 91 87 81 79 76 76 90 111 123 124 119 121 119 108 93 82 79 81 75 77 
151 152 153 154 155 156 157 158 156 157 157 158 159 160 160 161 153 159 159 152 152 157 157 151 156 156 156 156 156 156 156 156 162 142 59 88 77 79 77 67 78 77 79 85 96 111 125 134 143 146 151 157 163 169 173 175 171 170 169 168 166 165 164 164 159 159 158 156 155 153 152 152 146 146 146 145 145 145 144 144 151 148 144 140 137 137 138 138 140 129 126 135 136 132 140 155 120 91 72 80 95 93 81 73 98 113 131 137 131 125 127 131 131 129 128 127 127 129 130 131 129 129 129 129 129 129 129 129 122 123 124 123 123 128 137 145 140 149 142 123 170 167 156 169 167 166 164 162 159 157 155 154 152 153 155 158 161 164 166 167 163 163 163 163 164 164 165 165 158 159 160 160 158 156 152 150 151 150 149 147 145 143 142 141 141 141 142 144 145 147 148 149 152 153 155 157 159 161 163 164 153 154 154 155 156 157 157 157 165 164 163 162 161 160 159 159 156 157 157 157 158 158 158 158 159 150 164 151 153 87 85 73 76 78 83 103 103 106 100 106 80 89 98 100 97 97 102 108 110 115 116 107 89 77 82 94 97 101 125 171 178 159 134 134 105 119 126 135 154 163 167 177 156 121 122 130 100 107 83 85 100 89 77 74 78 82 80 75 56 61 60 60 73 95 103 98 87 87 83 75 65 57 54 53 63 65 
147 148 149 150 151 152 153 153 151 151 152 153 154 154 155 155 153 159 159 152 152 157 157 151 165 165 165 165 165 165 165 165 158 160 64 85 80 85 74 70 80 78 76 78 88 102 118 127 142 144 149 155 161 168 174 177 171 170 170 169 168 167 166 166 153 153 153 153 153 153 152 152 148 148 148 148 147 147 146 146 150 147 143 139 137 136 137 138 116 139 142 122 124 145 141 115 124 107 87 78 80 84 86 88 87 88 98 117 136 142 133 121 123 123 123 123 121 118 115 113 112 112 112 112 112 112 112 112 124 128 131 129 125 124 129 134 145 147 128 134 163 159 155 161 144 145 147 150 152 155 157 158 163 163 162 160 159 157 156 156 157 158 160 161 164 166 167 168 176 177 179 179 177 173 169 166 160 159 157 155 153 150 149 148 153 153 153 153 153 153 153 153 150 151 153 155 158 161 163 164 160 161 161 162 163 164 164 165 162 161 160 159 158 157 156 155 155 156 156 156 157 157 157 157 152 154 157 155 129 76 78 77 64 68 73 101 100 106 101 114 103 104 104 104 105 108 112 116 100 108 114 110 97 84 77 75 62 73 114 150 159 133 130 141 176 182 157 124 119 127 143 168 158 147 144 139 120 109 95 89 86 85 78 64 52 50 58 68 70 71 73 78 86 90 87 81 59 58 59 63 69 73 74 73 80 82 
148 148 149 150 151 153 154 154 146 146 147 148 148 149 150 150 153 159 159 152 152 157 157 151 154 154 154 154 154 154 154 154 154 164 74 79 83 90 71 74 82 78 74 75 83 97 113 123 141 143 147 153 160 168 174 178 170 170 170 169 168 168 167 167 148 150 150 151 152 153 154 153 150 150 150 149 149 148 148 148 136 135 133 132 133 135 138 140 139 135 128 124 127 130 125 116 106 103 89 70 64 72 79 77 77 84 92 96 97 98 102 106 120 121 122 121 116 110 103 99 100 100 100 100 100 100 100 100 116 123 130 128 120 111 110 112 123 120 100 139 151 160 170 168 160 159 158 157 156 155 155 154 164 164 164 164 164 164 164 164 170 171 171 172 173 174 175 175 181 183 185 185 183 178 173 170 187 186 184 182 179 177 175 174 157 156 154 152 150 148 147 146 143 144 147 149 152 155 157 159 154 155 155 156 157 158 158 159 159 159 158 157 156 154 154 153 155 155 155 156 156 156 157 157 146 158 149 161 110 72 71 81 68 71 73 101 93 96 89 103 92 88 82 81 84 89 93 95 88 101 101 91 94 100 76 39 55 75 103 105 151 188 219 210 200 208 214 220 199 142 122 157 141 132 120 104 114 99 102 86 84 72 63 70 87 98 93 84 91 78 71 75 77 71 68 72 92 87 83 87 95 99 96 91 83 85 
142 143 146 147 147 145 143 141 149 149 149 150 150 151 151 151 157 155 153 152 150 152 154 156 161 160 159 156 153 151 149 147 150 164 76 69 82 81 82 81 81 84 85 82 80 85 98 110 116 130 146 155 158 162 168 173 185 175 165 160 162 162 159 156 158 158 157 156 154 153 152 152 146 145 143 141 139 137 135 134 131 134 140 143 142 137 130 125 122 127 120 112 110 101 97 107 102 125 136 79 93 72 76 72 84 77 78 72 84 81 67 98 77 77 81 89 98 101 97 93 86 85 83 81 78 75 74 73 76 76 75 75 74 73 73 72 79 121 160 169 162 158 158 156 152 152 151 150 150 149 148 148 149 151 155 160 165 170 173 175 176 171 174 165 174 171 181 181 182 181 181 181 180 180 180 180 181 181 180 180 180 179 179 179 187 186 184 181 178 175 173 172 165 165 164 163 159 154 149 146 155 156 154 148 143 143 148 153 147 149 150 148 146 144 141 138 143 141 139 139 137 136 138 142 143 141 141 161 65 73 58 47 54 52 72 84 77 86 101 95 77 77 77 78 81 86 91 94 96 97 98 98 95 89 83 79 63 64 119 97 67 54 62 92 114 129 144 177 217 223 196 173 143 158 133 108 125 102 92 104 67 56 72 88 78 75 82 77 75 70 64 60 62 69 77 83 106 107 105 98 92 90 95 101 86 86 
146 149 152 156 158 158 157 156 154 155 155 155 156 156 156 157 156 157 161 164 163 160 156 152 160 159 157 155 153 151 149 148 151 159 90 75 94 84 76 85 91 88 83 77 76 83 94 103 117 133 148 154 158 165 171 172 178 178 178 175 170 166 164 163 154 154 153 152 150 149 148 148 137 137 139 140 142 144 145 146 143 141 136 127 120 117 120 124 120 122 109 91 91 106 123 135 155 148 133 103 78 78 81 80 74 79 91 90 97 97 96 134 154 147 138 131 125 116 104 95 91 95 102 111 121 130 137 141 137 140 144 150 157 163 168 170 171 177 177 166 156 154 158 161 163 162 162 161 160 160 159 159 166 166 165 164 164 163 162 162 178 175 181 173 181 172 176 172 185 185 185 185 184 184 183 183 169 169 168 168 168 167 167 167 168 168 167 166 166 165 164 164 164 165 166 165 163 159 155 153 137 130 124 126 135 142 142 138 136 129 129 138 142 136 133 136 126 139 148 147 142 144 150 154 141 149 150 148 62 68 68 64 63 61 76 83 73 77 88 82 79 78 78 79 81 85 90 93 79 83 88 92 95 95 94 93 72 77 147 167 187 197 181 171 148 124 100 101 150 202 212 206 151 141 118 118 118 108 92 92 72 66 82 92 71 56 54 47 62 61 59 59 63 70 78 82 80 86 93 95 91 88 88 89 93 93 
128 131 136 141 145 146 146 146 155 155 155 156 156 156 157 157 155 153 152 151 151 151 151 152 159 158 157 155 153 152 150 150 151 155 112 78 102 87 72 90 94 88 82 80 82 85 87 87 124 122 133 152 159 157 166 183 166 175 182 181 173 166 165 167 160 158 157 156 155 154 154 152 157 155 152 147 141 137 133 131 123 117 114 118 124 122 111 99 84 70 90 135 151 138 137 152 137 106 91 95 79 93 106 95 91 94 99 91 87 81 77 102 178 173 168 168 171 173 171 168 181 179 175 171 166 161 158 156 180 181 180 179 177 176 175 174 195 184 176 178 184 187 188 189 184 184 183 183 182 181 180 180 178 177 177 177 177 177 177 177 172 171 180 173 179 166 166 158 152 152 151 151 151 150 150 150 156 156 155 155 155 154 154 154 152 153 154 155 157 158 159 159 163 163 166 167 167 165 162 160 171 169 166 161 157 155 156 157 164 151 134 126 129 135 138 137 138 148 147 135 132 140 141 135 159 158 148 125 63 60 62 56 60 60 72 77 68 69 75 72 73 72 70 70 72 75 79 81 88 89 91 92 91 90 87 86 99 120 190 195 197 205 207 206 197 204 206 154 125 157 190 222 197 151 110 111 102 113 97 85 91 74 75 86 84 78 71 60 55 56 57 59 62 65 67 68 61 67 74 78 80 84 92 98 88 88 
146 148 153 157 160 161 160 160 150 150 150 151 151 152 152 152 155 151 148 145 144 146 150 152 158 157 156 155 154 153 152 152 150 155 134 75 96 89 74 93 87 84 82 87 93 92 84 76 101 109 125 143 155 161 166 171 162 167 171 171 167 163 162 164 162 160 160 158 157 156 155 155 138 138 138 137 137 136 136 135 116 119 115 102 87 82 91 102 131 161 173 141 111 120 138 137 118 102 108 104 110 95 114 99 105 100 97 96 102 102 96 98 170 164 158 159 164 170 172 171 163 163 163 163 163 163 163 163 173 174 174 175 176 177 177 178 166 154 153 168 177 170 160 157 153 153 152 151 150 150 149 149 142 143 144 146 147 149 150 150 162 160 167 160 167 156 158 152 159 159 159 158 158 158 157 157 151 151 151 151 150 150 149 149 153 153 154 155 156 157 158 159 156 158 162 165 166 166 164 163 166 171 175 173 168 167 172 178 156 166 167 163 170 181 170 147 145 155 157 153 161 167 145 111 86 65 58 58 54 57 66 64 58 63 73 77 74 75 80 81 72 70 68 67 67 69 72 73 77 78 81 85 88 90 92 92 92 117 187 200 207 212 216 212 216 189 220 231 195 154 154 215 224 188 145 106 95 102 94 89 99 78 66 73 83 90 96 98 85 87 89 89 88 84 80 77 66 69 71 69 66 67 72 77 95 95 
142 144 147 149 150 148 146 145 150 151 151 151 152 152 152 153 155 157 161 163 162 159 156 153 157 157 157 156 156 156 155 154 149 157 151 80 83 88 81 93 90 84 80 84 91 95 91 86 71 101 121 125 142 168 168 148 171 165 160 159 161 164 163 161 157 157 157 155 154 153 152 151 146 143 139 134 128 122 118 116 113 110 109 112 122 135 145 151 148 150 131 109 123 149 136 99 94 117 116 107 116 96 110 111 99 95 92 98 103 108 108 97 181 172 162 156 154 154 150 147 162 161 158 155 151 147 145 143 136 138 141 145 150 154 158 159 154 143 140 149 151 143 138 141 150 149 149 148 147 147 146 146 152 152 151 151 150 149 149 148 158 154 158 149 158 153 162 160 159 159 159 159 158 158 157 157 155 155 155 154 154 153 153 153 157 157 157 156 156 156 155 155 151 153 157 161 163 163 162 161 157 153 150 153 160 162 158 152 157 159 159 159 160 158 146 132 156 149 128 111 128 162 175 165 122 72 57 67 70 49 48 48 50 59 65 67 68 66 67 73 77 75 72 69 68 68 70 71 70 70 70 71 73 75 77 78 79 108 177 195 199 196 204 199 181 193 209 193 197 215 195 181 201 211 193 104 102 90 87 94 82 79 72 66 60 58 75 100 98 101 104 106 104 99 93 90 82 91 103 109 107 103 101 102 94 94 
149 152 153 155 154 153 149 148 156 157 157 158 157 159 158 159 159 159 160 160 159 159 157 157 156 156 156 157 157 157 157 156 150 158 163 106 80 88 90 93 100 92 83 79 83 91 99 103 98 91 93 109 127 141 154 166 178 169 159 156 161 165 163 160 159 159 158 157 156 154 153 153 128 130 133 138 143 148 152 154 155 147 140 144 151 149 134 120 134 136 133 139 142 111 86 97 205 211 141 137 126 119 91 82 84 88 86 85 72 69 75 58 147 141 136 136 141 143 140 137 137 138 140 142 145 147 148 149 152 152 152 151 151 150 150 150 150 147 147 150 152 151 154 158 150 150 150 149 148 147 147 146 153 153 154 155 156 157 157 158 162 156 159 149 159 156 168 168 163 163 162 162 162 161 161 161 158 158 157 157 157 156 156 156 154 154 154 153 152 152 152 151 150 152 156 159 161 161 160 159 165 164 163 162 160 156 151 147 172 147 131 131 121 103 106 126 113 126 130 124 129 147 157 156 155 90 77 101 97 73 78 86 60 71 72 69 72 66 62 70 73 70 66 62 59 59 60 60 71 68 65 61 59 58 58 59 60 104 176 199 209 211 217 197 221 212 197 207 217 197 190 215 190 208 196 87 107 100 94 94 73 77 72 67 64 54 57 78 80 83 89 93 96 96 94 93 80 89 99 104 103 101 101 102 86 86 
147 149 153 155 157 156 155 153 157 157 158 157 159 158 159 160 163 160 156 153 152 155 159 161 155 156 156 157 157 158 159 158 154 155 170 150 94 89 96 94 100 99 96 92 88 90 95 100 127 95 83 103 118 121 140 170 169 166 162 159 157 155 153 151 148 148 147 146 145 144 143 142 143 142 141 139 138 136 135 134 118 128 133 120 99 92 105 121 103 120 81 52 98 133 124 121 226 193 105 126 126 133 107 81 75 81 79 81 68 68 79 52 146 143 143 148 153 156 152 148 158 157 158 159 160 161 161 162 149 150 151 153 155 157 158 159 151 153 153 150 150 151 147 140 156 156 155 155 154 153 152 152 154 155 156 157 159 160 161 162 162 158 163 154 163 156 162 160 155 155 155 155 154 154 154 153 155 155 155 154 154 153 153 153 149 150 151 152 154 155 156 157 155 157 160 162 163 162 161 159 146 155 164 166 161 159 162 167 131 131 140 149 144 132 138 154 147 152 151 141 133 138 150 159 161 80 56 84 70 62 69 68 81 96 95 92 99 93 87 98 77 74 69 64 60 59 59 59 58 58 58 61 66 72 79 83 78 121 176 193 216 211 161 66 170 221 196 184 208 205 201 194 199 202 194 97 104 111 103 94 87 82 66 66 78 70 60 71 73 76 80 85 89 92 93 93 106 108 109 104 95 88 87 88 91 91 
140 143 148 152 156 157 157 157 151 152 152 152 153 153 153 154 164 166 168 169 169 167 164 162 155 155 156 157 158 159 159 159 158 152 173 186 110 91 98 95 90 101 112 113 104 92 86 84 108 116 112 102 114 140 144 129 153 159 164 160 151 142 139 140 123 122 122 120 119 118 117 117 126 124 121 117 113 109 106 104 104 100 99 103 107 103 89 76 72 104 83 88 170 211 193 194 210 154 100 124 129 116 128 97 87 83 74 80 76 80 85 43 141 141 144 151 158 159 155 149 146 147 148 149 151 152 153 153 150 151 152 154 156 157 159 159 154 157 154 149 155 165 161 148 157 157 156 155 155 154 153 153 165 163 160 156 151 147 144 142 156 155 163 156 162 150 151 144 155 155 155 155 154 154 153 153 150 150 150 149 149 149 148 148 147 149 151 155 159 163 165 167 160 162 164 166 166 165 162 161 161 159 159 162 164 161 154 147 103 134 150 140 136 152 165 164 165 161 155 150 144 140 140 144 199 101 57 83 66 76 76 55 68 87 87 87 100 96 92 107 96 93 88 82 78 76 76 76 74 73 72 73 76 82 88 92 84 149 202 194 202 210 173 75 81 210 209 179 185 180 193 184 193 202 223 143 102 103 99 96 101 95 71 60 67 58 54 74 66 67 68 69 71 73 74 75 73 84 98 105 105 101 98 97 84 84 
149 149 150 151 152 152 153 153 152 152 153 154 155 155 156 156 168 167 167 167 167 167 167 167 158 158 158 157 157 157 156 156 151 142 152 152 101 84 95 80 87 87 86 85 84 84 83 83 75 82 93 104 113 117 118 118 124 128 139 151 156 146 125 107 97 99 101 104 107 111 113 114 103 105 106 106 103 98 93 89 85 101 105 108 114 98 81 86 67 151 158 102 201 218 208 226 194 114 120 137 105 111 130 121 88 82 75 75 79 81 77 71 153 150 156 158 155 152 150 158 148 148 148 149 149 149 150 150 155 155 154 154 154 153 153 153 154 155 157 159 158 156 153 151 159 159 160 160 161 162 162 163 157 157 158 159 160 160 161 161 163 167 171 169 162 156 155 156 151 151 151 150 150 150 149 149 146 146 147 148 149 149 150 150 147 147 147 146 146 146 145 146 143 154 152 140 139 151 149 134 144 148 153 152 138 115 94 83 109 131 148 147 146 155 164 165 160 162 168 168 153 137 139 151 147 145 50 71 69 66 83 79 77 87 95 90 78 72 77 86 89 88 87 86 85 84 83 82 81 85 91 97 101 102 101 100 102 170 198 209 194 208 215 105 82 171 213 210 183 173 178 176 187 197 223 197 153 161 106 96 99 93 89 76 58 69 76 59 74 74 73 70 70 71 72 72 61 67 75 83 89 92 93 92 82 82 
146 146 147 147 149 149 150 150 148 147 149 148 150 150 152 152 154 154 154 154 154 154 154 154 147 147 147 146 146 146 145 145 143 135 143 144 97 75 86 72 76 76 75 75 74 73 72 72 67 71 78 88 101 114 125 132 131 135 140 144 139 125 106 92 91 91 92 94 95 96 97 97 92 94 96 98 99 99 98 97 94 76 66 88 118 115 92 78 99 209 175 103 146 231 218 189 108 120 127 114 119 124 117 134 125 109 91 82 82 80 71 61 163 140 140 146 141 147 158 161 149 148 147 146 145 144 144 143 146 146 146 146 145 145 145 144 153 154 154 154 152 148 144 141 149 149 150 150 151 152 152 153 163 164 164 165 166 167 167 168 163 168 172 169 163 158 156 158 154 153 152 150 148 146 145 144 138 138 139 139 140 141 142 142 147 147 147 146 146 145 145 146 161 149 145 152 157 155 155 159 169 161 143 122 110 107 107 106 129 140 150 155 161 170 177 178 163 161 156 148 145 145 145 143 148 122 65 63 65 64 64 62 75 86 96 94 85 79 82 88 88 88 88 87 87 87 87 87 86 89 94 99 101 102 101 100 113 183 205 212 202 213 220 131 104 162 211 210 205 199 190 176 181 192 175 202 214 165 110 101 86 82 72 95 80 94 86 91 70 83 94 97 95 88 74 60 69 70 72 76 82 90 97 101 94 94 
140 142 141 143 143 144 144 145 142 143 142 144 144 146 145 146 141 141 141 141 141 141 141 141 135 134 134 134 133 133 133 132 147 140 146 148 106 74 87 75 71 71 70 69 69 68 67 67 67 66 66 72 84 101 119 129 142 145 145 138 124 106 92 85 92 92 92 91 91 91 90 90 83 83 83 84 86 89 92 94 78 86 89 91 124 186 217 207 194 222 143 144 129 194 197 209 88 127 135 114 128 132 117 141 126 125 121 110 94 81 73 71 169 149 145 150 141 139 141 129 143 144 146 149 152 156 158 159 151 151 151 150 150 149 149 149 152 152 152 151 147 142 138 135 134 134 135 136 137 137 138 138 134 134 135 136 136 137 138 138 149 154 158 157 151 146 145 146 148 149 151 153 156 158 160 161 155 154 155 156 156 157 158 158 160 160 160 159 159 158 158 158 161 150 148 159 161 155 160 173 152 149 136 124 131 145 142 128 136 129 124 125 125 122 120 122 132 149 158 151 146 149 149 143 146 95 77 57 60 66 53 53 72 84 97 100 94 88 89 92 87 88 88 89 90 92 92 93 93 95 98 101 102 102 101 100 129 200 213 215 211 217 226 167 98 135 216 214 219 212 205 200 176 189 193 197 175 104 87 106 91 78 70 96 98 81 63 76 84 91 89 81 84 99 106 102 95 87 76 67 64 67 73 78 83 83 
137 137 137 138 139 140 140 141 141 142 142 143 144 144 145 145 138 138 138 138 138 138 138 138 143 143 142 142 142 141 141 141 149 145 148 150 116 71 86 75 76 76 75 74 73 73 72 72 76 72 67 66 72 83 95 104 126 130 129 118 101 87 81 80 85 86 86 86 87 87 88 88 84 81 78 75 75 78 82 84 91 104 116 120 153 217 231 201 211 210 127 138 113 186 225 221 159 126 136 141 125 128 133 135 118 128 137 135 118 96 78 69 121 145 143 144 156 156 152 144 142 143 146 150 153 157 160 161 157 156 156 156 155 155 155 154 151 152 153 153 151 148 144 142 139 139 140 140 141 142 142 143 145 145 146 146 147 148 149 149 153 157 162 161 155 151 151 152 145 146 148 151 154 157 159 161 151 151 151 152 153 154 154 155 155 155 154 154 154 153 153 153 155 154 150 149 157 164 158 147 100 136 158 146 134 141 151 150 149 139 137 143 143 138 143 155 144 139 132 133 147 162 164 156 149 93 76 61 55 72 61 61 70 82 97 104 102 97 95 95 86 87 89 91 93 95 96 97 99 100 101 101 102 102 101 101 147 212 215 213 217 217 226 199 95 107 215 216 221 212 208 212 217 181 219 170 125 121 114 96 82 65 79 83 124 78 72 78 62 74 78 75 82 98 104 97 89 95 101 104 100 89 76 67 78 78 
137 137 137 138 139 140 140 141 145 145 146 147 147 148 149 149 145 145 145 145 145 145 145 145 144 144 144 143 143 143 142 142 143 142 141 145 119 60 77 68 80 79 79 78 77 76 76 76 78 75 72 70 70 73 77 79 87 91 91 84 73 66 67 71 69 70 72 74 77 80 82 83 88 86 84 82 84 88 93 96 127 125 133 126 105 118 158 179 178 144 104 137 136 159 214 212 183 115 128 146 119 124 138 129 138 131 128 132 134 119 87 61 114 180 161 136 157 149 138 141 154 153 151 149 147 145 143 143 153 153 152 152 151 151 151 151 150 152 155 158 159 158 157 155 154 155 155 156 157 158 158 159 147 147 148 148 149 150 151 151 152 157 162 162 158 154 154 156 154 153 151 148 145 142 140 139 141 141 142 142 143 144 145 145 151 151 151 150 150 150 149 149 160 155 148 147 159 164 144 116 160 144 113 92 107 139 144 127 157 152 151 150 139 128 134 150 166 155 140 127 120 131 163 194 163 120 69 74 52 70 71 66 72 82 96 105 106 103 99 97 86 87 89 91 93 95 96 97 101 100 100 100 100 101 102 102 165 215 212 210 218 213 221 217 115 91 199 216 227 220 210 208 222 185 207 142 115 146 143 103 120 111 119 105 133 85 75 69 76 87 94 94 98 103 100 91 82 86 91 97 102 103 104 103 95 95 
140 141 141 142 143 143 144 144 148 148 149 150 151 151 152 152 153 153 153 153 153 153 153 153 149 149 148 148 148 147 147 147 149 150 146 151 133 60 80 73 78 77 77 76 75 74 74 74 72 72 73 73 74 73 73 72 69 71 72 71 68 68 70 73 69 71 73 77 80 84 86 88 92 93 96 101 107 114 120 123 126 115 115 125 130 133 126 112 124 135 134 119 127 147 177 125 127 106 121 126 121 126 127 131 141 131 120 121 128 127 114 100 80 166 153 136 164 159 153 162 160 159 158 157 155 153 152 152 155 154 154 154 153 153 153 153 146 148 153 157 159 160 160 159 149 150 149 151 151 153 152 154 150 152 151 153 153 155 154 154 143 149 155 155 151 148 149 151 161 160 159 156 154 152 150 149 148 149 149 150 151 152 152 153 153 153 153 153 152 152 152 151 154 159 163 158 145 132 124 121 118 143 159 152 138 130 119 107 91 100 111 117 115 116 131 148 156 160 165 156 132 118 138 171 170 142 66 78 53 63 69 62 77 84 93 101 104 103 100 97 87 88 88 89 90 92 92 93 98 97 96 96 97 100 103 105 185 214 208 210 218 209 215 221 120 76 178 221 227 227 224 223 211 221 180 128 114 102 114 116 100 110 110 119 116 115 103 108 102 96 91 90 93 98 107 115 109 101 89 81 79 85 94 101 94 94 
145 146 146 147 148 149 149 150 148 148 149 150 151 151 152 152 155 155 155 155 155 155 155 155 162 162 162 161 161 161 160 160 157 161 154 159 148 65 86 80 78 77 77 76 75 74 74 73 75 75 75 74 74 74 73 73 76 74 73 75 79 80 78 76 81 82 83 85 87 89 90 91 96 100 107 115 122 127 131 133 119 135 128 107 106 119 124 122 135 120 124 143 138 112 106 109 102 108 123 121 125 129 122 132 130 129 126 124 124 129 135 140 106 162 151 147 155 139 142 139 149 150 152 154 157 159 161 162 154 154 154 153 153 152 152 152 140 142 145 148 150 150 148 147 135 134 136 136 137 137 139 138 143 142 144 143 145 145 147 147 144 150 156 157 154 151 152 154 155 155 157 158 160 162 163 164 149 149 150 151 151 152 153 153 146 146 145 145 144 144 144 144 139 161 168 142 114 108 116 121 147 150 150 148 148 150 149 145 134 143 149 144 139 139 141 142 152 147 148 158 164 154 131 112 151 129 61 66 62 61 65 62 83 86 90 96 100 101 98 96 88 88 88 87 87 87 87 87 93 92 91 91 94 99 104 107 204 212 205 214 220 209 213 220 134 74 155 221 218 222 220 213 205 193 133 118 124 105 91 106 105 111 106 116 85 94 90 100 83 72 73 85 87 80 83 96 121 122 122 118 110 98 86 79 88 88 
149 149 150 151 152 152 153 153 146 147 147 148 149 150 150 151 153 153 153 153 153 153 153 153 147 147 147 146 146 146 145 145 153 158 150 155 147 59 81 75 81 81 80 80 79 78 77 77 86 83 78 74 71 71 71 72 80 76 72 75 80 80 74 67 82 82 82 82 82 82 82 81 101 105 112 119 123 125 124 123 125 131 122 119 130 123 116 127 120 131 124 132 118 133 112 125 136 115 131 137 127 129 129 131 140 136 133 133 135 136 135 133 131 145 129 140 135 126 155 147 135 136 137 138 139 140 141 142 142 143 143 142 142 141 141 141 136 137 139 140 140 138 135 134 134 135 135 136 137 138 138 139 140 141 141 142 143 144 144 145 135 140 147 147 145 141 143 145 148 147 148 148 149 148 150 150 153 153 153 154 154 156 156 157 153 154 152 153 152 152 151 151 134 159 148 103 90 117 121 95 149 146 147 150 154 155 157 159 151 159 159 151 148 149 142 129 137 149 153 143 135 138 141 141 123 102 56 50 71 65 65 68 87 87 88 92 96 98 97 95 89 88 87 86 85 84 83 82 89 88 87 88 92 98 104 108 217 211 206 218 223 211 213 218 176 86 131 211 210 215 194 161 125 86 96 112 107 124 85 102 102 95 104 104 79 76 95 106 107 86 81 92 89 72 73 91 110 110 109 109 110 111 112 113 104 104 
147 149 154 157 158 156 153 151 146 149 153 157 158 156 153 151 155 155 155 155 155 155 155 155 155 162 153 147 153 147 139 145 139 152 158 144 163 79 74 76 79 79 79 79 79 79 79 79 82 81 81 80 79 78 78 77 86 85 84 83 84 85 86 87 82 83 85 87 90 93 94 96 113 115 117 120 124 127 129 131 125 127 130 133 134 133 131 129 126 126 127 128 130 131 132 134 132 132 132 133 134 135 135 136 127 127 128 129 129 130 131 131 137 146 148 137 143 141 125 144 139 139 139 139 139 139 139 139 138 138 139 140 141 141 142 142 145 142 139 140 144 146 143 139 145 142 147 138 145 136 141 137 140 142 144 146 146 144 142 140 144 143 141 139 140 142 145 146 139 139 138 138 138 137 137 137 143 143 143 142 142 141 141 141 141 141 142 142 142 143 143 143 152 142 111 73 65 80 99 84 110 129 138 144 155 151 145 154 157 161 167 171 169 162 153 147 144 155 153 152 159 149 135 138 151 116 83 69 64 57 58 66 85 83 82 87 95 100 99 97 92 87 90 80 88 82 90 88 82 82 92 83 99 97 84 148 212 211 209 208 208 210 213 215 208 86 112 202 192 131 98 105 114 107 108 105 103 112 103 71 89 88 88 88 87 87 87 87 89 85 75 72 89 107 102 83 73 92 104 105 104 101 97 99 81 81 
147 149 153 156 157 155 153 151 147 149 153 156 157 155 153 151 155 155 155 155 155 155 155 155 161 168 160 154 160 154 146 153 143 149 156 145 158 94 69 77 80 80 80 80 80 80 80 80 82 81 81 80 79 79 78 78 79 78 79 80 82 86 90 92 81 84 90 97 104 111 117 120 122 122 122 123 123 123 123 124 125 127 130 133 134 133 131 129 126 127 128 129 130 131 132 132 132 132 132 133 134 135 135 136 130 130 130 131 132 133 133 134 134 144 149 140 147 146 133 151 142 142 142 142 142 142 142 143 143 143 144 145 146 146 147 147 157 153 150 152 156 157 154 151 146 142 147 138 145 136 141 138 131 133 135 137 137 135 133 131 145 143 141 140 140 142 145 147 144 144 144 143 143 143 142 142 134 133 133 133 132 132 132 131 131 131 132 132 133 133 133 133 134 98 68 87 120 133 144 139 138 153 154 150 149 135 121 126 123 126 131 138 145 150 154 157 154 155 146 149 166 161 141 134 132 127 122 109 81 56 55 69 86 83 83 87 94 99 98 96 93 88 90 79 86 78 85 83 88 85 97 93 100 87 78 149 210 209 207 205 204 205 207 208 195 113 103 116 101 102 108 112 120 111 110 108 106 116 111 84 88 88 88 88 87 87 87 86 85 87 80 71 76 91 97 93 98 81 75 92 110 110 102 101 97 97 
147 149 151 153 154 154 152 151 148 150 152 154 155 155 153 152 156 156 156 156 156 156 156 156 156 163 155 150 156 151 143 150 150 147 154 146 151 119 61 78 81 81 81 81 81 81 81 81 82 82 81 80 80 79 78 78 88 85 82 80 80 82 85 87 96 99 105 112 120 128 134 137 131 130 128 125 123 120 118 117 125 127 130 133 134 133 131 129 128 128 129 129 130 130 131 131 132 132 132 133 134 135 135 136 133 134 134 135 136 137 137 138 133 141 151 145 149 150 139 153 144 144 144 144 144 144 144 144 143 143 144 144 145 146 147 147 151 147 144 146 150 152 149 145 146 143 148 139 146 137 142 138 146 148 150 152 152 150 148 146 145 144 142 140 141 143 146 147 150 150 149 149 149 148 148 148 142 142 141 141 141 140 140 140 139 139 139 140 140 140 141 141 140 114 85 112 133 128 135 140 121 140 148 154 164 159 153 161 132 130 128 128 133 142 152 158 153 160 156 156 165 159 145 147 134 130 126 119 98 73 58 57 86 84 83 87 93 97 96 94 94 88 90 79 86 78 85 83 96 83 88 87 92 83 92 171 198 206 216 219 211 193 172 158 122 111 120 108 98 117 118 102 125 114 111 110 108 120 121 102 88 88 88 87 87 86 86 86 79 87 86 72 64 73 89 99 88 90 87 80 86 106 115 107 107 107 
147 148 149 151 151 152 152 151 149 150 151 152 153 153 153 153 158 158 158 158 158 158 158 158 153 160 153 148 155 151 143 151 154 145 152 148 144 143 56 81 81 81 81 81 81 81 81 81 83 82 82 81 80 79 79 78 91 89 85 83 85 89 94 97 121 122 124 126 129 131 133 134 133 132 130 127 124 122 120 119 125 127 130 133 134 133 131 129 130 130 130 130 130 130 130 130 132 132 132 133 134 135 135 136 137 137 138 139 140 140 141 141 135 138 152 147 145 146 135 144 142 142 142 142 142 142 143 143 137 137 138 139 140 140 141 141 142 138 136 137 141 143 140 136 147 144 149 140 147 138 143 139 132 133 136 138 138 136 133 132 146 145 143 141 142 144 147 148 151 150 150 150 149 149 149 149 152 152 152 152 151 151 151 150 149 149 149 149 150 150 151 151 143 153 117 115 113 114 124 124 129 146 151 153 158 149 140 147 158 153 146 140 139 142 148 152 153 165 162 160 166 159 151 157 158 140 122 114 110 100 83 70 87 84 83 86 92 96 94 91 91 87 91 83 92 87 96 95 105 91 88 86 93 91 101 159 199 179 147 116 97 91 94 99 100 110 120 117 117 125 126 124 126 111 108 109 106 117 125 115 88 88 87 87 86 86 86 86 74 84 87 76 63 64 79 93 81 94 104 89 72 86 108 110 103 102 
147 147 147 147 148 149 151 152 150 150 150 150 151 152 153 154 159 159 159 159 159 159 159 159 160 167 161 157 164 160 153 161 156 145 154 150 140 159 55 84 82 82 82 82 82 82 82 82 83 83 82 81 81 80 79 79 80 80 81 86 95 108 120 128 134 134 133 132 131 130 129 129 129 129 129 128 128 127 127 126 125 127 130 133 134 133 131 129 132 132 132 131 130 129 129 129 132 132 132 133 134 135 135 136 139 139 140 141 141 142 143 143 137 137 152 148 139 137 126 128 138 138 138 138 138 138 138 138 137 137 137 138 139 140 141 141 148 145 142 143 147 149 146 142 148 145 150 141 148 139 144 140 142 144 146 148 148 146 144 142 147 146 144 142 143 145 147 149 147 147 147 147 146 146 145 145 146 146 146 146 145 145 144 144 142 142 142 142 143 143 143 144 133 144 79 69 72 85 87 73 79 101 114 127 144 147 146 157 151 150 148 147 147 147 148 149 164 164 153 155 173 172 157 155 165 160 148 133 122 117 114 112 88 85 83 85 91 94 92 88 88 85 92 88 102 101 113 114 115 107 105 102 108 103 92 105 84 89 97 105 110 110 109 107 117 117 108 107 112 113 121 132 123 106 104 106 102 110 122 119 87 87 87 86 86 86 85 85 73 79 84 82 73 66 70 78 106 77 86 109 92 72 84 101 95 95 
